backend/3dlut-creator/demo/canon_portrait.cube
TITLE "3D LUT from Image Pairs"
LUT_3D_SIZE 4
0.006615 0.006194 0.005942
0.385302 0.017380 0.006369
0.673743 0.017934 0.012024
0.825318 0.049453 0.045023
0.042539 0.196284 0.033748
0.281153 0.339858 0.048738
0.721363 0.214119 0.007637
0.864239 0.318905 0.065441
0.175566 0.486327 0.044595
0.323674 0.565109 0.000000
0.652893 0.698040 0.000000
0.918045 0.662808 0.142077
0.269023 0.555157 0.011196
0.504961 0.666703 0.000000
0.747261 0.818821 0.000000
0.856175 0.886561 0.010622
0.131996 0.026871 0.248730
0.380923 0.078160 0.208122
0.682327 0.076968 0.220746
0.857838 0.072248 0.080032
0.000000 0.268581 0.437700
0.309804 0.313726 0.313726
0.717869 0.278163 0.290451
0.962854 0.368949 0.385819
0.000000 0.576326 0.504394
0.280653 0.567694 0.258818
0.635034 0.672115 0.247191
0.966607 0.734095 0.416913
0.000000 0.636265 0.557556
0.423723 0.653098 0.293360
0.758658 0.800341 0.262329
0.969315 0.938010 0.276221
0.316444 0.045800 0.528439
0.424118 0.051907 0.643736
0.676343 0.141756 0.721186
0.910134 0.330144 0.575701
0.000000 0.348392 0.610226
0.494891 0.207410 0.701931
0.775412 0.341139 0.753767
0.985936 0.478385 0.751402
0.000000 0.633827 0.620038
0.000000 0.673549 0.599322
0.674627 0.673536 0.680829
0.999813 0.727585 0.796614
0.000000 0.661968 0.591130
0.103655 0.706139 0.603660
0.712140 0.832895 0.653481
1.000000 0.963110 0.612355
0.459476 0.059536 0.702101
0.611198 0.089156 0.864370
0.776234 0.245380 0.942880
0.944466 0.438177 0.771277
0.000000 0.615032 0.793004
0.765849 0.250425 0.981375
0.863198 0.443504 0.997388
0.983382 0.631522 0.947188
0.000000 0.620822 0.799053
0.241517 0.705327 0.847767
0.874388 0.711436 1.000000
1.000000 0.811571 0.992399
0.031941 0.642914 0.808448
0.345190 0.742716 0.858002
0.705787 0.889387 0.819846
0.990372 0.991760 0.995076
