backend/3dlut-creator/demo/canon_portrait.cube
TITLE "3D LUT from Image Pairs"
LUT_3D_SIZE 8
0.006615 0.006194 0.005942
0.115379 0.010275 0.005850
0.317919 0.014453 0.007424
0.488920 0.023936 0.007493
0.604833 0.015325 0.005935
0.715128 0.018999 0.013914
0.772253 0.029512 0.021753
0.825318 0.049453 0.045023
0.014675 0.062965 0.019019
0.091897 0.117153 0.021108
0.285538 0.116854 0.013935
0.473622 0.093515 0.021684
0.622379 0.070304 0.009934
0.714391 0.075333 0.012052
0.787313 0.088761 0.020321
0.844391 0.109032 0.050517
0.041260 0.173291 0.029784
0.090981 0.236414 0.037065
0.228851 0.289503 0.048063
0.449848 0.251265 0.042520
0.632045 0.173740 0.010846
0.742099 0.174635 0.004128
0.805353 0.228297 0.011562
0.857813 0.282327 0.053937
0.061455 0.230273 0.040198
0.157534 0.319728 0.055358
0.213423 0.407139 0.033825
0.392157 0.431373 0.007843
0.587714 0.411713 0.026277
0.760986 0.297034 0.018441
0.829799 0.340901 0.045389
0.880317 0.417082 0.104996
0.144532 0.352521 0.067916
0.209504 0.491626 0.030886
0.251335 0.524801 0.011301
0.348636 0.571501 0.000000
0.554758 0.583857 0.000000
0.695358 0.632249 0.000239
0.862734 0.494352 0.100622
0.906147 0.579719 0.140605
0.185194 0.490502 0.038856
0.234010 0.525245 0.017364
0.323375 0.564859 0.000000
0.468938 0.633328 0.000000
0.567670 0.687658 0.000000
0.694575 0.724276 0.000000
0.772794 0.764519 0.000000
0.928516 0.686215 0.149618
0.226985 0.530295 0.023333
0.290513 0.559815 0.006292
0.405646 0.612282 0.000000
0.519635 0.672434 0.000000
0.614864 0.723048 0.000000
0.737021 0.788782 0.000000
0.813083 0.825086 0.000000
0.851720 0.851105 0.021278
0.269023 0.555157 0.011196
0.359404 0.595367 0.000243
0.491894 0.657377 0.000000
0.583744 0.706600 0.000000
0.667824 0.765661 0.000000
0.780350 0.843753 0.000000
0.822372 0.873677 0.000465
0.856175 0.886561 0.010622
0.021277 0.010249 0.046198
0.113589 0.016000 0.054291
0.301992 0.028245 0.060890
0.474564 0.047705 0.061507
0.630497 0.032743 0.028458
0.746328 0.028151 0.022920
0.810724 0.046094 0.038339
0.838751 0.054313 0.054033
0.003607 0.069440 0.120788
0.090322 0.097661 0.093338
0.277126 0.104707 0.087570
0.468275 0.101525 0.077278
0.626743 0.098774 0.077999
0.750728 0.081580 0.042283
0.811556 0.079538 0.040206
0.875694 0.115243 0.078627
0.006817 0.144202 0.196872
0.070936 0.261358 0.099072
0.230058 0.280040 0.121365
0.439100 0.248379 0.096773
0.620060 0.223853 0.109903
0.756947 0.194243 0.096663
0.838944 0.174359 0.042862
0.889152 0.204117 0.094094
0.050701 0.311104 0.113147
0.085761 0.345560 0.121069
0.140430 0.433063 0.104608
0.366540 0.442167 0.089497
0.597966 0.408483 0.138571
0.743869 0.392953 0.168104
0.855951 0.361224 0.107722
0.912548 0.400944 0.145178
0.079862 0.368608 0.120848
0.135114 0.453545 0.095605
0.203762 0.502836 0.069440
0.351959 0.573646 0.042438
0.549583 0.576664 0.067805
0.719388 0.586234 0.156927
0.850200 0.584440 0.160588
0.936024 0.596819 0.175390
0.136718 0.460769 0.089915
0.201814 0.507420 0.067443
0.327793 0.576395 0.056134
0.435394 0.629200 0.010604
0.547814 0.684164 0.001662
0.689561 0.736203 0.033484
0.848976 0.771942 0.067698
0.960805 0.748244 0.183777
0.188721 0.504970 0.063374
0.281438 0.556862 0.056288
0.407822 0.616452 0.021931
0.512596 0.671528 0.004634
0.611207 0.721075 0.013453
0.740751 0.806980 0.008100
0.822426 0.871559 0.000000
0.909326 0.888353 0.122409
0.188639 0.572753 0.187145
0.381661 0.610307 0.043737
0.485284 0.658354 0.004896
0.575456 0.702954 0.008353
0.708790 0.788772 0.016882
0.801181 0.857894 0.000482
0.843755 0.885268 0.010787
0.908385 0.909503 0.075068
0.112700 0.023478 0.196855
0.154045 0.025725 0.220863
0.294677 0.059350 0.169885
0.506210 0.068930 0.138043
0.612917 0.072100 0.163470
0.764304 0.052291 0.063230
0.821332 0.047325 0.044596
0.853032 0.068784 0.074790
0.000000 0.171519 0.262232
0.123183 0.116546 0.261060
0.315210 0.106349 0.218239
0.484002 0.112615 0.187820
0.631323 0.108542 0.187666
0.756356 0.127049 0.218617
0.825757 0.137785 0.173234
0.887534 0.115001 0.110526
0.000000 0.221721 0.354805
0.070993 0.239104 0.292542
0.255624 0.259682 0.258756
0.449861 0.235167 0.229333
0.620530 0.228056 0.224112
0.756473 0.223016 0.233687
0.855666 0.264566 0.267457
0.926501 0.218750 0.179521
0.000000 0.275806 0.446281
0.101516 0.335265 0.276106
0.169487 0.416621 0.228972
0.392212 0.423105 0.225559
0.592464 0.409690 0.243175
0.741829 0.405517 0.272176
0.858661 0.427318 0.321787
0.951882 0.393740 0.263758
0.000000 0.356018 0.458097
0.046874 0.460415 0.341751
0.206356 0.508829 0.213164
0.338707 0.568499 0.182556
0.545568 0.571762 0.203017
0.715599 0.583316 0.264067
0.848010 0.599783 0.332606
0.959203 0.611457 0.339418
0.000000 0.579882 0.505822
0.078813 0.527146 0.365391
0.287930 0.568084 0.207208
0.403823 0.614651 0.177037
0.553141 0.669888 0.164753
0.679313 0.730087 0.182987
0.840311 0.749268 0.298304
0.964501 0.788507 0.327744
0.000000 0.631613 0.550710
0.018088 0.622801 0.518171
0.356924 0.605815 0.216282
0.512150 0.660257 0.187240
0.627687 0.716226 0.150541
0.727908 0.783688 0.183889
0.841642 0.860335 0.223680
0.960456 0.908044 0.272043
0.000000 0.633341 0.552688
0.017805 0.631139 0.529254
0.414986 0.644555 0.265616
0.557449 0.690252 0.169412
0.692176 0.762784 0.175622
0.824495 0.851227 0.217136
0.885402 0.891742 0.229686
0.951568 0.932979 0.219062
0.183055 0.032598 0.330596
0.217582 0.034000 0.361607
0.330779 0.077869 0.363506
0.490717 0.094071 0.336549
0.655360 0.072247 0.213448
0.741419 0.106848 0.301420
0.813936 0.154447 0.329144
0.865546 0.111842 0.160293
0.000000 0.235357 0.420511
0.234679 0.057597 0.425745
0.344228 0.099794 0.396386
0.508748 0.105728 0.379750
0.666624 0.131684 0.304324
0.771720 0.138604 0.351293
0.842736 0.213750 0.385194
0.904714 0.263346 0.397569
0.000000 0.280167 0.465646
0.019483 0.282589 0.460792
0.225274 0.266620 0.427355
0.478871 0.215680 0.411000
0.644991 0.224835 0.385692
0.764205 0.265761 0.408804
0.879269 0.294727 0.433793
0.963817 0.368617 0.465074
0.000000 0.343081 0.600653
0.003976 0.361455 0.505274
0.016546 0.442953 0.423156
0.419608 0.423529 0.423529
0.600000 0.407843 0.419608
0.754868 0.416652 0.433397
0.874476 0.428224 0.463297
0.979448 0.482654 0.530135
0.000000 0.349788 0.608649
0.000000 0.512204 0.462808
0.006738 0.533171 0.448074
0.309523 0.574064 0.359510
0.556863 0.564706 0.380392
0.720954 0.580014 0.416976
0.854335 0.601205 0.469374
0.976827 0.630889 0.540729
0.000000 0.631852 0.554012
0.000000 0.627726 0.547513
0.005106 0.599230 0.491854
0.361110 0.626207 0.352755
0.524970 0.674610 0.334748
0.687441 0.714972 0.355998
0.837462 0.746717 0.422879
0.971209 0.781920 0.505926
0.000000 0.636233 0.557492
0.000000 0.636502 0.556080
0.004872 0.661096 0.527688
0.423888 0.655808 0.340949
0.598020 0.709690 0.332584
0.728683 0.776755 0.342030
0.842011 0.847326 0.348492
0.977760 0.908237 0.398140
0.000000 0.639224 0.561508
0.000000 0.649012 0.574257
0.029023 0.687984 0.541369
0.347892 0.689658 0.429781
0.686796 0.755353 0.343672
0.793003 0.824614 0.365103
0.894558 0.888253 0.356100
0.987365 0.944559 0.378100
0.253137 0.040887 0.443257
0.298967 0.043495 0.497494
0.340368 0.045325 0.544477
0.493212 0.097834 0.531320
0.593538 0.116748 0.562699
0.777470 0.140210 0.363803
0.840872 0.209153 0.447714
0.892742 0.299259 0.530277
0.000000 0.300464 0.536394
0.311236 0.054663 0.541778
0.389394 0.059615 0.587788
0.537853 0.110013 0.557794
0.614515 0.134152 0.581676
0.809059 0.199756 0.441247
0.874974 0.265666 0.510659
0.920111 0.345982 0.585815
0.000000 0.345825 0.606341
0.000000 0.351402 0.592378
0.436343 0.193879 0.619798
0.524707 0.196595 0.588067
0.677336 0.218796 0.584083
0.786136 0.305799 0.554565
0.904424 0.336320 0.594421
0.966784 0.416300 0.643234
0.000000 0.348630 0.610562
0.000000 0.384908 0.630224
0.127131 0.423036 0.630532
0.442778 0.417866 0.601478
0.635409 0.404842 0.604131
0.773044 0.432470 0.613848
0.892550 0.468923 0.637349
1.000000 0.509804 0.682353
0.000000 0.591661 0.567984
0.000000 0.627967 0.551883
0.000000 0.591395 0.550617
0.313726 0.576471 0.556863
0.572549 0.572549 0.572549
0.740483 0.580754 0.600061
0.877905 0.601865 0.638231
0.997058 0.628533 0.704403
0.000000 0.637382 0.561396
0.000000 0.637789 0.559728
0.000000 0.653482 0.544756
0.205630 0.675402 0.522629
0.517968 0.678283 0.527617
0.699936 0.710995 0.537500
0.855294 0.745668 0.582589
0.990711 0.780594 0.659040
0.000000 0.641169 0.565354
0.000000 0.653867 0.581553
0.000482 0.685836 0.557268
0.199441 0.700254 0.559058
0.547222 0.720287 0.581177
0.743835 0.784278 0.491859
0.833727 0.848818 0.480662
0.989688 0.907128 0.553151
0.000000 0.647788 0.574236
0.000000 0.670868 0.601014
0.039894 0.698039 0.568362
0.256637 0.708348 0.579177
0.634542 0.768866 0.612008
0.804968 0.837445 0.464842
0.872035 0.880912 0.487881
1.000000 0.968949 0.316578
0.331631 0.045351 0.541802
0.376357 0.048961 0.597377
0.426993 0.052621 0.652939
0.519705 0.066655 0.738360
0.675254 0.138741 0.731504
0.703497 0.164858 0.768120
0.870802 0.257558 0.503896
0.917096 0.343519 0.594703
0.041365 0.310572 0.606278
0.404952 0.052706 0.639801
0.471970 0.062518 0.714382
0.560681 0.077490 0.788173
0.694683 0.152224 0.765702
0.766633 0.264581 0.813736
0.912684 0.339362 0.601604
0.947619 0.395386 0.657251
0.000000 0.348244 0.609962
0.000000 0.384786 0.631457
0.524729 0.106825 0.771890
0.602380 0.212567 0.826003
0.739517 0.249051 0.799124
0.792660 0.331799 0.851529
0.921684 0.413692 0.682665
0.981577 0.476767 0.755409
0.000000 0.353978 0.615425
0.011799 0.450170 0.695427
0.097178 0.495610 0.728726
0.578086 0.412118 0.787376
0.671694 0.425778 0.815177
0.814338 0.447335 0.829540
0.918601 0.522725 0.836683
0.999001 0.559999 0.850659
0.000000 0.619998 0.736033
0.000000 0.614391 0.791559
0.003236 0.587334 0.752306
0.351924 0.577932 0.766552
0.610916 0.575750 0.787870
0.770377 0.599746 0.803104
0.902379 0.622076 0.803441
1.000000 0.662946 0.883837
0.000000 0.628744 0.698087
0.000000 0.630024 0.732873
0.000000 0.682925 0.613680
0.195820 0.705242 0.642890
0.515285 0.707871 0.692011
0.724372 0.723667 0.729687
0.880650 0.748733 0.774437
0.999823 0.775836 0.823319
0.000000 0.638904 0.660797
0.000000 0.671409 0.602520
0.000000 0.692401 0.628318
0.272222 0.720618 0.677032
0.489182 0.772722 0.681478
0.708508 0.810882 0.639229
0.851058 0.854650 0.653435
0.994596 0.904602 0.715036
0.000000 0.660577 0.620859
0.000000 0.682135 0.622530
0.082080 0.706908 0.651633
0.443331 0.765927 0.696750
0.541371 0.806379 0.716921
0.720784 0.859063 0.672569
0.871095 0.894142 0.634323
1.000000 0.968354 0.704809
0.388753 0.050475 0.616455
0.441562 0.055120 0.676820
0.519513 0.068811 0.764709
0.580168 0.077428 0.821680
0.716189 0.175173 0.814816
0.753543 0.230520 0.866199
0.809043 0.329775 0.886743
0.942181 0.384845 0.647403
0.408821 0.053921 0.645611
0.477514 0.063741 0.723894
0.553631 0.078366 0.811620
0.656256 0.103861 0.895074
0.749525 0.218873 0.902078
0.808111 0.319582 0.900556
0.828733 0.364793 0.921394
0.973735 0.456920 0.736702
0.000000 0.353453 0.615069
0.523478 0.078709 0.785523
0.611439 0.107053 0.878779
0.703984 0.184080 0.947194
0.794212 0.292096 0.984538
0.842652 0.398183 0.958455
0.886109 0.480671 0.930651
0.991470 0.556871 0.855440
0.000000 0.614836 0.792587
0.000000 0.614758 0.792496
0.162175 0.541935 0.767672
0.742761 0.347077 0.961173
0.772917 0.451489 0.987897
0.875765 0.512251 1.000000
0.929949 0.570798 0.967070
0.998512 0.628868 0.920212
0.000000 0.616588 0.794831
0.000000 0.616753 0.795050
0.000479 0.633678 0.807182
0.328871 0.630670 0.830290
0.761024 0.567676 0.988422
0.827308 0.634295 0.989341
0.921946 0.658661 0.996706
1.000000 0.723495 0.978355
0.000000 0.617125 0.794693
0.000000 0.623724 0.801489
0.105581 0.674670 0.827519
0.293010 0.716134 0.854193
0.523236 0.729797 0.862617
0.730029 0.750952 0.903952
0.916269 0.770332 0.972734
0.999678 0.803777 0.984275
0.000000 0.620853 0.799071
0.000000 0.636551 0.805512
0.218309 0.708420 0.840340
0.329602 0.739061 0.855021
0.520525 0.787943 0.832030
0.662992 0.837970 0.798807
0.865649 0.869389 0.871976
0.998751 0.900056 0.933909
0.000000 0.639370 0.765635
0.135412 0.695796 0.794072
0.262029 0.723278 0.844837
0.402204 0.758776 0.853116
0.601849 0.839506 0.758504
0.686700 0.880027 0.780345
0.815535 0.924433 0.826951
0.997456 0.993502 0.903676
0.459476 0.059536 0.702101
0.518488 0.070074 0.768290
0.579030 0.082762 0.839310
0.668019 0.109526 0.901481
0.757052 0.203238 0.944879
0.777205 0.251763 0.941358
0.821894 0.348140 0.911170
0.944466 0.438177 0.771277
0.485566 0.067154 0.736321
0.557630 0.083564 0.824822
0.625766 0.104029 0.887458
0.727843 0.180973 0.951769
0.798526 0.265651 0.984957
0.822205 0.324924 0.970122
0.852461 0.423779 0.976225
0.985704 0.549296 0.856515
0.034375 0.568304 0.786915
0.621288 0.118548 0.887374
0.704394 0.183178 0.946315
0.788096 0.275981 0.991499
0.816508 0.326390 1.000000
0.866523 0.450935 0.997599
0.887507 0.522536 0.999756
0.976808 0.609182 0.938798
0.000000 0.616495 0.794714
0.000000 0.617922 0.796381
0.660202 0.338744 0.959744
0.813472 0.325629 0.997962
0.832088 0.387971 0.997226
0.901404 0.551708 1.000000
0.918402 0.598898 1.000000
1.000000 0.713054 0.976106
0.000000 0.616585 0.794819
0.000000 0.623036 0.801010
0.069780 0.658112 0.824061
0.279344 0.703799 0.852493
0.809884 0.623994 0.999065
0.879377 0.661022 1.000000
0.938700 0.674433 1.000000
1.000000 0.762081 0.990781
0.000000 0.620850 0.799075
0.000000 0.628877 0.805377
0.195543 0.697588 0.840131
0.336310 0.732576 0.863942
0.493462 0.773034 0.879411
0.915704 0.769325 1.000000
0.944375 0.816937 1.000000
1.000000 0.830917 0.993514
0.000000 0.629221 0.801000
0.129317 0.682081 0.831915
0.251945 0.718519 0.846629
0.389515 0.753121 0.862863
0.556113 0.796383 0.889955
0.708233 0.847586 0.948502
0.839826 0.904862 0.986772
1.000000 0.930212 0.998826
0.031941 0.642914 0.808448
0.231638 0.712801 0.843549
0.295388 0.733213 0.850031
0.448385 0.769836 0.869312
0.640418 0.848540 0.837205
0.729941 0.899647 0.839068
0.867211 0.941217 0.952756
0.990372 0.991760 0.995076
