backend/3dlut-creator/demo/canon_portrait.cube
TITLE "3D LUT from Image Pairs"
LUT_3D_SIZE 64
0.006615 0.006194 0.005942
0.007483 0.005878 0.005321
0.009229 0.005424 0.004593
0.013194 0.005434 0.004780
0.020188 0.005954 0.004846
0.033257 0.007655 0.005068
0.050044 0.010049 0.006215
0.068665 0.011892 0.006815
0.088739 0.013060 0.007442
0.115379 0.010275 0.005850
0.139337 0.011279 0.007041
0.172549 0.007843 0.007843
0.185154 0.013390 0.007401
0.204203 0.014067 0.008059
0.221641 0.016959 0.008345
0.246098 0.017838 0.009156
0.272136 0.018111 0.008975
0.294592 0.015395 0.008392
0.317919 0.014453 0.007424
0.339878 0.014126 0.006481
0.364751 0.015237 0.006134
0.385302 0.017380 0.006369
0.402330 0.018875 0.007489
0.420053 0.020594 0.007594
0.439423 0.020755 0.008217
0.455057 0.023521 0.009084
0.472199 0.022545 0.007529
0.488920 0.023936 0.007493
0.506320 0.025567 0.007745
0.520791 0.026774 0.008279
0.532581 0.026867 0.008498
0.550425 0.023786 0.007274
0.570431 0.018969 0.006439
0.582198 0.016667 0.005792
0.594092 0.015692 0.005999
0.601981 0.013155 0.005398
0.604833 0.015325 0.005935
0.610876 0.017635 0.006801
0.624460 0.018566 0.008089
0.630703 0.018619 0.008918
0.646668 0.017120 0.010173
0.656744 0.017545 0.011229
0.673743 0.017934 0.012024
0.687090 0.020069 0.013237
0.696482 0.020228 0.013219
0.715128 0.018999 0.013914
0.725661 0.020181 0.014396
0.733400 0.019767 0.015122
0.742417 0.019580 0.015376
0.747355 0.022399 0.016333
0.751279 0.025684 0.017283
0.759202 0.025955 0.017308
0.759328 0.026008 0.017344
0.764236 0.026558 0.019300
0.772253 0.029512 0.021753
0.782532 0.032760 0.025205
0.794799 0.037214 0.030112
0.802712 0.039222 0.032830
0.807250 0.043163 0.035065
0.812162 0.047028 0.038443
0.815352 0.048742 0.039424
0.818755 0.046397 0.041594
0.818854 0.046393 0.041650
0.825318 0.049453 0.045023
0.006691 0.007364 0.006406
0.007372 0.007562 0.005574
0.009755 0.007880 0.005298
0.014690 0.008203 0.005270
0.021738 0.009238 0.005446
0.032408 0.010298 0.005625
0.047578 0.012113 0.006029
0.067937 0.014781 0.007406
0.087241 0.016809 0.008663
0.107735 0.018414 0.009486
0.128369 0.020633 0.010317
0.150005 0.020927 0.010549
0.177088 0.021149 0.010414
0.198456 0.022571 0.009887
0.214898 0.025173 0.010053
0.242298 0.027868 0.010145
0.262881 0.027888 0.010179
0.283614 0.025508 0.009093
0.307020 0.023734 0.008518
0.327870 0.021747 0.007738
0.359976 0.019708 0.006592
0.383799 0.021285 0.006725
0.402446 0.022792 0.006807
0.419771 0.025040 0.007925
0.441487 0.026206 0.008550
0.454572 0.026561 0.008063
0.471604 0.027720 0.007774
0.490466 0.026155 0.007262
0.508230 0.027188 0.007890
0.522200 0.028520 0.008597
0.534660 0.028738 0.008604
0.553269 0.027283 0.007928
0.571126 0.019919 0.006207
0.583197 0.018816 0.005916
0.594710 0.015437 0.005340
0.601571 0.015105 0.005538
0.610181 0.018501 0.006649
0.612269 0.019354 0.006882
0.620799 0.021805 0.008120
0.630837 0.020463 0.008459
0.640037 0.019986 0.009448
0.664782 0.017038 0.011182
0.677734 0.017576 0.012188
0.683548 0.018779 0.011980
0.702037 0.021109 0.013402
0.713406 0.022256 0.014331
0.724386 0.021111 0.014592
0.731727 0.019974 0.014384
0.742873 0.024745 0.016303
0.749714 0.025022 0.016565
0.755797 0.025753 0.017056
0.757333 0.025778 0.016838
0.761716 0.027004 0.017577
0.762544 0.026828 0.017852
0.771544 0.031950 0.020053
0.784687 0.036171 0.025902
0.792107 0.037706 0.028394
0.799336 0.041630 0.031127
0.807708 0.044564 0.034319
0.814784 0.049166 0.038202
0.815356 0.049446 0.038005
0.819225 0.046642 0.041356
0.820742 0.047358 0.042129
0.828431 0.051865 0.046711
0.007280 0.008544 0.007050
0.007972 0.009428 0.006354
0.010354 0.012138 0.006907
0.014752 0.013251 0.006875
0.021677 0.013779 0.006866
0.032400 0.015156 0.006867
0.045118 0.016903 0.007227
0.064557 0.018741 0.007776
0.084577 0.021273 0.009017
0.105643 0.024804 0.011109
0.127421 0.028861 0.012980
0.147340 0.031850 0.014314
0.168139 0.032164 0.013857
0.191351 0.033452 0.013497
0.214040 0.033956 0.012434
0.237567 0.037937 0.011871
0.262720 0.037979 0.011638
0.279418 0.035931 0.010184
0.301888 0.036605 0.009335
0.324840 0.035868 0.009253
0.352772 0.031338 0.008176
0.378981 0.034956 0.009558
0.397824 0.033342 0.008866
0.415964 0.032268 0.008857
0.442456 0.031081 0.008510
0.458662 0.030782 0.007766
0.475333 0.030393 0.007725
0.488105 0.029932 0.007464
0.510199 0.029631 0.008520
0.525223 0.032688 0.009202
0.537166 0.033075 0.008638
0.554785 0.028153 0.007515
0.568096 0.026795 0.007046
0.585169 0.019227 0.005779
0.592788 0.018496 0.005802
0.604558 0.020297 0.006678
0.609869 0.022279 0.007094
0.612681 0.023669 0.007708
0.618623 0.024532 0.008437
0.629767 0.020774 0.008050
0.642952 0.021826 0.009250
0.663194 0.017254 0.010205
0.679312 0.020354 0.011665
0.686450 0.021420 0.012176
0.700805 0.019973 0.012184
0.711394 0.025361 0.014073
0.720012 0.019469 0.013624
0.731630 0.021358 0.014116
0.740245 0.024270 0.015582
0.748981 0.026484 0.016566
0.757736 0.026565 0.016840
0.760449 0.027069 0.017335
0.764638 0.029524 0.016885
0.767667 0.031549 0.017631
0.769699 0.032594 0.018373
0.783261 0.040128 0.023945
0.789157 0.040671 0.024963
0.797320 0.041887 0.027933
0.805930 0.043825 0.031855
0.814260 0.048451 0.036017
0.814367 0.048497 0.036073
0.817084 0.050455 0.037797
0.823841 0.049782 0.043810
0.831103 0.053391 0.048189
0.008663 0.013291 0.008195
0.010284 0.014978 0.008011
0.012262 0.017233 0.008048
0.015580 0.018547 0.008020
0.021663 0.020145 0.008039
0.031236 0.021359 0.008020
0.044330 0.022722 0.007843
0.062585 0.024032 0.007843
0.083390 0.025748 0.008526
0.104579 0.028128 0.009916
0.127328 0.031583 0.012013
0.146806 0.034383 0.013173
0.167686 0.038755 0.014569
0.190845 0.042056 0.015110
0.212309 0.044499 0.015334
0.237874 0.045903 0.014142
0.261024 0.046408 0.012597
0.283423 0.046360 0.011596
0.299314 0.049565 0.011532
0.316883 0.053399 0.012503
0.347898 0.053528 0.012799
0.372247 0.050832 0.012299
0.388009 0.050981 0.012897
0.413387 0.045682 0.010888
0.434031 0.042609 0.009919
0.459125 0.036489 0.008021
0.474033 0.036131 0.007209
0.489364 0.036529 0.008262
0.511304 0.036274 0.009470
0.529056 0.035872 0.008993
0.542847 0.033624 0.008317
0.553607 0.034567 0.008312
0.566740 0.033501 0.008001
0.581580 0.029670 0.006860
0.593235 0.028936 0.007299
0.604996 0.027203 0.007644
0.611049 0.028486 0.008705
0.616156 0.029203 0.009044
0.620138 0.029779 0.009311
0.630999 0.028527 0.009742
0.640545 0.026201 0.009974
0.663104 0.025423 0.010718
0.679757 0.023961 0.011449
0.686133 0.026026 0.011959
0.703283 0.027476 0.011958
0.709614 0.028154 0.011963
0.713568 0.026227 0.012680
0.727036 0.025751 0.013637
0.740834 0.030064 0.016043
0.749893 0.028444 0.016322
0.755119 0.028503 0.016366
0.764592 0.030536 0.016639
0.766456 0.030673 0.016914
0.769687 0.033382 0.018370
0.776509 0.039443 0.019823
0.778508 0.036156 0.020559
0.787461 0.041699 0.024190
0.789997 0.041212 0.024721
0.801459 0.046256 0.028873
0.812247 0.051101 0.035470
0.816693 0.050904 0.038180
0.818956 0.053598 0.039686
0.821217 0.054870 0.040478
0.833760 0.055162 0.050128
0.010051 0.017193 0.009729
0.012423 0.020414 0.009549
0.013993 0.021872 0.009372
0.016933 0.022339 0.009007
0.021503 0.024571 0.009256
0.029554 0.025591 0.009145
0.043852 0.029739 0.008603
0.059003 0.033199 0.008582
0.078498 0.035298 0.008581
0.100892 0.037028 0.009306
0.123908 0.038378 0.010060
0.147753 0.039469 0.011766
0.164629 0.042251 0.012704
0.191516 0.047397 0.014757
0.212392 0.050990 0.016143
0.234945 0.054033 0.015939
0.258311 0.055993 0.014369
0.280271 0.057946 0.012992
0.300831 0.059657 0.013312
0.318683 0.060899 0.014453
0.345036 0.062844 0.016354
0.370625 0.062602 0.016114
0.388235 0.054902 0.011765
0.410156 0.055376 0.013591
0.429729 0.051365 0.011580
0.457490 0.045674 0.008037
0.470404 0.044126 0.008606
0.492991 0.042273 0.008153
0.512009 0.041612 0.008863
0.529761 0.036847 0.008405
0.547238 0.036416 0.007890
0.557369 0.035992 0.007402
0.566660 0.040199 0.008149
0.581107 0.039359 0.008704
0.593464 0.036537 0.008540
0.599334 0.037127 0.009230
0.611991 0.040124 0.010400
0.616950 0.037500 0.010716
0.621727 0.037867 0.011202
0.635889 0.037488 0.010983
0.645469 0.037096 0.011430
0.658533 0.034480 0.011706
0.682537 0.033796 0.011510
0.692921 0.035427 0.012420
0.702526 0.031779 0.011950
0.709745 0.029937 0.011496
0.716020 0.029871 0.011738
0.720773 0.031267 0.011516
0.733609 0.035081 0.014153
0.749119 0.028877 0.014412
0.756763 0.032507 0.015172
0.763047 0.028264 0.016420
0.769655 0.033368 0.018356
0.773135 0.035117 0.018608
0.776562 0.036852 0.019808
0.778311 0.038125 0.020302
0.782932 0.041310 0.021282
0.792383 0.044700 0.023956
0.797758 0.050192 0.027347
0.803435 0.052609 0.030548
0.817563 0.055788 0.037396
0.820345 0.057292 0.038937
0.822621 0.061665 0.038786
0.827090 0.061728 0.042261
0.010911 0.026375 0.011676
0.011256 0.026151 0.011503
0.015282 0.027279 0.011366
0.017900 0.025846 0.010502
0.022244 0.029137 0.010990
0.030113 0.034921 0.011032
0.041700 0.038240 0.010353
0.058063 0.041158 0.009237
0.074514 0.045708 0.009455
0.092989 0.047527 0.009557
0.119551 0.049068 0.009892
0.143026 0.049912 0.009846
0.165652 0.052371 0.010763
0.184743 0.055307 0.012544
0.208698 0.057442 0.014759
0.229890 0.060493 0.015615
0.254290 0.065109 0.015320
0.278685 0.070145 0.015086
0.293297 0.071802 0.015664
0.316276 0.072247 0.017135
0.339869 0.072243 0.017646
0.368331 0.068920 0.016398
0.383318 0.065746 0.016420
0.405269 0.064103 0.015533
0.429748 0.059470 0.013317
0.447343 0.055172 0.010793
0.473714 0.052729 0.008343
0.493215 0.046051 0.007772
0.510130 0.044658 0.008554
0.533628 0.038363 0.007587
0.550537 0.039022 0.007210
0.560820 0.042654 0.007658
0.565901 0.044847 0.008366
0.580658 0.048554 0.009401
0.594317 0.047928 0.009986
0.600631 0.044913 0.009998
0.609340 0.044410 0.011081
0.620315 0.043086 0.011159
0.628135 0.045950 0.011623
0.635279 0.046982 0.011674
0.644081 0.045852 0.011963
0.662088 0.045956 0.012472
0.682098 0.041781 0.012224
0.692341 0.041470 0.012200
0.700371 0.037921 0.011952
0.706942 0.031922 0.011972
0.718199 0.031128 0.011979
0.724692 0.033452 0.012463
0.734739 0.034645 0.012244
0.743351 0.039821 0.013694
0.756985 0.033858 0.014445
0.760179 0.033407 0.015935
0.772138 0.036069 0.018118
0.773917 0.037315 0.018363
0.777577 0.037879 0.019324
0.781748 0.043012 0.020534
0.785183 0.048142 0.021987
0.792144 0.051078 0.024866
0.797009 0.053241 0.026337
0.807459 0.060947 0.030713
0.813903 0.064142 0.034436
0.821714 0.068268 0.037894
0.822327 0.069520 0.038233
0.827766 0.068628 0.041957
0.009491 0.036207 0.014349
0.011971 0.037916 0.014446
0.015451 0.034047 0.012864
0.021916 0.037719 0.012240
0.029404 0.051061 0.013180
0.035641 0.057875 0.013398
0.045800 0.061668 0.012411
0.059825 0.058897 0.011559
0.076643 0.060244 0.012094
0.092356 0.060929 0.011372
0.114489 0.065098 0.011702
0.137066 0.064089 0.010738
0.162091 0.064882 0.010487
0.180581 0.065399 0.010998
0.201136 0.069092 0.013176
0.225685 0.070548 0.013977
0.253864 0.075725 0.014401
0.275655 0.078029 0.015620
0.298715 0.080079 0.017411
0.314101 0.083699 0.019812
0.338317 0.083176 0.020254
0.364189 0.079937 0.017654
0.385767 0.072912 0.016344
0.408728 0.069517 0.015833
0.429821 0.069160 0.016328
0.444877 0.066350 0.014566
0.464503 0.060989 0.011706
0.487743 0.057884 0.010667
0.506333 0.052037 0.008686
0.528990 0.045335 0.007201
0.546425 0.045280 0.007231
0.560068 0.050016 0.008287
0.572496 0.051945 0.008835
0.584338 0.054634 0.009721
0.595247 0.052516 0.009950
0.603325 0.052828 0.010169
0.612147 0.053714 0.010642
0.624454 0.051036 0.010920
0.630196 0.052204 0.011376
0.642489 0.052891 0.012119
0.650657 0.054934 0.012924
0.664991 0.059170 0.013188
0.684316 0.053722 0.012426
0.691720 0.052252 0.012361
0.702534 0.045364 0.012103
0.708371 0.044219 0.011898
0.718922 0.039631 0.010995
0.727307 0.042532 0.011270
0.730461 0.044712 0.012001
0.743115 0.049189 0.013920
0.754564 0.049613 0.013942
0.761795 0.045989 0.015420
0.767105 0.038329 0.015936
0.772081 0.039828 0.017641
0.780532 0.046842 0.020270
0.783036 0.050063 0.020766
0.785751 0.051867 0.021979
0.795549 0.059079 0.025561
0.798533 0.063733 0.026084
0.804607 0.069581 0.028758
0.818164 0.074954 0.036991
0.822623 0.078845 0.039501
0.822759 0.078898 0.039608
0.829158 0.083288 0.043096
0.010824 0.048464 0.016811
0.014403 0.047652 0.015601
0.019175 0.050806 0.015693
0.029578 0.055860 0.014309
0.034617 0.071320 0.015771
0.040674 0.080950 0.015033
0.049699 0.086670 0.014478
0.060910 0.088006 0.015707
0.080500 0.084700 0.016674
0.096487 0.085433 0.016896
0.118248 0.084466 0.015638
0.138674 0.083710 0.014493
0.157081 0.081395 0.012833
0.179575 0.082299 0.011956
0.202623 0.082108 0.012254
0.221458 0.083535 0.012287
0.247386 0.088067 0.012766
0.272912 0.090737 0.014934
0.292252 0.093400 0.018242
0.314439 0.095214 0.020528
0.335072 0.097155 0.021786
0.357563 0.093236 0.021122
0.384757 0.089831 0.019595
0.407188 0.084862 0.019579
0.423684 0.083200 0.020030
0.442487 0.076847 0.017779
0.462871 0.073140 0.016388
0.486283 0.065180 0.012489
0.509804 0.035294 0.003922
0.526652 0.055019 0.007749
0.542431 0.055067 0.007273
0.560618 0.059123 0.008077
0.578668 0.061357 0.009830
0.588580 0.061472 0.009787
0.597060 0.060227 0.010210
0.603703 0.059005 0.010133
0.617828 0.059112 0.011090
0.624877 0.055821 0.010711
0.636478 0.054488 0.011147
0.641974 0.055893 0.011428
0.655560 0.057834 0.011984
0.671275 0.060081 0.011758
0.684142 0.059453 0.011871
0.694126 0.059389 0.011571
0.703444 0.058374 0.011565
0.706054 0.060055 0.011598
0.723869 0.054134 0.011415
0.729521 0.049159 0.011478
0.735366 0.054505 0.012248
0.743224 0.055691 0.013449
0.754515 0.059430 0.014167
0.761239 0.056968 0.014439
0.766819 0.059061 0.015194
0.777103 0.058384 0.017627
0.782753 0.064860 0.019804
0.785473 0.064003 0.020302
0.792679 0.068605 0.022223
0.797357 0.073528 0.023219
0.803901 0.076790 0.028484
0.806154 0.079564 0.030446
0.816011 0.082522 0.036946
0.819947 0.085220 0.039430
0.825836 0.084100 0.041464
0.832021 0.090676 0.044975
0.013354 0.058207 0.018021
0.015302 0.061625 0.018535
0.022534 0.065338 0.017044
0.034133 0.075125 0.016489
0.040289 0.087944 0.016477
0.044231 0.094313 0.016227
0.047667 0.099070 0.016431
0.060936 0.100423 0.017881
0.077888 0.104152 0.019779
0.096762 0.104031 0.020083
0.116856 0.104885 0.019844
0.138468 0.102996 0.018286
0.156626 0.103518 0.017203
0.176462 0.099731 0.015472
0.198050 0.098288 0.014237
0.222111 0.099018 0.012097
0.241705 0.100731 0.011371
0.265834 0.102292 0.014089
0.291723 0.105155 0.017516
0.317337 0.108316 0.020879
0.336313 0.109676 0.022989
0.357414 0.109505 0.023974
0.377198 0.106576 0.023823
0.400957 0.103271 0.024239
0.423529 0.086275 0.011765
0.439172 0.092128 0.021535
0.457542 0.088817 0.020399
0.482280 0.076511 0.015741
0.501849 0.066541 0.012006
0.529412 0.019608 0.000000
0.544074 0.061843 0.005242
0.564312 0.065938 0.007538
0.579209 0.067277 0.009145
0.590502 0.066655 0.009253
0.598823 0.067591 0.009584
0.606556 0.066520 0.010131
0.619519 0.062583 0.010642
0.627380 0.061102 0.011217
0.637650 0.066368 0.011500
0.648012 0.065293 0.011618
0.662317 0.064032 0.011696
0.675084 0.064518 0.011181
0.686426 0.066702 0.011788
0.693919 0.063946 0.010828
0.701853 0.063790 0.011064
0.712976 0.064791 0.011572
0.719977 0.064714 0.011400
0.732013 0.061892 0.011711
0.738084 0.062725 0.012245
0.749003 0.063092 0.013702
0.752475 0.065671 0.013946
0.760247 0.068094 0.014682
0.768189 0.064693 0.015675
0.783062 0.072808 0.018350
0.786099 0.075197 0.019578
0.786246 0.075248 0.019620
0.793292 0.076559 0.020616
0.798000 0.082636 0.024000
0.803561 0.086796 0.026419
0.809778 0.089712 0.031418
0.816020 0.089087 0.036690
0.820668 0.091075 0.038695
0.825828 0.096446 0.041428
0.835418 0.098534 0.045201
0.014675 0.062965 0.019019
0.020159 0.075628 0.019774
0.029894 0.090341 0.019906
0.040446 0.093216 0.017609
0.045685 0.100614 0.017910
0.045914 0.101475 0.017871
0.047955 0.105912 0.017767
0.056696 0.115842 0.020058
0.072584 0.117201 0.020951
0.091897 0.117153 0.021108
0.112727 0.119704 0.021520
0.132341 0.120785 0.021146
0.153439 0.122514 0.020739
0.174547 0.121792 0.019970
0.197005 0.120547 0.018560
0.217049 0.118011 0.015243
0.237633 0.114909 0.013214
0.260128 0.115847 0.012789
0.285538 0.116854 0.013935
0.310540 0.118251 0.017287
0.330615 0.120838 0.021247
0.356799 0.121048 0.024343
0.377288 0.118458 0.026089
0.396586 0.115809 0.027163
0.413769 0.112773 0.027377
0.434841 0.109723 0.026586
0.458970 0.102904 0.024560
0.473622 0.093515 0.021684
0.495958 0.083426 0.017413
0.527059 0.073795 0.010765
0.545706 0.074926 0.007998
0.560784 0.074510 0.003922
0.579991 0.072755 0.008853
0.591362 0.072633 0.009355
0.599551 0.071724 0.009502
0.612166 0.070448 0.009756
0.622379 0.070304 0.009934
0.631570 0.068211 0.010531
0.644194 0.070820 0.010927
0.651963 0.073909 0.011020
0.662365 0.072078 0.010664
0.679496 0.068989 0.011525
0.690561 0.073647 0.011686
0.693133 0.073890 0.011690
0.708298 0.075838 0.011976
0.714391 0.075333 0.012052
0.721717 0.077666 0.011885
0.734011 0.077185 0.012665
0.745094 0.079666 0.012499
0.751248 0.078286 0.013241
0.756361 0.079047 0.013491
0.762257 0.084653 0.014470
0.765796 0.076877 0.014974
0.781863 0.089817 0.018124
0.787313 0.088761 0.020321
0.792683 0.089182 0.021308
0.797875 0.089913 0.022790
0.802576 0.093784 0.024997
0.807399 0.095732 0.027403
0.810320 0.096997 0.029330
0.817038 0.099008 0.033875
0.821439 0.102209 0.037757
0.829459 0.102349 0.042870
0.844391 0.109032 0.050517
0.020424 0.080584 0.020504
0.027027 0.092456 0.021483
0.030904 0.095898 0.020628
0.045281 0.103377 0.018251
0.044985 0.107051 0.019144
0.046138 0.118049 0.021142
0.049975 0.123834 0.021840
0.053852 0.129940 0.022574
0.064043 0.135307 0.023693
0.083724 0.134106 0.023710
0.105039 0.134703 0.023915
0.125694 0.138421 0.024384
0.148234 0.140332 0.024044
0.170927 0.141008 0.023597
0.193430 0.140643 0.022337
0.215026 0.139991 0.020541
0.235644 0.137171 0.017656
0.256213 0.135131 0.015524
0.280443 0.132849 0.013981
0.306003 0.132685 0.014589
0.327369 0.132620 0.018778
0.349691 0.134560 0.023467
0.374557 0.131492 0.026290
0.394519 0.128497 0.029545
0.412190 0.126987 0.030944
0.434783 0.123889 0.031311
0.453242 0.120658 0.030909
0.467329 0.114940 0.028436
0.487351 0.110681 0.026109
0.526287 0.098684 0.015877
0.543246 0.088907 0.008946
0.556716 0.085263 0.008082
0.578675 0.081319 0.008788
0.593454 0.079652 0.009184
0.603691 0.082558 0.009581
0.616130 0.078331 0.009214
0.625158 0.075294 0.008917
0.635694 0.072639 0.008993
0.645263 0.076839 0.010220
0.651906 0.079006 0.010898
0.668260 0.079708 0.010149
0.676650 0.080959 0.010359
0.691365 0.081805 0.011179
0.698474 0.081611 0.011209
0.708600 0.081392 0.011507
0.717826 0.083859 0.012062
0.726323 0.084434 0.011913
0.737446 0.091125 0.011959
0.743447 0.091315 0.012241
0.752943 0.092791 0.013210
0.756458 0.091370 0.013700
0.765432 0.094066 0.014918
0.770143 0.095838 0.015675
0.783467 0.096303 0.018825
0.786294 0.094558 0.019600
0.792668 0.094940 0.020607
0.801484 0.097570 0.023775
0.805227 0.099723 0.025978
0.809846 0.102853 0.027683
0.813719 0.105769 0.029375
0.816903 0.111100 0.031556
0.820583 0.111745 0.034711
0.826448 0.112156 0.038619
0.843930 0.117791 0.049077
0.026863 0.094297 0.021735
0.031333 0.098766 0.021473
0.034346 0.116890 0.022744
0.041456 0.125116 0.021607
0.041532 0.126033 0.021726
0.044149 0.133957 0.022983
0.045767 0.143769 0.024459
0.049445 0.149201 0.025198
0.054608 0.153901 0.026382
0.071098 0.151842 0.026544
0.098650 0.152534 0.027220
0.119340 0.153115 0.026895
0.143787 0.155968 0.026997
0.167010 0.157148 0.026130
0.188108 0.156592 0.025267
0.211133 0.158967 0.024718
0.233134 0.158587 0.023641
0.255401 0.158185 0.022203
0.277176 0.156933 0.020198
0.298656 0.151966 0.017901
0.319208 0.148881 0.018860
0.346873 0.146756 0.022473
0.366062 0.147046 0.025950
0.388807 0.146359 0.030354
0.410058 0.140919 0.032406
0.433697 0.139235 0.034545
0.453367 0.132481 0.033537
0.469069 0.128976 0.032222
0.487800 0.127803 0.030034
0.523154 0.109745 0.017929
0.540884 0.100789 0.011567
0.553418 0.093348 0.008706
0.572369 0.091952 0.008725
0.595210 0.090237 0.009080
0.606139 0.091640 0.009199
0.616615 0.093606 0.009603
0.631373 0.086081 0.008662
0.641074 0.083822 0.008519
0.651525 0.086245 0.009300
0.658039 0.089230 0.010489
0.672203 0.087195 0.009562
0.682795 0.090595 0.010132
0.693906 0.089799 0.011169
0.704290 0.090911 0.011214
0.709938 0.093609 0.011295
0.719452 0.095666 0.011624
0.730836 0.096808 0.011683
0.740178 0.095246 0.011955
0.747562 0.103474 0.012209
0.754873 0.103258 0.012438
0.760495 0.102995 0.013169
0.768820 0.103468 0.013692
0.775405 0.107091 0.015150
0.779840 0.108553 0.016623
0.785274 0.106390 0.018607
0.790218 0.106049 0.019145
0.801983 0.101648 0.023558
0.808874 0.108394 0.025531
0.811838 0.106031 0.027958
0.815027 0.108244 0.029666
0.819185 0.115516 0.032108
0.823581 0.123023 0.034786
0.833944 0.128143 0.039618
0.842287 0.124200 0.046698
0.025059 0.107789 0.022773
0.028207 0.115103 0.023051
0.038053 0.125385 0.022435
0.041236 0.126853 0.021840
0.042495 0.137267 0.023328
0.044475 0.151232 0.025003
0.044449 0.153831 0.025432
0.045471 0.162847 0.027018
0.050141 0.169846 0.028136
0.062446 0.171272 0.028764
0.089280 0.171196 0.029761
0.112877 0.171886 0.029898
0.136140 0.173313 0.029701
0.158043 0.173545 0.028863
0.183324 0.175791 0.028926
0.206896 0.176442 0.028450
0.228263 0.176031 0.027615
0.251406 0.178491 0.027348
0.274040 0.178016 0.026623
0.295308 0.177119 0.025843
0.316272 0.173702 0.025421
0.340816 0.166974 0.025272
0.363498 0.163681 0.026955
0.385187 0.160086 0.029496
0.407289 0.155809 0.032728
0.429707 0.151475 0.035422
0.451530 0.146230 0.035276
0.470543 0.142605 0.033975
0.490340 0.135891 0.029423
0.520082 0.124916 0.017239
0.536673 0.113361 0.012028
0.552217 0.100696 0.008029
0.574391 0.105224 0.009000
0.595349 0.101378 0.009232
0.607930 0.102840 0.010276
0.617289 0.102146 0.009803
0.632565 0.096028 0.008930
0.645403 0.094233 0.008516
0.655618 0.094569 0.008895
0.663155 0.099699 0.010715
0.674769 0.100076 0.010039
0.685499 0.099745 0.009963
0.694822 0.098550 0.010333
0.706657 0.099532 0.010586
0.710363 0.097539 0.011110
0.726288 0.103297 0.010949
0.733927 0.105375 0.011682
0.746533 0.114926 0.012183
0.748172 0.115270 0.012162
0.755582 0.116239 0.011676
0.763387 0.114871 0.012365
0.769032 0.116295 0.013341
0.772777 0.118146 0.013865
0.781507 0.117016 0.015817
0.787177 0.118289 0.018027
0.792368 0.120971 0.018569
0.805332 0.123383 0.022506
0.810549 0.124737 0.024281
0.814735 0.126328 0.026741
0.819864 0.129661 0.030874
0.823564 0.133038 0.031419
0.829413 0.135493 0.034836
0.832612 0.139914 0.036561
0.845427 0.144589 0.046469
0.027726 0.115228 0.023206
0.034026 0.124145 0.023084
0.040456 0.130657 0.022117
0.042219 0.144876 0.024508
0.043648 0.154220 0.026141
0.044099 0.159645 0.026449
0.046137 0.167290 0.027733
0.047814 0.171730 0.028423
0.051623 0.180443 0.029356
0.060819 0.188339 0.030358
0.079231 0.192135 0.031347
0.102335 0.192100 0.031737
0.128263 0.192068 0.032261
0.151826 0.192604 0.032423
0.173865 0.192723 0.031978
0.198305 0.194043 0.031614
0.221979 0.195302 0.030494
0.246155 0.196014 0.029891
0.268743 0.196838 0.029655
0.294281 0.195114 0.030336
0.313137 0.193204 0.030416
0.338557 0.187717 0.029697
0.359563 0.180432 0.029077
0.381812 0.174781 0.029883
0.404829 0.170872 0.030723
0.427955 0.167405 0.034226
0.449596 0.163203 0.036410
0.468667 0.157210 0.035880
0.493494 0.151222 0.029251
0.514912 0.139891 0.021494
0.534986 0.131124 0.014156
0.552128 0.123926 0.010263
0.575860 0.116927 0.008990
0.590151 0.115464 0.009553
0.608847 0.110850 0.010210
0.619101 0.109228 0.010227
0.636475 0.107009 0.009366
0.648586 0.106466 0.009141
0.659892 0.103190 0.008881
0.667527 0.108208 0.009752
0.677937 0.107491 0.010093
0.688227 0.105736 0.009733
0.698838 0.110110 0.009276
0.707218 0.111664 0.009508
0.714368 0.111716 0.009094
0.726761 0.113853 0.009354
0.739111 0.120437 0.011214
0.747645 0.119349 0.011673
0.755074 0.125293 0.011176
0.756502 0.129996 0.010182
0.762043 0.136748 0.009903
0.769501 0.128338 0.011795
0.774252 0.130790 0.012324
0.781107 0.124479 0.014991
0.793214 0.128388 0.017440
