backend/3dlut-creator/demo/FL3.cube
TITLE "3D LUT from Image Pairs"
LUT_3D_SIZE 64
0.000000 0.000000 0.000000
0.003922 0.000000 0.000000
0.011765 0.003922 0.000000
0.019608 0.003922 0.000000
0.031373 0.003922 0.000000
0.047059 0.003922 0.000000
0.070588 0.003922 0.000000
0.090196 0.003922 0.000000
0.113725 0.003922 0.000000
0.133333 0.003922 0.000000
0.160784 0.007843 0.000000
0.180392 0.007843 0.000000
0.200000 0.007843 0.000000
0.223529 0.007843 0.000000
0.250980 0.007843 0.000000
0.270588 0.011765 0.000000
0.294118 0.007843 0.000000
0.313726 0.007843 0.000000
0.345098 0.007843 0.000000
0.364706 0.007843 0.000000
0.388235 0.007843 0.000000
0.419608 0.007843 0.003922
0.443137 0.007843 0.000000
0.470588 0.003922 0.000000
0.501961 0.007844 0.003921
0.532431 0.021727 0.001215
0.563087 0.034421 0.000953
0.587446 0.045634 0.000455
0.605917 0.053988 0.000257
0.629615 0.065776 0.000120
0.650380 0.071767 0.000108
0.672817 0.079809 0.000135
0.698689 0.089666 0.000084
0.723849 0.096180 0.000000
0.741757 0.102847 0.000000
0.757142 0.108004 0.000000
0.774756 0.117399 0.000000
0.795441 0.136822 0.000000
0.810541 0.153921 0.000000
0.828947 0.169690 0.000000
0.838577 0.180492 0.000000
0.851571 0.194107 0.000000
0.864963 0.210571 0.000000
0.876765 0.221166 0.000000
0.887897 0.232891 0.000000
0.892365 0.240421 0.000000
0.892813 0.240947 0.000000
0.912758 0.241705 0.000000
0.927626 0.243790 0.000000
0.954144 0.240949 0.000000
0.972402 0.243011 0.000000
0.983476 0.245078 0.000000
0.997337 0.262962 0.000000
1.000000 0.268255 0.000000
1.000000 0.271975 0.000000
1.000000 0.279911 0.000000
1.000000 0.291539 0.000000
1.000000 0.298813 0.000000
1.000000 0.299162 0.000000
1.000000 0.299462 0.000000
1.000000 0.306857 0.000000
1.000000 0.307076 0.000000
1.000000 0.307263 0.000000
1.000000 0.307457 0.000000
0.003922 0.007843 0.003922
0.007843 0.007843 0.007843
0.015686 0.007843 0.003922
0.023529 0.003922 0.003922
0.039216 0.007843 0.003922
0.058824 0.011765 0.003922
0.074510 0.011765 0.003922
0.095675 0.011751 0.003765
0.114750 0.011722 0.002374
0.136261 0.013224 0.003117
0.156863 0.007843 0.000000
0.184314 0.015686 0.000000
0.204892 0.011747 0.000507
0.223529 0.019608 0.000000
0.246976 0.012094 0.000781
0.274510 0.015686 0.000000
0.294118 0.015686 0.000000
0.321569 0.015686 0.003922
0.337255 0.011765 0.000000
0.356863 0.000000 0.000000
0.393282 0.019263 0.000097
0.423529 0.027451 0.003922
0.456949 0.016590 0.000371
0.486954 0.013978 0.000279
0.498039 0.027452 0.000000
0.533494 0.025893 0.001020
0.556843 0.040962 0.000798
0.582082 0.048431 0.000672
0.607289 0.061541 0.000278
0.627672 0.068887 0.000102
0.648544 0.077800 0.000170
0.666869 0.083101 0.000178
0.695033 0.094728 0.000079
0.716795 0.099043 0.000000
0.743464 0.106541 0.000000
0.760263 0.114280 0.000000
0.775346 0.120144 0.000000
0.795427 0.136960 0.000000
0.810483 0.153989 0.000000
0.830565 0.172747 0.000000
0.838520 0.180501 0.000000
0.850196 0.192695 0.000000
0.864060 0.210366 0.000000
0.875157 0.220951 0.000000
0.885801 0.231336 0.000000
0.892319 0.240395 0.000000
0.893454 0.242017 0.000000
0.910343 0.238063 0.000000
0.927530 0.243846 0.000000
0.954039 0.241013 0.000000
0.972353 0.243049 0.000000
0.983474 0.245102 0.000000
0.997346 0.262965 0.000000
1.000000 0.268251 0.000000
1.000000 0.271971 0.000000
1.000000 0.279903 0.000000
1.000000 0.291534 0.000000
1.000000 0.298812 0.000000
1.000000 0.299164 0.000000
1.000000 0.299467 0.000000
1.000000 0.306862 0.000000
1.000000 0.307083 0.000000
1.000000 0.307271 0.000000
1.000000 0.307466 0.000000
0.000000 0.015686 0.007843
0.003922 0.015686 0.007843
0.011765 0.015686 0.003922
0.027451 0.015686 0.007843
0.043137 0.007843 0.003922
0.058824 0.011765 0.003922
0.082353 0.015686 0.003922
0.098039 0.015686 0.003922
0.121569 0.015686 0.000000
0.141176 0.023529 0.003922
0.164706 0.023529 0.000000
0.183987 0.021664 0.001652
0.203922 0.019608 0.000000
0.227451 0.023529 0.000000
0.243137 0.027451 0.000000
0.274510 0.023530 0.000000
0.290196 0.011765 0.000000
0.317507 0.017228 0.000335
0.341176 0.003922 0.000000
0.360784 0.007843 0.000000
0.384314 0.003922 0.000000
0.432793 0.024891 0.000622
0.447059 0.000000 0.000000
0.478431 0.000000 0.000000
0.506140 0.023648 0.000318
0.531221 0.042639 0.000579
0.552369 0.052094 0.000483
0.576164 0.056611 0.000630
0.604150 0.064915 0.000264
0.623926 0.070891 0.000121
0.643917 0.078066 0.000192
0.665311 0.087420 0.000249
0.690256 0.096077 0.000145
0.714099 0.101777 0.000000
0.735261 0.107153 0.000000
0.754921 0.114616 0.000000
0.773062 0.121753 0.000000
0.795421 0.137119 0.000000
0.810429 0.154082 0.000000
0.827228 0.170500 0.000000
0.838463 0.180514 0.000000
0.850174 0.193221 0.000000
0.864028 0.210373 0.000000
0.875107 0.220938 0.000000
0.885737 0.231293 0.000000
0.892272 0.240369 0.000000
0.894093 0.244067 0.000000
0.910221 0.238116 0.000000
0.927432 0.243903 0.000000
0.949580 0.244304 0.000000
0.972303 0.243089 0.000000
0.983472 0.245128 0.000000
0.997354 0.262969 0.000000
1.000000 0.268247 0.000000
1.000000 0.271967 0.000000
1.000000 0.279895 0.000000
1.000000 0.291530 0.000000
1.000000 0.298812 0.000000
1.000000 0.299167 0.000000
1.000000 0.299472 0.000000
1.000000 0.306868 0.000000
1.000000 0.307090 0.000000
1.000000 0.307279 0.000000
1.000000 0.307475 0.000000
0.000000 0.023529 0.007843
0.000000 0.027451 0.007843
0.007843 0.027451 0.007843
0.015686 0.023529 0.003922
0.039216 0.023529 0.003922
0.066667 0.023529 0.003922
0.082482 0.022920 0.007708
0.101961 0.015686 0.003922
0.117647 0.019608 0.000000
0.141176 0.015686 0.003922
0.165308 0.032601 0.006276
0.185868 0.030607 0.004026
0.205615 0.030394 0.003516
0.227803 0.030895 0.001699
0.243137 0.031373 0.000000
0.270588 0.031373 0.000000
0.290196 0.027451 0.000000
0.313725 0.027451 0.000000
0.333333 0.023530 0.000000
0.360784 0.019608 0.000000
0.384466 0.025051 0.000105
0.432628 0.030856 0.000330
0.450980 0.007843 0.000000
0.478658 0.023353 0.000163
0.503640 0.031098 0.000190
0.534796 0.056906 0.000161
0.541177 0.054902 0.000000
0.570587 0.064303 0.000317
0.600899 0.070416 0.000246
0.621922 0.073337 0.000119
0.641982 0.078630 0.000189
0.662343 0.087842 0.000286
0.684530 0.098271 0.000210
0.705706 0.102540 0.000037
0.735131 0.113447 0.000000
0.753219 0.117693 0.000000
0.776913 0.129104 0.000000
0.793928 0.138991 0.000000
0.810381 0.154197 0.000000
0.824305 0.169482 0.000000
0.834910 0.177173 0.000000
0.849943 0.194471 0.000000
0.861186 0.207543 0.000000
0.875056 0.220927 0.000000
0.885684 0.232512 0.000000
0.892222 0.240342 0.000000
0.894059 0.244047 0.000000
0.910094 0.238169 0.000000
0.927330 0.243962 0.000000
0.949481 0.244381 0.000000
0.972249 0.243132 0.000000
0.983469 0.245156 0.000000
1.000000 0.265410 0.000000
1.000000 0.268244 0.000000
1.000000 0.271963 0.000000
1.000000 0.279887 0.000000
1.000000 0.291526 0.000000
1.000000 0.298811 0.000000
1.000000 0.299170 0.000000
1.000000 0.299478 0.000000
1.000000 0.306874 0.000000
1.000000 0.307097 0.000000
1.000000 0.307287 0.000000
1.000000 0.307484 0.000000
0.000812 0.045611 0.014701
0.000000 0.039216 0.007843
0.003922 0.043137 0.007843
0.007843 0.043137 0.003922
0.019608 0.043137 0.003922
0.066667 0.035294 0.003922
0.081502 0.041065 0.011313
0.110470 0.036376 0.009893
0.123982 0.030300 0.005978
0.145098 0.023529 0.003922
0.165964 0.035923 0.005860
0.192433 0.039123 0.006873
0.214376 0.043685 0.006575
0.231835 0.045831 0.004469
0.247059 0.050980 0.003922
0.270588 0.031373 0.000000
0.298039 0.031373 0.000000
0.321569 0.027451 0.000000
0.337255 0.031373 0.000000
0.360784 0.027451 0.000000
0.387548 0.037675 0.000167
0.432432 0.045330 0.000364
0.457415 0.040351 0.000288
0.476904 0.040008 0.000207
0.501577 0.049490 0.000269
0.532402 0.066140 0.000197
0.549260 0.070639 0.000099
0.566510 0.070744 0.000346
0.591370 0.073258 0.000192
0.616002 0.075085 0.000142
0.637250 0.076668 0.000173
0.660655 0.089353 0.000311
0.683541 0.100795 0.000227
0.702729 0.106893 0.000039
0.732071 0.115098 0.000000
0.751384 0.120503 0.000000
0.777206 0.134650 0.000000
0.794130 0.144154 0.000000
0.810335 0.154353 0.000000
0.824190 0.169534 0.000000
0.834852 0.177206 0.000000
0.849926 0.194534 0.000000
0.861142 0.207560 0.000000
0.874764 0.222021 0.000000
0.881600 0.228850 0.000000
0.892161 0.240310 0.000000
0.894015 0.244022 0.000000
0.901103 0.242858 0.000000
0.921635 0.243506 0.000000
0.946997 0.239854 0.000000
0.972192 0.243703 0.000000
0.985063 0.248625 0.000000
1.000000 0.265411 0.000000
1.000000 0.268241 0.000000
1.000000 0.276341 0.000000
1.000000 0.279878 0.000000
1.000000 0.291522 0.000000
1.000000 0.298812 0.000000
1.000000 0.299174 0.000000
1.000000 0.299485 0.000000
1.000000 0.306882 0.000000
1.000000 0.307106 0.000000
1.000000 0.307298 0.000000
1.000000 0.307496 0.000000
0.000702 0.061985 0.021516
0.000000 0.047059 0.007843
0.000000 0.050980 0.003922
0.003922 0.058824 0.007843
0.007843 0.062745 0.003922
0.035294 0.062745 0.003922
0.066667 0.050980 0.000000
0.098039 0.047059 0.000000
0.128430 0.049948 0.012752
0.151093 0.047508 0.010421
0.180392 0.043137 0.000000
0.194595 0.042492 0.006812
0.214844 0.049375 0.008983
0.241003 0.057620 0.006989
0.258824 0.062745 0.003922
0.274510 0.062745 0.003922
0.296457 0.059824 0.003932
0.313725 0.043137 0.000000
0.345098 0.035294 0.000000
0.372549 0.039216 0.000000
0.392157 0.031373 0.000000
0.426918 0.062478 0.001354
0.454341 0.063734 0.001235
0.475903 0.063139 0.000530
0.500316 0.071529 0.000621
0.533266 0.083745 0.000363
0.550071 0.082970 0.000171
0.563841 0.078969 0.000268
0.589358 0.081862 0.000308
0.611732 0.080002 0.000144
0.631758 0.080435 0.000187
0.658822 0.089976 0.000350
0.683114 0.101082 0.000237
0.702158 0.112155 0.000044
0.726420 0.118938 0.000000
0.751034 0.122313 0.000000
0.772938 0.134380 0.000000
0.790299 0.144225 0.000000
0.805830 0.154057 0.000000
0.822990 0.169932 0.000000
0.832530 0.175293 0.000000
0.849903 0.194608 0.000000
0.860453 0.207384 0.000000
0.874675 0.222005 0.000000
0.881517 0.228826 0.000000
0.893387 0.243330 0.000000
0.893960 0.243993 0.000000
0.901019 0.242855 0.000000
0.921477 0.243579 0.000000
0.941376 0.248707 0.000000
0.972134 0.241976 0.000000
0.985055 0.248647 0.000000
1.000000 0.265414 0.000000
1.000000 0.268238 0.000000
1.000000 0.276319 0.000000
1.000000 0.279867 0.000000
1.000000 0.285274 0.000000
1.000000 0.298812 0.000000
1.000000 0.299180 0.000000
1.000000 0.299494 0.000000
1.000000 0.306891 0.000000
1.000000 0.307118 0.000000
1.000000 0.307310 0.000000
1.000000 0.307509 0.000000
0.000377 0.089812 0.032123
0.000482 0.086370 0.024103
0.000000 0.074510 0.000000
0.000000 0.082353 0.007843
0.003922 0.078431 0.007843
0.015686 0.078431 0.003922
0.050980 0.078431 0.003922
0.078431 0.078431 0.003922
0.123033 0.078733 0.020061
0.156507 0.075552 0.021208
0.182613 0.068338 0.013531
0.211765 0.062745 0.003922
0.218999 0.065389 0.011140
0.244348 0.072137 0.013387
0.265880 0.073023 0.010273
0.278431 0.074510 0.007843
0.301961 0.074510 0.007843
0.325490 0.078431 0.003922
0.344711 0.065979 0.003509
0.374805 0.069560 0.003347
0.400209 0.069500 0.002504
0.428713 0.075963 0.002506
0.457009 0.088285 0.002970
0.480052 0.091185 0.001829
0.498604 0.090904 0.001258
0.528599 0.100498 0.000678
0.554295 0.104907 0.000356
0.568426 0.098718 0.000446
0.585539 0.090947 0.000412
0.609301 0.091860 0.000349
0.626964 0.091615 0.000318
0.658994 0.097962 0.000442
0.671516 0.101466 0.000373
0.697840 0.112124 0.000111
0.718012 0.122170 0.000014
0.743017 0.127712 0.000000
0.765789 0.134956 0.000000
0.789769 0.144740 0.000000
0.805411 0.158108 0.000000
0.820543 0.169774 0.000000
0.828989 0.176684 0.000000
0.845662 0.192697 0.000000
0.860403 0.207431 0.000000
0.871026 0.218320 0.000000
0.882064 0.231794 0.000000
0.893299 0.243280 0.000000
0.893893 0.243958 0.000000
0.902168 0.252055 0.000000
0.918581 0.253943 0.000000
0.934336 0.251172 0.000000
0.966390 0.252800 0.000000
0.979254 0.261232 0.000000
1.000000 0.265422 0.000000
1.000000 0.268237 0.000000
1.000000 0.276296 0.000000
1.000000 0.279854 0.000000
1.000000 0.285272 0.000000
1.000000 0.298815 0.000000
1.000000 0.299186 0.000000
1.000000 0.299505 0.000000
1.000000 0.306903 0.000000
1.000000 0.307132 0.000000
1.000000 0.307325 0.000000
1.000000 0.307526 0.000000
0.000188 0.104174 0.037745
0.000038 0.101460 0.028503
0.000000 0.094118 0.015686
0.000000 0.098039 0.015686
0.000000 0.098039 0.007843
0.003922 0.098039 0.003922
0.015686 0.098039 0.003922
0.054902 0.094118 0.003922
0.103989 0.100205 0.018957
0.148043 0.105032 0.031116
0.182589 0.098666 0.023467
0.196078 0.086275 0.007843
0.223415 0.082666 0.016152
0.248154 0.083153 0.016221
0.269865 0.085671 0.016800
0.290326 0.089715 0.016299
0.305882 0.090196 0.011765
0.329412 0.086275 0.007843
0.349020 0.090196 0.007843
0.379212 0.096448 0.008324
0.407161 0.088722 0.003999
0.429657 0.088962 0.002230
0.456106 0.097707 0.002049
0.482056 0.106904 0.003328
0.501794 0.111152 0.003273
0.521524 0.118941 0.002538
0.556333 0.129517 0.001967
0.579256 0.133067 0.001040
0.591302 0.122127 0.000596
0.614326 0.116461 0.000458
0.626526 0.102968 0.000418
0.651288 0.109514 0.000635
0.675065 0.118192 0.000355
0.696240 0.124032 0.000037
0.716312 0.128858 0.000000
0.737864 0.134280 0.000000
0.762044 0.140297 0.000000
0.785813 0.146544 0.000000
0.801142 0.155922 0.000000
0.820964 0.172903 0.000000
0.830455 0.180119 0.000000
0.844658 0.192991 0.000000
0.859224 0.208161 0.000000
0.870940 0.218327 0.000000
0.879039 0.229524 0.000000
0.893128 0.250146 0.000000
0.893767 0.251368 0.000000
0.895612 0.254391 0.000000
0.914719 0.260109 0.000000
0.931716 0.255912 0.000000
0.963633 0.257869 0.000000
0.978899 0.261838 0.000000
0.994485 0.273064 0.000000
1.000000 0.268239 0.000000
1.000000 0.276270 0.000000
1.000000 0.279841 0.000000
1.000000 0.285270 0.000000
1.000000 0.298819 0.000000
1.000000 0.299195 0.000000
1.000000 0.299518 0.000000
1.000000 0.306918 0.000000
1.000000 0.307148 0.000000
1.000000 0.307343 0.000000
1.000000 0.307544 0.000000
0.003205 0.130273 0.062269
0.002515 0.125986 0.051813
0.002143 0.122401 0.039566
0.001465 0.117774 0.031249
0.000000 0.117647 0.019608
0.000000 0.113725 0.007843
0.007843 0.117647 0.007843
0.035294 0.117647 0.000000
0.080216 0.118320 0.012784
0.116518 0.119060 0.019644
0.162089 0.122467 0.030118
0.193414 0.115989 0.029270
0.222311 0.108811 0.027473
0.255629 0.104827 0.026530
0.278681 0.101097 0.022636
0.300528 0.100654 0.020816
0.318078 0.104289 0.022736
0.335283 0.108529 0.023341
0.352941 0.109804 0.015686
0.378611 0.110994 0.014450
0.406329 0.112170 0.011933
0.436085 0.105741 0.004949
0.453678 0.105038 0.001609
0.478661 0.113525 0.003729
0.500788 0.117368 0.003180
0.514709 0.123955 0.003085
0.543270 0.138626 0.004325
0.578256 0.152741 0.003266
0.598943 0.155219 0.002034
0.623085 0.165545 0.001217
0.636545 0.167088 0.000271
0.651593 0.153050 0.000364
0.671930 0.125557 0.000369
0.690821 0.130139 0.000002
0.709303 0.134369 0.000000
0.730528 0.143512 0.000000
0.756618 0.146999 0.000000
0.770131 0.148636 0.000000
0.796708 0.155245 0.000000
0.813575 0.168683 0.000000
0.828230 0.178395 0.000000
0.842910 0.194041 0.000000
0.859118 0.208213 0.000000
0.870573 0.226935 0.000000
0.881639 0.240826 0.000000
0.893175 0.251507 0.000000
0.893811 0.252677 0.000000
0.895650 0.255592 0.000000
0.913743 0.268651 0.000000
0.922995 0.271342 0.000000
0.955639 0.274429 0.000000
0.978437 0.262635 0.000000
0.994101 0.271973 0.000000
0.994523 0.281941 0.000000
1.000000 0.276243 0.000000
1.000000 0.279826 0.000000
1.000000 0.285268 0.000000
1.000000 0.298826 0.000000
1.000000 0.299206 0.000000
1.000000 0.299532 0.000000
1.000000 0.306935 0.000000
1.000000 0.307168 0.000000
1.000000 0.307364 0.000000
1.000000 0.307566 0.000000
0.000168 0.159928 0.080792
0.001110 0.152723 0.069943
0.001818 0.147674 0.060242
0.002945 0.143543 0.049790
0.000000 0.133333 0.019608
0.001734 0.138572 0.032946
0.000000 0.137255 0.007843
0.007843 0.137255 0.007843
0.043137 0.137255 0.007843
0.098039 0.137255 0.007843
0.133419 0.137931 0.018481
0.168627 0.125490 0.007843
0.208153 0.136110 0.032617
0.247425 0.133717 0.038735
0.273803 0.126965 0.036597
0.304290 0.117795 0.029091
0.329667 0.117863 0.025126
0.347325 0.121203 0.025182
0.369102 0.126999 0.029414
0.388235 0.121569 0.015686
0.409626 0.136180 0.025213
0.443146 0.138859 0.016661
0.460842 0.132667 0.008833
0.480257 0.127718 0.003066
0.500849 0.128620 0.001771
0.520212 0.134615 0.001947
0.546401 0.150862 0.004227
0.577652 0.165049 0.004712
0.604383 0.180685 0.004958
0.628029 0.185358 0.001677
0.642354 0.192455 0.001269
0.658047 0.196226 0.000565
0.669339 0.191880 0.000330
0.683468 0.156939 0.000000
0.703803 0.140676 0.000000
0.725830 0.146463 0.000000
0.744299 0.152299 0.000000
0.761223 0.152707 0.000000
0.791039 0.163650 0.000000
0.813772 0.170644 0.000000
0.825550 0.178099 0.000000
0.841505 0.194588 0.000000
0.859416 0.219101 0.000000
0.868577 0.227897 0.000000
0.879709 0.241279 0.000000
0.889274 0.259366 0.000000
0.895448 0.265829 0.000000
0.895962 0.266953 0.000000
0.908082 0.282068 0.000000
0.917126 0.284262 0.000000
0.954802 0.277074 0.000000
0.972501 0.277534 0.000000
0.988468 0.282537 0.000000
0.994135 0.282463 0.000000
0.994534 0.279838 0.000000
1.000000 0.284715 0.000000
1.000000 0.285267 0.000000
1.000000 0.298836 0.000000
1.000000 0.299220 0.000000
1.000000 0.299550 0.000000
1.000000 0.306956 0.000000
1.000000 0.307190 0.000000
1.000000 0.307388 0.000000
1.000000 0.307591 0.000000
0.000140 0.171472 0.087453
0.000000 0.167869 0.078814
0.000116 0.161761 0.065872
0.000876 0.159773 0.053754
0.000883 0.160689 0.046135
0.000908 0.159775 0.042167
0.000000 0.156863 0.019608
0.000000 0.156863 0.015686
0.019608 0.156863 0.011765
0.066667 0.156863 0.007843
0.105882 0.152941 0.003922
0.151738 0.151798 0.018325
0.181237 0.155126 0.027706
0.227141 0.154200 0.038012
0.264616 0.150694 0.046924
0.299165 0.144466 0.047373
0.337458 0.137745 0.036929
0.356703 0.134840 0.026922
0.375925 0.138675 0.027658
0.398154 0.145646 0.034878
0.417526 0.154261 0.039605
0.446917 0.160082 0.030417
0.462745 0.149020 0.003922
0.478482 0.153574 0.013894
0.507918 0.146919 0.004132
0.530711 0.149475 0.001375
0.548219 0.155771 0.001165
0.572486 0.166507 0.001494
0.607726 0.188304 0.002882
0.635492 0.198860 0.002273
0.644796 0.201867 0.002127
0.658790 0.204835 0.001600
0.670023 0.207595 0.001590
0.680967 0.208158 0.000816
0.697175 0.209584 0.000177
0.729696 0.183737 0.000000
0.739146 0.162083 0.000000
0.752692 0.156379 0.000000
0.787719 0.168322 0.000000
0.801946 0.176217 0.000000
0.819169 0.176996 0.000000
0.843578 0.208626 0.000000
0.860047 0.223119 0.000000
0.873006 0.246381 0.000000
0.884282 0.268745 0.000000
0.887946 0.273836 0.000000
0.895918 0.290667 0.000000
0.901363 0.296680 0.000000
0.908084 0.295971 0.000000
0.915904 0.296406 0.000000
0.947858 0.301604 0.000000
0.970409 0.291136 0.000000
0.987408 0.290665 0.000000
0.988407 0.287986 0.000000
0.994155 0.282941 0.000000
0.994577 0.288156 0.000000
1.000000 0.285275 0.000000
1.000000 0.298605 0.000000
1.000000 0.299237 0.000000
1.000000 0.306705 0.000000
1.000000 0.306981 0.000000
1.000000 0.307216 0.000000
1.000000 0.307415 0.000000
1.000000 0.307618 0.000000
0.000425 0.189240 0.088836
0.000113 0.186275 0.080780
0.000000 0.186949 0.072888
0.000000 0.187844 0.062493
0.000000 0.184618 0.056256
0.000000 0.179472 0.048719
0.000000 0.176471 0.031373
0.000000 0.179348 0.037404
0.005479 0.178842 0.028445
0.023529 0.176471 0.007843
0.078431 0.172549 0.007843
0.127590 0.172617 0.016541
0.164706 0.160784 0.007843
0.204474 0.174247 0.024818
0.240059 0.170077 0.032166
0.275100 0.172806 0.049499
0.325342 0.172789 0.055326
0.360938 0.163015 0.047461
0.378941 0.158816 0.040163
0.402199 0.161942 0.040357
0.422763 0.168682 0.043242
0.448339 0.178906 0.046880
0.468220 0.180105 0.037248
0.485975 0.182431 0.028595
0.510553 0.179142 0.019345
0.531118 0.163512 0.005573
0.549509 0.163482 0.001115
0.573600 0.175911 0.000781
0.593781 0.185350 0.000665
0.621357 0.204362 0.000549
0.639099 0.203040 0.000916
0.653828 0.206351 0.001676
0.666449 0.215271 0.002625
0.680126 0.221553 0.002627
0.693360 0.216642 0.000860
0.725037 0.236475 0.000466
0.748541 0.227100 0.000000
0.757055 0.218294 0.000000
0.780084 0.208277 0.000000
0.795729 0.194823 0.000000
0.813540 0.195668 0.000000
0.848014 0.226133 0.000000
0.869742 0.267640 0.000000
0.880531 0.280606 0.000000
0.885536 0.289518 0.000000
0.889982 0.293797 0.000000
0.896221 0.299137 0.000000
0.899741 0.302803 0.000000
0.908368 0.304326 0.000000
0.920499 0.303548 0.000000
0.949997 0.307524 0.000000
0.963109 0.304983 0.000000
0.974866 0.308726 0.000000
0.981676 0.300645 0.000000
0.988354 0.293326 0.000000
0.994173 0.288652 0.000000
1.000000 0.285317 0.000000
1.000000 0.298658 0.000000
1.000000 0.299258 0.000000
1.000000 0.306733 0.000000
1.000000 0.307010 0.000000
1.000000 0.307246 0.000000
1.000000 0.307445 0.000000
1.000000 0.307648 0.000000
0.001034 0.218659 0.102083
0.000738 0.208460 0.084024
0.000133 0.209623 0.076325
0.000000 0.208559 0.072191
0.000000 0.207539 0.067965
0.000000 0.200872 0.062355
0.000000 0.198377 0.056385
0.000000 0.196078 0.039216
0.000000 0.200000 0.027451
0.003922 0.196078 0.015686
0.039216 0.200000 0.011765
0.090196 0.196078 0.007843
0.137255 0.192157 0.007843
0.160784 0.192157 0.019608
0.215160 0.188605 0.030800
0.255961 0.185824 0.035999
0.308281 0.196962 0.057352
0.341150 0.195023 0.060416
0.379265 0.187368 0.057612
0.404631 0.185175 0.050923
0.424851 0.185927 0.046749
0.443062 0.186769 0.048185
0.470012 0.196395 0.052549
0.494670 0.198953 0.040466
0.513054 0.204176 0.032987
0.528857 0.190979 0.021178
0.545041 0.168195 0.005165
0.569280 0.181809 0.001506
0.591646 0.193857 0.000764
0.620903 0.213774 0.000000
0.640226 0.222942 0.000000
0.653922 0.231394 0.000000
0.667366 0.231753 0.000000
0.690081 0.244624 0.002347
0.704439 0.246127 0.002359
0.721387 0.247249 0.000000
0.744451 0.257412 0.000000
0.753145 0.267016 0.000000
0.766405 0.250394 0.000000
0.779881 0.245623 0.000000
0.822536 0.255950 0.000000
0.850660 0.271921 0.000000
0.873609 0.292899 0.000000
0.882921 0.303963 0.000000
0.889379 0.311295 0.000000
0.891371 0.315947 0.000000
0.896788 0.328675 0.000000
0.899385 0.331134 0.000000
0.907700 0.322274 0.000000
0.920016 0.322635 0.000000
0.942111 0.324213 0.000000
0.958918 0.321730 0.000000
0.972202 0.310328 0.000000
0.974443 0.312523 0.000000
0.981457 0.303133 0.000000
0.988284 0.293879 0.000000
0.994172 0.295632 0.000000
0.994582 0.302134 0.000000
1.000000 0.305491 0.000000
1.000000 0.306767 0.000000
1.000000 0.307043 0.000000
1.000000 0.307279 0.000000
1.000000 0.307478 0.000000
1.000000 0.307681 0.000000
0.001597 0.241829 0.111876
0.001026 0.233115 0.095055
0.000769 0.224649 0.077324
0.000499 0.223320 0.074393
0.000296 0.222273 0.070822
0.000136 0.218975 0.067296
0.000000 0.216582 0.063103
0.000000 0.215686 0.043137
0.000000 0.221426 0.056552
0.000417 0.223434 0.040444
0.003922 0.223529 0.015686
0.047059 0.219608 0.015686
0.105882 0.215686 0.007843
0.157233 0.216836 0.021801
0.194272 0.212385 0.025377
0.231080 0.221443 0.036979
0.267179 0.226242 0.050094
0.308960 0.222347 0.058547
0.365602 0.215753 0.065860
0.397807 0.206899 0.061104
0.424656 0.197850 0.050852
0.445466 0.203331 0.048603
0.466120 0.208668 0.051665
0.496209 0.217269 0.054315
0.525652 0.220519 0.041864
0.533393 0.219016 0.036583
0.548555 0.205519 0.021161
0.569475 0.196204 0.007183
0.588147 0.200848 0.002104
0.612066 0.217198 0.000597
0.636113 0.236301 0.000141
0.660504 0.252565 0.000000
0.672448 0.256038 0.000000
0.684595 0.258768 0.000000
0.704990 0.261592 0.000000
0.720457 0.271492 0.000000
0.737862 0.279133 0.000000
0.756471 0.283570 0.000000
0.760153 0.287824 0.000000
0.783341 0.299347 0.000000
0.822973 0.329070 0.000000
0.864153 0.357295 0.000000
0.886254 0.374897 0.000000
0.895813 0.380898 0.000000
0.898115 0.387091 0.000000
0.900629 0.396388 0.000000
0.902686 0.398671 0.000000
0.902607 0.391082 0.000000
0.903686 0.391486 0.000000
0.911759 0.390000 0.000000
0.924734 0.385265 0.000000
0.941008 0.357030 0.000000
0.963306 0.325964 0.000000
0.971707 0.318332 0.000000
0.974084 0.314701 0.000000
