backend/3dlut-creator/demo/FL3.cube
TITLE "3D LUT from Image Pairs"
LUT_3D_SIZE 4
0.000000 0.000000 0.000000
0.419608 0.007843 0.003922
0.864963 0.210571 0.000000
1.000000 0.307457 0.000000
0.000179 0.441413 0.240777
0.298039 0.384314 0.039216
0.798606 0.386669 0.000000
0.933330 0.410026 0.000000
0.317382 0.832610 0.619563
0.361709 0.831852 0.575920
0.597373 0.749767 0.320157
0.902364 0.727345 0.380731
0.404114 0.878610 0.646480
0.435764 0.889668 0.656223
0.536034 0.914730 0.658036
0.775311 0.916221 0.550693
0.007526 0.262867 0.511795
0.437994 0.212686 0.360327
0.835488 0.202374 0.322794
1.000000 0.382133 0.057910
0.000329 0.440982 0.462818
0.427451 0.431373 0.431373
0.785603 0.429392 0.334797
1.000000 0.468001 0.023985
0.135224 0.748920 0.567088
0.292141 0.747615 0.571449
0.654902 0.733334 0.490196
0.978204 0.761455 0.449985
0.371995 0.868768 0.648020
0.395159 0.877748 0.647100
0.492535 0.915801 0.680650
0.809015 0.931849 0.589392
0.041402 0.582299 0.815231
0.037918 0.573087 0.808803
0.667981 0.560316 0.699333
0.972484 0.423353 0.413657
0.145098 0.596079 0.780392
0.486303 0.605835 0.786144
0.713016 0.570785 0.703175
0.988104 0.512849 0.491868
0.402857 0.781115 0.784704
0.482353 0.776471 0.784314
0.764706 0.764706 0.764706
0.997728 0.769131 0.692364
0.442378 0.877016 0.719171
0.484939 0.891286 0.743182
0.643613 0.943829 0.811747
0.923279 0.965784 0.817198
0.224322 0.693209 0.894474
0.224350 0.693229 0.894487
0.224290 0.693190 0.894459
0.599291 0.655375 0.806681
0.300295 0.733730 0.920901
0.281642 0.723376 0.914450
0.270779 0.718793 0.911180
0.704853 0.623662 0.755360
0.493268 0.876181 0.970480
0.572608 0.885932 0.978016
0.731596 0.896852 0.978401
0.884702 0.728514 0.804834
0.637297 0.958146 0.977821
0.662703 0.964065 0.982569
0.822732 0.991936 0.997208
0.996078 0.996079 0.996078
