backend/3dlut-creator/demo/FL3.cube
TITLE "3D LUT from Image Pairs"
LUT_3D_SIZE 8
0.000000 0.000000 0.000000
0.133333 0.003922 0.000000
0.345098 0.007843 0.000000
0.587446 0.045634 0.000455
0.774756 0.117399 0.000000
0.892365 0.240421 0.000000
1.000000 0.271975 0.000000
1.000000 0.307457 0.000000
0.000168 0.159928 0.080792
0.098039 0.137255 0.007843
0.369102 0.126999 0.029414
0.577652 0.165049 0.004712
0.744299 0.152299 0.000000
0.889274 0.259366 0.000000
0.994534 0.279838 0.000000
1.000000 0.307591 0.000000
0.000205 0.384721 0.203642
0.000401 0.346403 0.109096
0.250980 0.321569 0.019608
0.558051 0.310543 0.081618
0.729412 0.313726 0.000000
0.900159 0.439407 0.000000
0.902885 0.431588 0.000000
1.000000 0.322414 0.000000
0.001872 0.535760 0.322602
0.000946 0.537493 0.302243
0.037945 0.519887 0.202455
0.396288 0.518159 0.145524
0.646854 0.499148 0.161786
0.844843 0.500479 0.047169
0.897328 0.505619 0.000000
0.924363 0.484551 0.000000
0.161977 0.745255 0.547172
0.146802 0.729760 0.530977
0.244385 0.654909 0.285187
0.275243 0.660935 0.251112
0.522844 0.669715 0.272075
0.738711 0.646707 0.278313
0.875979 0.652732 0.248399
0.905657 0.607010 0.146772
0.335980 0.843596 0.624660
0.351584 0.853755 0.626446
0.380220 0.865580 0.634510
0.416769 0.862047 0.611987
0.502296 0.780628 0.396496
0.652763 0.791708 0.373793
0.822127 0.774741 0.408120
0.911314 0.771162 0.451900
0.395339 0.874967 0.644262
0.400188 0.877273 0.645172
0.403836 0.879050 0.646392
0.436865 0.891700 0.656957
0.482177 0.907955 0.672542
0.677512 0.876530 0.481748
0.741850 0.891230 0.503142
0.818082 0.866618 0.515094
0.404114 0.878610 0.646480
0.404681 0.878896 0.646682
0.423187 0.884623 0.651318
0.448176 0.893892 0.659519
0.483813 0.906972 0.673062
0.564173 0.912357 0.636091
0.734660 0.907922 0.534395
0.775311 0.916221 0.550693
0.000000 0.054902 0.172549
0.215640 0.103861 0.199732
0.383836 0.049149 0.141131
0.560784 0.050981 0.101961
0.744397 0.131635 0.013588
0.889273 0.201489 0.000000
0.995972 0.254835 0.000000
1.000000 0.314581 0.000000
0.000393 0.158806 0.171099
0.152941 0.152941 0.156863
0.345098 0.145098 0.117647
0.537288 0.165109 0.073855
0.709804 0.239216 0.035294
0.882353 0.227451 0.000000
0.998230 0.252726 0.000000
1.000000 0.307968 0.000000
0.000000 0.329412 0.227451
0.006702 0.328970 0.206461
0.278431 0.333333 0.164706
0.545098 0.317647 0.160784
0.701961 0.305882 0.043137
0.851050 0.376248 0.000768
0.959323 0.383648 0.000000
1.000000 0.326187 0.000000
0.000407 0.523580 0.335917
0.000312 0.496832 0.293139
0.012131 0.515261 0.261352
0.415686 0.509804 0.211765
0.666667 0.470588 0.211765
0.817711 0.500361 0.158198
0.897636 0.495082 0.000000
0.930814 0.487430 0.000000
0.102258 0.719590 0.528194
0.093516 0.701323 0.508102
0.172174 0.632592 0.372183
0.290631 0.653951 0.343596
0.537255 0.639216 0.274510
0.760784 0.611765 0.301961
0.885117 0.640559 0.222757
0.962696 0.642473 0.127277
0.303973 0.829497 0.620531
0.310083 0.832126 0.622069
0.332256 0.840686 0.617702
0.401981 0.864382 0.633054
0.467791 0.762772 0.406391
0.647059 0.772549 0.372549
0.835294 0.768628 0.411765
0.934746 0.784934 0.481012
0.374859 0.869579 0.643206
0.385588 0.872838 0.643991
0.400040 0.877563 0.645253
0.424518 0.887425 0.652598
0.477530 0.908642 0.671793
0.658654 0.873620 0.502400
0.749023 0.895019 0.510532
0.837996 0.870911 0.537733
0.403181 0.878308 0.646261
0.403782 0.878614 0.646478
0.405614 0.879546 0.647140
0.437070 0.890701 0.656938
0.482822 0.907145 0.672990
0.550885 0.915931 0.650104
0.739837 0.910593 0.541626
0.775552 0.916741 0.551415
0.008422 0.186402 0.416677
0.092470 0.192106 0.415285
0.400531 0.184200 0.324714
0.581034 0.168905 0.306704
0.760466 0.169736 0.305807
0.881322 0.213928 0.172633
0.995384 0.303070 0.119699
1.000000 0.370366 0.019440
0.000000 0.219608 0.360784
0.167936 0.214386 0.348027
0.328370 0.188458 0.318383
0.570259 0.188450 0.312072
0.745718 0.176930 0.284356
0.875768 0.268264 0.186651
1.000000 0.309804 0.129412
1.000000 0.373880 0.008211
0.004591 0.353560 0.375161
0.043137 0.372549 0.384314
0.364706 0.364706 0.364706
0.541177 0.356863 0.321569
0.701961 0.356863 0.274510
0.831372 0.384314 0.203922
0.949102 0.428855 0.115594
1.000000 0.366823 0.000000
0.000305 0.522397 0.409364
0.004148 0.519899 0.412552
0.243137 0.513726 0.396078
0.466667 0.517647 0.372549
0.674510 0.513726 0.388235
0.804225 0.539774 0.343494
0.909804 0.541177 0.109804
0.997853 0.567226 0.008744
0.004757 0.662480 0.492233
0.009344 0.658736 0.491089
0.174338 0.665362 0.506326
0.328666 0.652198 0.443893
0.576471 0.650980 0.407843
0.772549 0.627451 0.423529
0.901961 0.650981 0.388235
0.985786 0.675720 0.147348
0.235343 0.795048 0.604176
0.239027 0.797056 0.605348
0.267321 0.796976 0.601793
0.373666 0.814827 0.619181
0.473649 0.782673 0.516755
0.674510 0.776471 0.486274
0.858824 0.752941 0.513726
0.949533 0.775216 0.484220
0.347246 0.853105 0.641024
0.349368 0.855730 0.641486
0.359106 0.860497 0.640973
0.393291 0.873687 0.644063
0.445034 0.897197 0.659993
0.602985 0.899147 0.633709
0.784645 0.894776 0.574805
0.923402 0.853247 0.600167
0.383975 0.872311 0.647191
0.388991 0.874331 0.645657
0.395948 0.877901 0.647097
0.423570 0.885795 0.652923
0.479553 0.907549 0.672750
0.509399 0.919573 0.686838
0.722396 0.914994 0.562711
0.795056 0.926887 0.573983
0.002695 0.381963 0.645750
0.002942 0.361237 0.625249
0.049075 0.352544 0.613838
0.558403 0.277397 0.416466
0.705098 0.202764 0.358780
0.809966 0.219942 0.354421
0.979428 0.399530 0.354729
1.000000 0.422577 0.257140
0.000000 0.282353 0.545098
0.041010 0.295709 0.542421
0.244128 0.311325 0.506093
0.520474 0.316838 0.462973
0.672344 0.216407 0.367119
0.827575 0.242220 0.385020
0.986587 0.421399 0.370511
1.000000 0.424289 0.259975
0.000000 0.419608 0.549020
0.025612 0.430139 0.555834
0.352941 0.419608 0.549020
0.525614 0.398914 0.511738
0.695498 0.389677 0.488282
0.845890 0.425698 0.479138
0.980157 0.434558 0.385518
1.000000 0.459559 0.274213
0.106143 0.572953 0.585104
0.082354 0.556863 0.568628
0.345098 0.552941 0.560784
0.541176 0.545098 0.545098
0.682353 0.537255 0.513725
0.814736 0.539330 0.471175
0.933333 0.552941 0.427451
1.000000 0.597147 0.270059
0.221948 0.668584 0.577493
0.242105 0.672074 0.587402
0.324666 0.667610 0.589447
0.486274 0.658824 0.580392
0.623529 0.662745 0.556863
0.788235 0.658824 0.564706
0.891273 0.686658 0.530054
1.000000 0.698039 0.137255
0.242047 0.765571 0.606028
0.271920 0.771503 0.616154
0.336421 0.781176 0.636235
0.437717 0.777284 0.631988
0.531252 0.776456 0.617480
0.713725 0.776471 0.592157
0.870588 0.768628 0.615686
0.972549 0.807843 0.615686
0.332394 0.841438 0.654829
0.332567 0.841836 0.654996
0.349770 0.849997 0.663074
0.407060 0.869390 0.685037
0.520696 0.891895 0.715084
0.652896 0.884361 0.677989
0.803922 0.894118 0.650980
0.960784 0.882353 0.682353
0.362209 0.864279 0.647621
0.368793 0.866738 0.649930
0.370155 0.867453 0.650239
0.382912 0.871556 0.649468
0.446593 0.895988 0.664963
0.519247 0.921689 0.691848
0.664467 0.944464 0.715294
0.865847 0.958055 0.679118
0.008596 0.485600 0.739756
0.008585 0.485177 0.739424
0.009311 0.469070 0.726969
0.113521 0.450946 0.706979
0.664532 0.534579 0.672464
0.767719 0.359931 0.487395
0.961777 0.413527 0.420581
0.992278 0.436162 0.381219
0.004960 0.456558 0.715212
0.004995 0.456037 0.714692
0.005434 0.443012 0.704308
0.267992 0.455035 0.693242
0.666400 0.549835 0.686690
0.775204 0.395769 0.520167
0.960911 0.418917 0.429998
0.997066 0.446472 0.378442
0.000000 0.513725 0.701961
0.192596 0.505485 0.689390
0.348804 0.512026 0.685231
0.579255 0.559332 0.711532
0.685586 0.548574 0.683264
0.788992 0.521916 0.630545
0.952767 0.456439 0.477981
0.997416 0.469670 0.412499
0.000001 0.611765 0.713726
0.196079 0.607843 0.698039
0.326861 0.592261 0.688414
0.541177 0.588235 0.690196
0.673860 0.594326 0.691281
0.830084 0.581722 0.669659
0.954998 0.567937 0.598419
1.000000 0.550548 0.496762
0.264042 0.702462 0.706962
0.283419 0.698999 0.705842
0.376471 0.698039 0.713726
0.533333 0.690196 0.698039
0.682353 0.686275 0.686275
0.796078 0.686275 0.666667
0.921569 0.682353 0.611765
1.000000 0.698039 0.584314
0.371667 0.762568 0.678664
0.383555 0.764803 0.685494
0.439622 0.782052 0.710855
0.533333 0.788235 0.725490
0.635925 0.785939 0.719114
0.756863 0.788235 0.705882
0.890196 0.792157 0.713725
0.996078 0.811765 0.596078
0.433031 0.856243 0.717409
0.433526 0.856429 0.717782
0.452762 0.862728 0.728703
0.508183 0.881860 0.756946
0.597126 0.895553 0.772396
0.698451 0.896184 0.767142
0.839216 0.894118 0.745098
0.964706 0.890196 0.752941
0.383541 0.860559 0.681315
0.383823 0.860646 0.681468
0.392168 0.864444 0.685514
0.449169 0.882073 0.711610
0.525507 0.908038 0.747431
0.618991 0.937594 0.776047
0.723038 0.954497 0.773389
0.895076 0.952762 0.750973
0.067874 0.601026 0.829450
0.067781 0.600956 0.829402
0.067541 0.600744 0.829255
0.041841 0.583242 0.815913
0.139046 0.576489 0.806475
0.673162 0.575446 0.714622
0.795575 0.446707 0.556448
0.970271 0.433455 0.434952
0.067238 0.601365 0.829734
0.067076 0.601191 0.829612
0.066754 0.600740 0.829287
0.041451 0.594725 0.824940
0.204535 0.594875 0.817709
0.673889 0.575452 0.714488
0.803466 0.478295 0.587965
0.970468 0.434359 0.435725
0.000000 0.600000 0.835294
0.013283 0.594043 0.822622
0.016690 0.590504 0.819955
0.311990 0.599984 0.810439
0.624728 0.626025 0.770817
0.700827 0.570397 0.704279
0.802782 0.521553 0.629138
0.970915 0.467387 0.469022
0.177183 0.674883 0.820778
0.254902 0.674510 0.823529
0.396078 0.666667 0.815686
0.588339 0.674219 0.821074
0.689401 0.638091 0.777507
0.753550 0.596952 0.720355
0.815918 0.579278 0.681751
0.991275 0.571103 0.551872
0.172549 0.745098 0.827451
0.314222 0.740903 0.822904
0.408177 0.738363 0.817166
0.521883 0.727424 0.805364
0.687233 0.735622 0.807391
0.803922 0.725490 0.796079
0.913957 0.716943 0.788375
0.990175 0.666934 0.676395
0.452811 0.805300 0.808340
0.460017 0.808552 0.811784
0.492758 0.814527 0.821146
0.580392 0.811765 0.823529
0.682353 0.807843 0.815686
0.800000 0.803922 0.803922
0.905882 0.807843 0.792157
0.991541 0.797904 0.736227
0.497632 0.832630 0.748629
0.512960 0.837221 0.756549
0.522652 0.841259 0.762566
0.606521 0.879212 0.810398
0.662745 0.901961 0.843137
0.764706 0.898039 0.839216
0.870588 0.898039 0.827451
0.984314 0.898039 0.792157
0.483184 0.879485 0.746635
0.490628 0.883878 0.751947
0.515122 0.897580 0.764840
0.557719 0.915192 0.787282
0.598278 0.929193 0.807446
0.693162 0.949653 0.834443
0.813321 0.985178 0.883751
0.943749 0.981587 0.865965
0.198683 0.679485 0.884127
0.198640 0.679470 0.884118
0.176214 0.665484 0.873963
0.176093 0.665420 0.873919
0.156000 0.650998 0.865070
0.155807 0.650753 0.864899
0.696322 0.595232 0.730794
0.855512 0.502667 0.581230
0.198742 0.679629 0.884234
0.198681 0.679604 0.884217
0.198543 0.679541 0.884174
0.198390 0.679444 0.884106
0.176108 0.665462 0.873948
0.270092 0.678296 0.878503
0.693256 0.612910 0.748734
0.855271 0.503323 0.581908
0.222252 0.692904 0.894177
0.221899 0.692724 0.894057
0.210129 0.687753 0.889583
0.209676 0.687368 0.889310
0.252204 0.690136 0.889691
0.552500 0.674053 0.833420
0.701514 0.601036 0.734511
0.853151 0.517206 0.602839
0.427451 0.764706 0.913726
0.427451 0.760784 0.933333
0.525145 0.785952 0.935446
0.574402 0.746965 0.898571
0.629664 0.728527 0.873206
0.686026 0.662178 0.796832
0.738084 0.603382 0.730380
0.856713 0.608544 0.697807
0.329412 0.835294 0.937255
0.387144 0.830856 0.932234
0.494256 0.821065 0.925812
0.611765 0.823529 0.925490
0.705186 0.761505 0.876471
0.752121 0.733608 0.847840
0.819372 0.674603 0.773696
0.929083 0.692569 0.757297
0.403922 0.866667 0.929412
0.470588 0.862745 0.925490
0.513725 0.862745 0.925490
0.611765 0.866667 0.925490
0.691220 0.853579 0.911102
0.795725 0.842266 0.900070
0.902496 0.838216 0.892953
0.976874 0.762067 0.784604
0.566846 0.918193 0.943936
0.579148 0.919885 0.942859
0.590074 0.915131 0.933872
0.635307 0.896926 0.902902
0.718104 0.907861 0.911940
0.807843 0.913726 0.917647
0.905882 0.909804 0.909804
0.992157 0.909804 0.901961
0.597675 0.898942 0.810478
0.603388 0.900933 0.814352
0.613865 0.904686 0.820394
0.634916 0.912399 0.832510
0.677873 0.923925 0.852657
0.769393 0.951035 0.889908
0.857698 0.966103 0.915981
0.970687 0.987199 0.945343
0.224322 0.693209 0.894474
0.224330 0.693214 0.894477
0.224345 0.693225 0.894484
0.224353 0.693231 0.894488
0.224330 0.693217 0.894478
0.224265 0.693173 0.894447
0.273796 0.700441 0.897556
0.599291 0.655375 0.806681
0.244101 0.702411 0.901264
0.244096 0.702410 0.901263
0.244079 0.702404 0.901258
0.244039 0.702384 0.901244
0.243978 0.702344 0.901217
0.243904 0.702284 0.901179
0.316239 0.707476 0.899542
0.655603 0.639904 0.780960
0.270883 0.718848 0.911240
0.270821 0.718819 0.911220
0.270664 0.718745 0.911167
0.270415 0.718628 0.911082
0.270162 0.718507 0.910991
0.269979 0.718417 0.910919
0.457821 0.721862 0.894935
0.704621 0.623721 0.755473
0.390682 0.775007 0.948315
0.390377 0.774749 0.948116
0.374722 0.767058 0.942772
0.375751 0.765936 0.942188
0.411379 0.761077 0.934848
0.487949 0.749587 0.915504
0.666531 0.710410 0.846379
0.732896 0.642437 0.767673
0.519615 0.875240 0.992799
0.532739 0.878300 0.994563
0.571462 0.886159 0.997426
0.605884 0.884617 0.991247
0.631037 0.850575 0.966470
0.669884 0.754889 0.885968
0.711564 0.714993 0.842216
0.786642 0.656004 0.765845
0.445605 0.890848 0.972855
0.488334 0.892195 0.975747
0.582517 0.897776 0.980759
0.636825 0.909332 0.988196
0.723702 0.917475 0.991089
0.773064 0.902566 0.975941
0.826795 0.805456 0.893186
0.886711 0.751557 0.822936
0.567954 0.958684 0.994614
0.571265 0.958567 0.995593
0.598456 0.961224 0.995888
0.654902 0.968627 1.000000
0.693814 0.941157 0.980765
0.822572 0.956050 0.992286
0.907130 0.932849 0.977317
0.947222 0.896414 0.933579
0.637297 0.958146 0.977821
0.637881 0.958387 0.977976
0.644964 0.960524 0.979435
0.671666 0.966761 0.984116
0.758125 0.984012 0.993103
0.849494 0.996838 0.999340
0.926017 0.995225 0.995587
0.996078 0.996079 0.996078
