backend/3dlut-creator/demo/fuji_cc.cube
TITLE "3D LUT from Image Pairs"
LUT_3D_SIZE 4
0.007843 0.007843 0.007843
0.374597 0.081425 0.079107
0.781720 0.278119 0.247179
0.854631 0.345442 0.307060
0.085118 0.341801 0.105582
0.315942 0.320619 0.103055
0.860677 0.478883 0.328692
0.871737 0.423582 0.316639
0.290724 0.598639 0.100145
0.299138 0.605853 0.095370
0.608058 0.682558 0.225050
0.934220 0.732462 0.411429
0.486674 0.773562 0.101459
0.498993 0.787024 0.075956
0.552112 0.824970 0.036757
0.691820 0.853090 0.134942
0.008590 0.148216 0.383655
0.369795 0.149087 0.347935
0.735131 0.250127 0.397906
0.927001 0.406882 0.468552
0.000337 0.305798 0.292720
0.341176 0.341177 0.341176
0.717647 0.380392 0.380392
0.923539 0.408805 0.453799
0.255998 0.574046 0.289688
0.337650 0.600017 0.286253
0.660558 0.656421 0.376802
0.968628 0.705882 0.482353
0.418366 0.715204 0.134469
0.471559 0.756738 0.140385
0.555108 0.828918 0.080679
0.770676 0.884197 0.286855
0.519303 0.329303 0.630202
0.651348 0.349788 0.653212
0.777329 0.432872 0.731015
0.919790 0.473268 0.687981
0.112885 0.303744 0.550089
0.416817 0.391531 0.621617
0.713693 0.446571 0.681964
0.907210 0.455931 0.664614
0.210569 0.649252 0.649983
0.215686 0.658824 0.658824
0.690196 0.690196 0.686275
0.988235 0.725490 0.733333
0.430069 0.741316 0.502282
0.453245 0.754489 0.515188
0.563209 0.801602 0.560419
0.945098 0.988235 0.694118
0.759522 0.435225 0.735490
0.784474 0.453028 0.748939
0.849490 0.512082 0.791898
0.865680 0.531167 0.804501
0.001273 0.291178 0.597725
0.580742 0.409376 0.709493
0.824640 0.514842 0.793934
0.880940 0.556449 0.821865
0.264816 0.687956 0.894251
0.266876 0.686815 0.893419
0.742362 0.697291 0.861814
0.978354 0.781163 0.949153
0.392370 0.773390 0.793360
0.409397 0.806028 0.843872
0.587550 0.911280 0.981985
0.992157 0.992157 0.992157
