backend/3dlut-creator/demo/fuji_provia.cube
TITLE "3D LUT from Image Pairs"
LUT_3D_SIZE 64
0.019608 0.019608 0.023529
0.023529 0.015686 0.015686
0.031373 0.019608 0.015686
0.050980 0.027451 0.023529
0.074510 0.035294 0.031373
0.090196 0.039216 0.035294
0.105882 0.043137 0.039216
0.121569 0.047059 0.043137
0.141336 0.048729 0.049093
0.160483 0.046129 0.047388
0.174922 0.040863 0.043951
0.193220 0.043960 0.048461
0.219687 0.043342 0.047567
0.241532 0.043687 0.047916
0.262745 0.031373 0.035294
0.279845 0.045337 0.049194
0.299614 0.052412 0.056171
0.318220 0.055389 0.060920
0.342639 0.058313 0.066104
0.366361 0.061749 0.068130
0.388808 0.065060 0.071995
0.422019 0.068603 0.073343
0.442894 0.071598 0.074665
0.462750 0.071153 0.077369
0.483471 0.075805 0.080126
0.504858 0.080910 0.085718
0.527624 0.087642 0.090964
0.543823 0.091563 0.095314
0.558689 0.098280 0.101371
0.580627 0.111300 0.111113
0.605467 0.125707 0.123086
0.635521 0.147500 0.140098
0.664316 0.165196 0.157091
0.685725 0.176796 0.166014
0.714065 0.189818 0.177598
0.737686 0.199888 0.188733
0.754988 0.204726 0.193952
0.783176 0.213816 0.201353
0.799384 0.223166 0.205210
0.807448 0.225513 0.205273
0.816762 0.228797 0.207832
0.837783 0.234210 0.216701
0.842077 0.236671 0.218263
0.862236 0.246780 0.228235
0.869886 0.251270 0.233513
0.884496 0.259884 0.242619
0.895263 0.266374 0.250254
0.901313 0.269601 0.254144
0.904065 0.270938 0.257794
0.908695 0.274422 0.261001
0.910963 0.276770 0.262330
0.913007 0.278626 0.264131
0.917180 0.285400 0.267398
0.917254 0.285496 0.267478
0.919693 0.289201 0.269684
0.919742 0.289274 0.269734
0.922389 0.292656 0.271433
0.922422 0.292709 0.271466
0.922449 0.292755 0.271494
0.922472 0.292793 0.271517
0.922491 0.292825 0.271535
0.922507 0.292852 0.271550
0.922520 0.292875 0.271562
0.923249 0.295085 0.271589
0.032129 0.036248 0.033476
0.035356 0.035019 0.031347
0.043137 0.031373 0.027451
0.043137 0.027451 0.019608
0.058824 0.031373 0.019608
0.074510 0.039216 0.023529
0.090196 0.043137 0.031373
0.117215 0.048834 0.042767
0.135703 0.050366 0.048590
0.153882 0.051208 0.049308
0.173427 0.047870 0.048751
0.195747 0.050940 0.054064
0.222026 0.051219 0.054896
0.242101 0.050881 0.053774
0.262009 0.053142 0.054782
0.282922 0.055134 0.056113
0.298691 0.055894 0.056768
0.322018 0.059258 0.060161
0.340014 0.061421 0.061952
0.364279 0.063856 0.064599
0.386935 0.066892 0.068334
0.418976 0.072978 0.071146
0.438018 0.076687 0.074437
0.458875 0.079457 0.078239
0.482857 0.078951 0.080685
0.503250 0.086456 0.086162
0.526482 0.089496 0.091242
0.543805 0.094431 0.095712
0.558403 0.102843 0.102338
0.580853 0.118726 0.113749
0.604373 0.129230 0.123225
0.639299 0.152492 0.143145
0.665316 0.167625 0.157335
0.685795 0.177334 0.166273
0.716944 0.196250 0.180662
0.738371 0.202528 0.187757
0.749701 0.207410 0.190476
0.780649 0.217948 0.198541
0.799280 0.223146 0.205132
0.807381 0.225507 0.205207
0.815798 0.228567 0.206370
0.834007 0.233486 0.213843
0.842957 0.237128 0.216348
0.862375 0.246756 0.226757
0.869826 0.251251 0.233468
0.884468 0.259881 0.242586
0.895258 0.266381 0.250236
0.901307 0.269604 0.254128
0.904063 0.270938 0.257787
0.908693 0.274423 0.260996
0.910967 0.276779 0.262330
0.913012 0.278636 0.264133
0.917182 0.285410 0.267395
0.919639 0.289130 0.269625
0.919698 0.289216 0.269685
0.919748 0.289288 0.269735
0.922393 0.292668 0.271434
0.922426 0.292721 0.271468
0.922453 0.292766 0.271496
0.922476 0.292803 0.271519
0.922495 0.292835 0.271537
0.922511 0.292862 0.271552
0.922523 0.292884 0.271564
0.923252 0.295094 0.271590
0.041071 0.052647 0.041215
0.050354 0.055414 0.039557
0.054402 0.055342 0.037725
0.057978 0.052187 0.034794
0.063184 0.042165 0.027390
0.074510 0.035294 0.019608
0.094118 0.043137 0.027451
0.105882 0.047059 0.027451
0.127686 0.056593 0.036953
0.148929 0.057675 0.046874
0.173853 0.058543 0.054527
0.204768 0.062574 0.061365
0.230291 0.065611 0.066120
0.252396 0.067377 0.067412
0.271262 0.068751 0.067046
0.286495 0.067142 0.064611
0.302988 0.065930 0.063451
0.324774 0.066276 0.063851
0.343922 0.065403 0.063700
0.364569 0.065970 0.064893
0.389369 0.071904 0.068953
0.417842 0.081793 0.074752
0.435569 0.084961 0.076364
0.453096 0.087349 0.078791
0.477338 0.085125 0.080492
0.501749 0.090692 0.086369
0.518813 0.093908 0.089085
0.542878 0.103293 0.096569
0.554925 0.106484 0.101671
0.583088 0.123209 0.115998
0.606705 0.137208 0.127531
0.639069 0.158282 0.146204
0.661733 0.167308 0.156393
0.689606 0.182273 0.168800
0.714041 0.196093 0.179504
0.733105 0.203979 0.185543
0.749646 0.207447 0.190420
0.780588 0.217988 0.198471
0.801838 0.223791 0.203740
0.807310 0.225502 0.205137
0.815781 0.228574 0.206303
0.835346 0.235141 0.213748
0.842879 0.237113 0.216273
0.862285 0.246733 0.226687
0.869762 0.251232 0.233420
0.883752 0.259899 0.241630
0.891019 0.263334 0.245751
0.901300 0.269607 0.254112
0.901471 0.269768 0.254268
0.907279 0.273974 0.258886
0.910971 0.276789 0.262331
0.913017 0.278647 0.264135
0.917184 0.285421 0.267392
0.919645 0.289146 0.269626
0.919704 0.289232 0.269687
0.919753 0.289303 0.269737
0.922397 0.292682 0.271435
0.922430 0.292734 0.271470
0.922457 0.292778 0.271498
0.922480 0.292815 0.271521
0.922499 0.292845 0.271539
0.922514 0.292871 0.271554
0.923244 0.295079 0.271582
0.923256 0.295104 0.271592
0.052714 0.068081 0.045609
0.057995 0.067062 0.042445
0.062295 0.068446 0.042790
0.067951 0.069374 0.042068
0.070588 0.066667 0.035294
0.078819 0.056377 0.031134
0.092485 0.048472 0.025767
0.109110 0.053926 0.030109
0.125490 0.054902 0.031373
0.141176 0.050980 0.015686
0.167214 0.067067 0.049847
0.202130 0.071333 0.064523
0.231079 0.072975 0.068668
0.258147 0.077339 0.072749
0.278400 0.078304 0.074217
0.291956 0.078435 0.074033
0.310175 0.081639 0.075453
0.329600 0.079828 0.073511
0.346586 0.076563 0.070455
0.365611 0.072728 0.068501
0.393410 0.077684 0.071424
0.420901 0.088690 0.077846
0.436789 0.093056 0.079009
0.454702 0.095989 0.080835
0.468490 0.097124 0.082664
0.503040 0.100681 0.087713
0.521365 0.101586 0.092345
0.542201 0.105041 0.096950
0.551634 0.108987 0.100688
0.583692 0.128642 0.117274
0.600917 0.139308 0.126261
0.636074 0.159509 0.145557
0.656067 0.172471 0.156918
0.697132 0.189808 0.173254
0.709161 0.195090 0.177471
0.728693 0.204112 0.183728
0.749587 0.207488 0.190359
0.773943 0.218256 0.195001
0.797006 0.224101 0.201632
0.806115 0.225041 0.203239
0.815763 0.228582 0.206230
0.827577 0.232333 0.210390
0.843492 0.238294 0.215951
0.862187 0.246708 0.226612
0.870626 0.251942 0.231732
0.883735 0.259907 0.241606
0.891011 0.263345 0.245736
0.899404 0.268668 0.251977
0.901469 0.269775 0.254256
0.908935 0.275675 0.259587
0.911216 0.277789 0.261385
0.911347 0.277955 0.261524
0.917186 0.285431 0.267389
0.919650 0.289164 0.269626
0.919710 0.289248 0.269688
0.922362 0.292634 0.271395
0.922402 0.292696 0.271437
0.922435 0.292747 0.271471
0.922462 0.292790 0.271500
0.922485 0.292826 0.271523
0.922503 0.292856 0.271541
0.922518 0.292881 0.271556
0.923247 0.295090 0.271583
0.923259 0.295114 0.271593
0.050262 0.082268 0.046126
0.050932 0.081074 0.045311
0.056867 0.078396 0.043526
0.065117 0.076404 0.042915
0.072364 0.076169 0.043303
0.080836 0.079859 0.044772
0.093868 0.072330 0.040101
0.110175 0.064448 0.035729
0.130542 0.068673 0.038128
0.149877 0.071166 0.038618
0.165624 0.076764 0.043143
0.184972 0.083636 0.051444
0.215291 0.086188 0.061145
0.248912 0.084156 0.073599
0.277478 0.084977 0.078190
0.295601 0.085910 0.078852
0.319316 0.089329 0.081564
0.339084 0.093265 0.083604
0.352602 0.088086 0.079359
0.371635 0.088471 0.079094
0.397796 0.087196 0.077854
0.425183 0.092103 0.078883
0.440275 0.095638 0.079440
0.453736 0.098556 0.080674
0.469436 0.102850 0.082326
0.499364 0.109238 0.088059
0.515245 0.109461 0.089455
0.539723 0.112117 0.096046
0.550200 0.115302 0.101339
0.583515 0.135978 0.118424
0.602367 0.144588 0.129395
0.637822 0.164152 0.148045
0.655823 0.173436 0.156217
0.692889 0.191646 0.171129
0.710949 0.196780 0.177580
0.726856 0.204264 0.182524
0.750194 0.209715 0.189583
0.773794 0.218299 0.194909
0.796890 0.223667 0.199972
0.806062 0.225047 0.203134
0.815723 0.229294 0.205899
0.827479 0.232320 0.210270
0.845010 0.238736 0.215620
0.859029 0.246232 0.221838
0.870549 0.251935 0.231673
0.882769 0.259449 0.238771
0.891000 0.263360 0.245717
0.899393 0.268677 0.251955
0.904537 0.272663 0.255190
0.907750 0.275463 0.257219
0.911222 0.277809 0.261386
0.913506 0.281756 0.263452
0.917189 0.285445 0.267386
0.919662 0.289181 0.268672
0.919718 0.289269 0.269689
0.922368 0.292653 0.271396
0.922407 0.292713 0.271438
0.922440 0.292763 0.271473
0.922467 0.292805 0.271502
0.922490 0.292840 0.271525
0.922508 0.292869 0.271544
0.923240 0.295081 0.271574
0.923252 0.295103 0.271585
0.924199 0.297369 0.273036
0.044814 0.092571 0.047677
0.046162 0.091690 0.047481
0.048512 0.091141 0.046999
0.051841 0.090380 0.046149
0.060765 0.088182 0.043978
0.078289 0.090543 0.044052
0.091669 0.092971 0.048735
0.113172 0.092585 0.050934
0.139331 0.084805 0.046095
0.157063 0.082759 0.041874
0.170780 0.082604 0.042249
0.188470 0.088772 0.047408
0.206619 0.097113 0.051819
0.230012 0.104532 0.058719
0.248829 0.107738 0.063711
0.288503 0.098618 0.077571
0.329399 0.100373 0.089463
0.347217 0.102945 0.091401
0.362684 0.103328 0.091821
0.376763 0.100293 0.088578
0.403222 0.096244 0.083940
0.425895 0.096959 0.081641
0.444621 0.098098 0.079248
0.459232 0.104602 0.080971
0.475791 0.108868 0.082065
0.499808 0.115411 0.087207
0.515081 0.118750 0.090052
0.535586 0.126315 0.095594
0.548018 0.127917 0.101067
0.581591 0.137119 0.117236
0.601454 0.148213 0.130348
0.632581 0.164780 0.146759
0.656771 0.175471 0.155771
0.685785 0.190262 0.168175
0.709374 0.197827 0.176753
0.722813 0.204784 0.180657
0.744979 0.210056 0.186492
0.773599 0.218360 0.194792
0.792740 0.224211 0.197811
0.806907 0.225508 0.203002
0.817058 0.230945 0.205778
0.822101 0.232581 0.208298
0.846521 0.240867 0.215947
0.858649 0.247174 0.220313
0.867630 0.251007 0.227347
0.882717 0.259465 0.238714
0.890986 0.263381 0.245692
0.898449 0.268970 0.250301
0.905240 0.273901 0.254932
0.907747 0.275488 0.257203
0.910273 0.277612 0.259956
0.913513 0.281779 0.263450
0.919590 0.289101 0.268581
0.919666 0.289203 0.268669
0.919729 0.289288 0.268741
0.922374 0.292675 0.271397
0.922414 0.292734 0.271440
0.922447 0.292783 0.271476
0.922474 0.292824 0.271505
0.922496 0.292857 0.271528
0.923231 0.295073 0.271562
0.923246 0.295098 0.271576
0.923257 0.295119 0.271586
0.924202 0.297379 0.273035
0.038330 0.099764 0.042347
0.039605 0.099361 0.043451
0.042384 0.100404 0.045799
0.046481 0.100732 0.046995
0.057700 0.099387 0.045334
0.072752 0.100364 0.042804
0.085189 0.101087 0.041150
0.096695 0.102836 0.044952
0.120922 0.106296 0.051651
0.163124 0.100024 0.048663
0.176444 0.098523 0.044191
0.190809 0.098351 0.045593
0.210479 0.102640 0.050897
0.233421 0.109644 0.055780
0.248335 0.116269 0.058801
0.272830 0.128207 0.064947
0.289379 0.128198 0.070387
0.334831 0.111745 0.087472
0.360973 0.108309 0.095867
0.377481 0.107461 0.095353
0.408129 0.109856 0.094442
0.436727 0.107904 0.084692
0.455178 0.106508 0.079563
0.466600 0.112052 0.081275
0.482662 0.118076 0.082961
0.500276 0.125064 0.085865
0.512311 0.127121 0.087928
0.530664 0.132234 0.092861
0.546255 0.134696 0.098971
0.574556 0.147283 0.115642
0.591353 0.149804 0.124222
0.632432 0.165092 0.145969
0.664838 0.182724 0.160542
0.686298 0.191962 0.168475
0.709934 0.202738 0.175772
0.722788 0.207774 0.180333
0.736676 0.212547 0.183907
0.769379 0.219865 0.192469
0.790356 0.224997 0.196776
0.802095 0.226994 0.200596
0.815403 0.230499 0.204738
0.824565 0.234660 0.207699
0.846323 0.240849 0.215767
0.858498 0.247168 0.220172
0.859201 0.247457 0.220597
0.882651 0.259488 0.238642
0.887222 0.262016 0.241927
0.898451 0.269012 0.250282
0.905240 0.273941 0.254915
0.907515 0.276290 0.256239
0.910287 0.277652 0.259958
0.916628 0.286151 0.265844
0.919593 0.289129 0.268575
0.919671 0.289230 0.268666
0.919735 0.289314 0.268740
0.922383 0.292703 0.271398
0.922422 0.292760 0.271443
0.922455 0.292807 0.271479
0.922482 0.292846 0.271508
0.923222 0.295069 0.271547
0.923239 0.295096 0.271564
0.923252 0.295120 0.271577
0.924197 0.297379 0.273028
0.925636 0.300804 0.273991
0.036281 0.109917 0.037519
0.035086 0.107594 0.036093
0.033917 0.106116 0.035431
0.034480 0.106471 0.035889
0.040096 0.110278 0.040132
0.057032 0.113427 0.045084
0.084114 0.113536 0.041018
0.094707 0.112503 0.038127
0.109668 0.115435 0.040806
0.137964 0.123156 0.046703
0.182949 0.113476 0.044543
0.196234 0.111383 0.042997
0.208081 0.113438 0.044899
0.231363 0.116026 0.052122
0.254096 0.121157 0.057450
0.277520 0.131091 0.064666
0.296167 0.139625 0.069390
0.314075 0.147057 0.074905
0.342447 0.151404 0.082420
0.375324 0.135962 0.093039
0.414212 0.121757 0.094232
0.459800 0.133784 0.086617
0.470545 0.135066 0.084597
0.483653 0.134492 0.082478
0.494251 0.136576 0.085728
0.501807 0.135511 0.085607
0.512689 0.138869 0.086704
0.526074 0.139821 0.089348
0.541450 0.143983 0.094918
0.565251 0.149474 0.106489
0.587617 0.157616 0.121468
0.623710 0.172561 0.141701
0.662196 0.186592 0.160369
0.688153 0.198334 0.168887
0.709929 0.204787 0.175282
0.721711 0.210147 0.179399
0.730693 0.211036 0.181571
0.771364 0.222950 0.193417
0.791424 0.225964 0.196620
0.798243 0.228217 0.198453
0.814240 0.231196 0.204382
0.822105 0.234734 0.204653
0.845208 0.243893 0.213255
0.856666 0.246711 0.218594
0.860981 0.249420 0.220004
0.878802 0.259127 0.233873
0.890729 0.266138 0.243065
0.895874 0.269876 0.246972
0.902872 0.273813 0.251586
0.907526 0.276348 0.256231
0.910764 0.280502 0.259720
0.916407 0.287132 0.264422
0.919598 0.289163 0.268567
0.919677 0.289263 0.268661
0.921399 0.292700 0.269940
0.922393 0.292737 0.271400
0.922432 0.292792 0.271445
0.922465 0.292836 0.271482
0.923210 0.295068 0.271526
0.923230 0.295098 0.271548
0.924184 0.297370 0.273009
0.924193 0.297384 0.273018
0.925394 0.300560 0.273515
0.926833 0.304654 0.274483
0.040372 0.120482 0.037586
0.040086 0.120321 0.037322
0.040893 0.121328 0.037521
0.040233 0.120697 0.036898
0.041865 0.121302 0.037329
0.047752 0.124892 0.039499
0.065253 0.129568 0.041498
0.093160 0.127603 0.040614
0.105742 0.125486 0.038722
0.124551 0.129255 0.041843
0.156119 0.134035 0.047089
0.198061 0.123386 0.045098
0.214076 0.122852 0.045413
0.231655 0.129056 0.048714
0.249085 0.131493 0.051707
0.273713 0.135715 0.058436
0.302795 0.143109 0.070016
0.327019 0.154922 0.077408
0.346802 0.163537 0.079548
0.371855 0.177126 0.086287
0.403557 0.172921 0.086850
0.487426 0.164584 0.088431
0.490485 0.160790 0.085817
0.489602 0.156602 0.085375
0.494917 0.151757 0.085819
0.502783 0.151181 0.086530
0.513602 0.147424 0.087456
0.528572 0.151222 0.090289
0.546969 0.159266 0.095790
0.564935 0.165951 0.100999
0.591198 0.171798 0.120271
0.610110 0.176232 0.131011
0.664954 0.192409 0.161520
0.684050 0.201667 0.167403
0.706922 0.209907 0.174263
0.722306 0.212749 0.178929
0.733713 0.218000 0.182540
0.767166 0.224221 0.190024
0.784513 0.224864 0.194125
0.796069 0.228364 0.197665
0.816427 0.234650 0.202256
0.823781 0.237118 0.203908
0.840771 0.245768 0.210522
0.854102 0.248887 0.215053
0.861779 0.250726 0.219341
0.870367 0.255185 0.225644
0.891393 0.268923 0.240627
0.894678 0.270707 0.243636
0.901226 0.274171 0.249911
0.908732 0.279982 0.256949
0.911251 0.283758 0.258271
0.916403 0.287177 0.264400
0.919603 0.289205 0.268558
0.921355 0.292681 0.269868
0.921408 0.292750 0.269932
0.921451 0.292806 0.269985
0.922444 0.292829 0.271448
0.923197 0.295072 0.271499
0.923221 0.295106 0.271527
0.924177 0.297378 0.272992
0.924188 0.297393 0.273004
0.925392 0.300573 0.273505
0.926829 0.304660 0.274473
0.926837 0.304679 0.274477
0.042259 0.140557 0.041250
0.042227 0.140425 0.040984
0.042188 0.140242 0.040631
0.044253 0.138256 0.039047
0.045205 0.139873 0.038790
0.050129 0.143738 0.040401
0.061026 0.143614 0.042356
0.081756 0.145747 0.043974
0.105784 0.146069 0.042272
0.116801 0.143791 0.041354
0.142284 0.149780 0.046830
0.175208 0.153291 0.051955
0.220884 0.145069 0.053560
0.238358 0.137086 0.052209
0.247605 0.140369 0.053671
0.266833 0.143826 0.057233
0.293346 0.146388 0.064452
0.339907 0.161380 0.078297
0.363004 0.173010 0.083630
0.377658 0.180669 0.087643
0.392124 0.185818 0.087480
0.452923 0.178791 0.083932
0.490422 0.172610 0.086075
0.489187 0.169673 0.084201
0.491988 0.165630 0.084512
0.496922 0.162379 0.085333
0.508791 0.160857 0.086324
0.527044 0.162343 0.090623
0.549302 0.172279 0.094932
0.565837 0.176849 0.101091
0.577578 0.180912 0.106087
0.596359 0.184386 0.118293
0.640196 0.191778 0.143619
0.686897 0.204627 0.167815
0.707306 0.210761 0.174433
0.722468 0.217163 0.179126
0.737264 0.223537 0.183735
0.760691 0.227468 0.188640
0.779790 0.227771 0.192584
0.796939 0.231192 0.198401
0.817052 0.236542 0.201476
0.827565 0.239820 0.204071
0.840665 0.248216 0.208401
0.850573 0.251567 0.212364
0.857616 0.251028 0.216075
0.873542 0.261621 0.224728
0.887214 0.269823 0.236190
0.892724 0.271317 0.240727
0.900292 0.275259 0.248242
0.908992 0.284034 0.255494
0.913652 0.287936 0.259700
0.914714 0.287265 0.261733
0.919141 0.291970 0.266668
0.921364 0.292746 0.269855
0.921418 0.292809 0.269923
0.921461 0.292860 0.269978
0.923178 0.295778 0.271464
0.924149 0.297374 0.272946
0.924167 0.297393 0.272968
0.924182 0.297408 0.272985
0.925389 0.300594 0.273489
0.926827 0.304680 0.274458
0.926834 0.304694 0.274465
0.926841 0.304710 0.274470
0.044192 0.166852 0.044452
0.045855 0.164028 0.041593
0.045620 0.163391 0.041238
0.046969 0.160997 0.038882
0.046974 0.159871 0.039380
0.047854 0.157491 0.039173
0.052795 0.157349 0.039328
0.064725 0.159460 0.040386
0.092621 0.162286 0.041635
0.117829 0.163025 0.041680
0.134323 0.165739 0.044975
0.158876 0.169230 0.049735
0.190776 0.177322 0.057726
0.229405 0.161958 0.059133
0.252274 0.152298 0.059321
0.265847 0.154285 0.061858
0.288528 0.160254 0.067379
0.330970 0.165850 0.075626
0.372594 0.179559 0.085744
0.386551 0.186354 0.088612
0.396412 0.192140 0.089434
0.421066 0.191550 0.087134
0.471898 0.186859 0.085071
0.491044 0.180717 0.084768
0.492045 0.177235 0.084517
0.496981 0.177841 0.085675
0.506719 0.176951 0.086804
0.530540 0.175667 0.091351
0.553831 0.182343 0.097208
0.570475 0.189295 0.102766
0.574666 0.187988 0.102974
0.591892 0.196094 0.110866
0.612096 0.197141 0.122235
0.663742 0.207921 0.152808
0.705725 0.216112 0.174987
0.725068 0.225669 0.181697
0.734335 0.227441 0.183898
0.749593 0.228527 0.186266
0.773132 0.228112 0.190153
0.800454 0.235290 0.197672
0.816984 0.240178 0.200514
0.831420 0.243959 0.203791
0.844527 0.251934 0.208343
0.850253 0.255335 0.209973
0.861066 0.262068 0.214276
0.872243 0.265257 0.222001
0.886875 0.274654 0.235123
0.893543 0.276885 0.240573
0.896445 0.276774 0.243928
0.908556 0.286095 0.253852
0.913189 0.289995 0.258022
0.914724 0.289579 0.260752
0.914818 0.289670 0.260863
0.919205 0.292117 0.266718
0.921187 0.294542 0.269201
0.923154 0.295799 0.271411
0.924131 0.297397 0.272904
0.925349 0.301273 0.273426
0.925366 0.301289 0.273448
0.926813 0.304696 0.274425
0.926824 0.304711 0.274438
0.926832 0.304723 0.274447
0.926839 0.304734 0.274455
0.926846 0.304745 0.274462
0.049870 0.177075 0.035919
0.049265 0.175636 0.036812
0.049026 0.175403 0.036555
0.048720 0.175107 0.036219
0.048356 0.172840 0.035006
0.048691 0.171329 0.034614
0.049103 0.171107 0.034775
0.066527 0.173527 0.034176
0.094283 0.177030 0.033843
0.118639 0.184048 0.034041
0.132203 0.186842 0.030916
0.143843 0.186458 0.032849
0.169634 0.190619 0.042273
0.199819 0.195458 0.053755
0.241262 0.198401 0.065776
0.267408 0.181224 0.067705
0.286703 0.174263 0.069915
0.314892 0.174747 0.075475
0.376348 0.185698 0.086130
0.393056 0.192753 0.089525
0.405860 0.199155 0.091203
0.412114 0.200166 0.090763
0.452947 0.198023 0.086931
0.496765 0.195915 0.086644
0.497042 0.192230 0.086301
0.497564 0.188968 0.085893
0.503039 0.184215 0.086603
0.508796 0.184225 0.087341
0.543547 0.188871 0.095392
0.563648 0.190936 0.099494
0.580859 0.197813 0.105403
0.588642 0.198941 0.108515
0.594670 0.201229 0.111955
0.628555 0.207621 0.130490
0.689259 0.221450 0.165590
0.723225 0.230188 0.182012
0.733975 0.234272 0.186499
0.746292 0.234100 0.187794
0.765032 0.236028 0.191206
0.799728 0.242184 0.200243
0.817769 0.245590 0.200144
0.832544 0.250537 0.203639
0.849172 0.262590 0.207669
0.854212 0.262227 0.209492
0.862073 0.268664 0.212804
0.869092 0.270626 0.218287
0.886037 0.279258 0.231894
0.891080 0.279768 0.237376
0.897800 0.286506 0.241914
0.906645 0.292888 0.250005
0.910596 0.290183 0.254683
0.913782 0.290954 0.258583
0.915071 0.292434 0.260138
0.918499 0.295853 0.264546
0.924298 0.302214 0.271595
0.924340 0.302235 0.271653
0.925327 0.303172 0.272663
0.927026 0.305637 0.274368
0.927043 0.305649 0.274392
0.926820 0.304758 0.274408
0.926830 0.304766 0.274423
0.926839 0.304773 0.274434
0.926845 0.304779 0.274444
0.926851 0.304785 0.274452
0.054715 0.190930 0.033464
0.054645 0.190706 0.033285
0.056711 0.193308 0.032971
0.056504 0.192723 0.032675
0.056567 0.190099 0.033277
0.056151 0.188354 0.032181
0.058103 0.182152 0.028353
0.060638 0.180598 0.027323
0.082073 0.185764 0.028007
0.116906 0.185890 0.025407
0.137205 0.190965 0.026209
0.145605 0.192380 0.024357
0.149304 0.195695 0.025668
0.170523 0.201236 0.032469
0.195681 0.206925 0.045193
0.239429 0.219424 0.065116
0.272441 0.213814 0.073539
0.323089 0.210259 0.083020
0.377360 0.210331 0.090042
0.404571 0.209421 0.093236
0.413231 0.207804 0.093761
0.417897 0.209677 0.094176
0.433911 0.212217 0.092800
0.481398 0.203139 0.087753
0.498236 0.200499 0.087894
0.498730 0.197946 0.087151
0.501338 0.197338 0.087617
0.508204 0.196537 0.088783
0.526162 0.190452 0.090796
0.554359 0.198083 0.098288
0.575282 0.199253 0.103616
0.584682 0.200511 0.106837
0.590218 0.201380 0.109113
0.603721 0.203829 0.116147
0.646991 0.215218 0.139730
0.721484 0.234438 0.183293
0.729947 0.234408 0.186002
0.742222 0.235257 0.187443
0.754244 0.239592 0.191225
0.787158 0.244181 0.196434
0.821380 0.256929 0.201084
0.839887 0.263711 0.202037
0.853976 0.273677 0.206626
0.861437 0.275893 0.209468
0.864841 0.275223 0.212555
0.870305 0.279443 0.215157
0.881021 0.287808 0.223992
0.891888 0.291949 0.233873
0.897467 0.293836 0.239651
0.903500 0.296795 0.245907
0.911080 0.299011 0.252735
0.911192 0.299089 0.252852
0.915572 0.298661 0.258677
0.920394 0.304876 0.264290
0.924750 0.305098 0.270823
0.924797 0.305106 0.270897
0.926033 0.306601 0.272615
0.926063 0.306612 0.272659
0.926801 0.306640 0.273654
0.926818 0.306642 0.273681
0.927068 0.305718 0.274404
0.928738 0.309069 0.275376
0.928746 0.309073 0.275387
0.928753 0.309078 0.275398
0.058323 0.218694 0.033074
0.061953 0.214937 0.030765
0.061881 0.214076 0.030638
0.061800 0.212975 0.030482
0.062096 0.205387 0.030127
0.062044 0.203957 0.029943
0.063426 0.201579 0.029461
0.066083 0.196257 0.027837
0.070703 0.196089 0.028014
0.097035 0.198367 0.028197
0.135433 0.197893 0.025130
0.148210 0.198086 0.023147
0.153610 0.196986 0.018608
0.160023 0.204218 0.020280
0.171373 0.209877 0.021759
0.198424 0.215474 0.038031
0.225557 0.220758 0.054178
0.278345 0.237276 0.075315
0.353769 0.234547 0.093518
0.405677 0.228390 0.096999
0.418451 0.224687 0.097058
0.425829 0.221706 0.096503
0.430254 0.222388 0.097531
0.450523 0.218583 0.093988
0.506256 0.214277 0.091453
0.506209 0.213473 0.091164
0.504823 0.207152 0.089837
0.509696 0.206150 0.089879
0.510403 0.202432 0.089773
0.533972 0.202156 0.094276
0.567643 0.202222 0.101070
0.574261 0.203001 0.103368
0.585571 0.202082 0.107145
0.600369 0.211370 0.115166
0.643718 0.230685 0.137978
0.686927 0.241157 0.163728
0.728802 0.245916 0.187618
0.736943 0.239232 0.188189
0.757580 0.244084 0.191005
0.805451 0.260723 0.197310
0.830779 0.275119 0.201027
0.858321 0.286854 0.205567
0.858798 0.284590 0.206729
0.860419 0.283457 0.208634
0.870126 0.292711 0.212063
0.875118 0.293466 0.216803
0.878373 0.295833 0.219355
0.884298 0.296128 0.225965
0.893837 0.295576 0.235247
0.904852 0.305812 0.244790
0.911735 0.311143 0.250983
0.914272 0.311442 0.253777
0.915797 0.310813 0.255800
0.919908 0.311818 0.261336
0.922830 0.314202 0.264528
