backend/3dlut-creator/demo/fuji_cc.cube
TITLE "3D LUT from Image Pairs"
LUT_3D_SIZE 8
0.007843 0.007843 0.007843
0.107815 0.032011 0.032645
0.287533 0.063621 0.063961
0.501515 0.114657 0.111220
0.705214 0.236659 0.217232
0.818250 0.306431 0.273664
0.851073 0.339580 0.303690
0.854631 0.345442 0.307060
0.044861 0.104176 0.043777
0.099250 0.110461 0.049742
0.332631 0.164954 0.106088
0.493092 0.171212 0.120921
0.692688 0.251177 0.213346
0.809352 0.305577 0.260682
0.852801 0.343129 0.304937
0.858936 0.354583 0.312110
0.070761 0.288362 0.096470
0.109742 0.238553 0.061106
0.228572 0.243443 0.076386
0.521245 0.329090 0.190510
0.686235 0.346774 0.243287
0.823610 0.368611 0.268831
0.858773 0.403718 0.306473
0.866280 0.391342 0.317675
0.090293 0.433238 0.139789
0.167469 0.425184 0.113564
0.235294 0.372549 0.086274
0.468358 0.450682 0.151469
0.663439 0.523347 0.228035
0.862526 0.550899 0.348406
0.901935 0.531648 0.342823
0.919551 0.552434 0.363182
0.202398 0.524162 0.109586
0.202391 0.523954 0.109259
0.214705 0.521502 0.091497
0.342993 0.534993 0.104654
0.570202 0.576656 0.194437
0.740757 0.610319 0.271412
0.923101 0.690664 0.393589
0.942634 0.679236 0.406630
0.319512 0.629102 0.107450
0.322833 0.632561 0.114637
0.337468 0.646351 0.119645
0.352319 0.663777 0.119089
0.473847 0.681111 0.100264
0.653936 0.728294 0.244111
0.909311 0.757595 0.411965
0.924084 0.751797 0.413732
0.371829 0.681173 0.113808
0.387055 0.694650 0.111134
0.408230 0.711180 0.108305
0.439451 0.732322 0.117460
0.493919 0.771459 0.082903
0.570918 0.811767 0.027296
0.705785 0.834633 0.203866
0.898239 0.777478 0.404701
0.486674 0.773562 0.101459
0.486461 0.774122 0.094553
0.496650 0.782775 0.086391
0.512066 0.793958 0.084056
0.547296 0.820460 0.049577
0.557984 0.827890 0.028871
0.600318 0.844043 0.022839
0.691820 0.853090 0.134942
0.007560 0.022642 0.096097
0.149050 0.058119 0.126281
0.282353 0.070588 0.121569
0.472042 0.108323 0.161453
0.632500 0.169441 0.194172
0.762332 0.251800 0.269741
0.846467 0.330750 0.306070
0.858162 0.344962 0.317300
0.027997 0.119240 0.116623
0.121569 0.125490 0.121569
0.282353 0.137255 0.137255
0.466667 0.164706 0.160784
0.635294 0.203922 0.203922
0.775111 0.272984 0.259311
0.847987 0.333573 0.301865
0.858338 0.349058 0.314393
0.074984 0.272753 0.138043
0.107425 0.236679 0.125487
0.254902 0.250980 0.133333
0.466667 0.278431 0.164706
0.663336 0.332320 0.231469
0.794918 0.336721 0.262347
0.856078 0.365321 0.306540
0.861651 0.362429 0.314373
0.000086 0.402597 0.150744
0.000618 0.392581 0.146868
0.200000 0.392157 0.137255
0.416476 0.412536 0.164648
0.625917 0.454426 0.240726
0.825543 0.517118 0.340752
0.887519 0.509693 0.331498
0.918624 0.549014 0.363065
0.195081 0.528484 0.127966
0.194739 0.527731 0.128614
0.195922 0.525757 0.130333
0.368627 0.537255 0.168627
0.538237 0.550361 0.193641
0.725165 0.591440 0.259464
0.913520 0.675738 0.389432
0.941722 0.647903 0.405509
0.301168 0.609684 0.110607
0.301223 0.609736 0.110632
0.309201 0.618692 0.117447
0.346371 0.651299 0.146536
0.478431 0.674510 0.184314
0.642628 0.703719 0.251047
0.905821 0.757947 0.412898
0.930462 0.746261 0.416609
0.362648 0.673335 0.127802
0.367086 0.677002 0.125978
0.380440 0.686568 0.130318
0.421925 0.719255 0.116351
0.479431 0.760139 0.134250
0.567486 0.802679 0.071424
0.721069 0.834521 0.247797
0.917121 0.771315 0.427530
0.477574 0.765242 0.103836
0.477675 0.765327 0.103810
0.486837 0.773703 0.101488
0.511831 0.793772 0.084382
0.536742 0.814085 0.062887
0.559475 0.829579 0.030207
0.599336 0.846420 0.023649
0.706830 0.857087 0.152760
0.032333 0.104876 0.274449
0.223053 0.117746 0.278392
0.321780 0.127106 0.303558
0.492836 0.154281 0.292895
0.651322 0.202056 0.324832
0.753645 0.272957 0.391018
0.902731 0.375541 0.433076
0.916256 0.392424 0.450586
0.025576 0.119470 0.224653
0.117647 0.125490 0.231373
0.298039 0.156863 0.266667
0.474510 0.184314 0.286275
0.612686 0.208636 0.294057
0.764938 0.280536 0.326410
0.895956 0.367724 0.422749
0.916306 0.392488 0.450480
0.000023 0.259319 0.245918
0.074510 0.270588 0.266667
0.282353 0.286275 0.286275
0.462745 0.298039 0.294118
0.631373 0.317647 0.317647
0.764706 0.345098 0.341176
0.846845 0.358446 0.363647
0.886202 0.370712 0.369403
0.057330 0.409096 0.262146
0.068657 0.406617 0.265266
0.215373 0.407023 0.270329
0.423529 0.423530 0.294118
0.606963 0.438314 0.309752
0.756863 0.450980 0.341176
0.874510 0.478432 0.380392
0.871397 0.419815 0.326035
0.019493 0.437973 0.171992
0.024806 0.440310 0.174761
0.143148 0.470905 0.207515
0.371040 0.544162 0.287410
0.575891 0.565473 0.314947
0.735686 0.605311 0.362600
0.861816 0.628381 0.399193
0.949959 0.613466 0.432161
0.234381 0.559242 0.146587
0.247839 0.566712 0.152545
0.280847 0.589568 0.172521
0.359607 0.636015 0.238113
0.494118 0.678431 0.282353
0.677080 0.693970 0.349141
0.858848 0.735788 0.426525
0.944968 0.734493 0.425964
0.363371 0.671539 0.148678
0.365863 0.672282 0.151266
0.372198 0.677869 0.154301
0.380598 0.683506 0.164001
0.500410 0.746623 0.267255
0.615686 0.815686 0.364706
0.772043 0.843060 0.394483
0.919991 0.792647 0.452297
0.441000 0.736243 0.113434
0.441095 0.736323 0.113435
0.479297 0.763767 0.133311
0.490544 0.771498 0.131585
0.525751 0.802637 0.104423
0.566991 0.836782 0.038735
0.616548 0.856601 0.049425
0.734210 0.870732 0.201407
0.001906 0.175654 0.439851
0.132491 0.179844 0.440054
0.473522 0.234790 0.491429
0.527801 0.217008 0.470562
0.707431 0.295715 0.506448
0.789031 0.307977 0.491839
0.825940 0.320698 0.502698
0.945009 0.439187 0.511044
0.015686 0.156863 0.368628
0.012716 0.155763 0.379653
0.325750 0.198648 0.414340
0.466109 0.219319 0.443127
0.672310 0.269622 0.462346
0.767306 0.292078 0.467069
0.817504 0.313048 0.490809
0.945325 0.439602 0.511515
0.000000 0.262745 0.392157
0.121568 0.282353 0.403922
0.294118 0.301961 0.423529
0.470588 0.313726 0.439216
0.636397 0.335939 0.450573
0.770182 0.391491 0.489763
0.893323 0.460739 0.541951
0.955427 0.453061 0.525205
0.000280 0.435341 0.446527
0.016133 0.424752 0.430908
0.231373 0.431373 0.431373
0.447059 0.450980 0.447059
0.619608 0.458824 0.458824
0.760784 0.474510 0.478431
0.874510 0.501961 0.501961
0.953563 0.491423 0.540250
0.277131 0.588226 0.473582
0.277914 0.584076 0.467486
0.285925 0.572104 0.453169
0.388235 0.560784 0.435294
0.580392 0.576471 0.454902
0.733333 0.596079 0.474510
0.858824 0.619608 0.505882
0.941060 0.614541 0.514378
0.361692 0.681238 0.455163
0.360777 0.679000 0.453353
0.360734 0.679186 0.453418
0.369271 0.687495 0.459366
0.519246 0.690954 0.453471
0.694118 0.705882 0.470588
0.846100 0.718070 0.490530
0.976471 0.752941 0.568627
0.391336 0.678243 0.328083
0.411428 0.695173 0.359200
0.415881 0.689515 0.324775
0.463726 0.713803 0.355089
0.532806 0.751736 0.404643
0.632745 0.811699 0.471737
0.811765 0.827451 0.505882
0.927616 0.822021 0.520921
0.380588 0.683489 0.163998
0.385060 0.685951 0.164120
0.398016 0.695150 0.166349
0.488925 0.751574 0.227588
0.539353 0.784562 0.265620
0.645460 0.860238 0.314161
0.689998 0.899889 0.265506
0.817207 0.918903 0.358759
0.002198 0.239388 0.534769
0.435857 0.269386 0.556831
0.574144 0.303747 0.593934
0.623485 0.317587 0.616720
0.664365 0.325012 0.625409
0.821739 0.417363 0.664615
0.900728 0.429799 0.645027
0.884583 0.399304 0.609681
0.001288 0.227970 0.519894
0.001291 0.227394 0.519091
0.507275 0.277387 0.550847
0.554468 0.293018 0.578259
0.642952 0.305985 0.596962
0.798673 0.391695 0.636944
0.891839 0.412662 0.626343
0.877771 0.389040 0.595877
0.126928 0.291700 0.517907
0.211765 0.309804 0.525490
0.344027 0.328303 0.547364
0.486274 0.341176 0.564706
0.633947 0.369023 0.589815
0.754550 0.368618 0.581893
0.871997 0.437240 0.617368
0.866955 0.377249 0.575887
0.026866 0.433569 0.553464
0.060244 0.428515 0.550451
0.262745 0.443137 0.560784
0.454902 0.462745 0.572549
0.623530 0.478431 0.588235
0.762828 0.503313 0.601869
0.862552 0.526788 0.609803
0.959340 0.557904 0.637558
0.107866 0.566751 0.562623
0.107135 0.566284 0.562160
0.161386 0.570119 0.566672
0.400000 0.584314 0.584314
0.596079 0.596078 0.596078
0.745098 0.611765 0.607843
0.872966 0.625647 0.630108
0.953945 0.630118 0.634911
0.352627 0.667405 0.524803
0.352628 0.667422 0.524808
0.356959 0.669101 0.530332
0.383661 0.683518 0.550102
0.545098 0.701961 0.592157
0.717647 0.721569 0.611765
0.857599 0.739351 0.631082
0.982058 0.744098 0.641109
0.404384 0.723147 0.486874
0.404454 0.723208 0.486922
0.404755 0.723462 0.487122
0.429196 0.740858 0.502590
0.482715 0.769583 0.533093
0.654902 0.823530 0.600000
0.818384 0.837317 0.633978
0.940022 0.837013 0.637552
0.434892 0.743960 0.504162
0.437643 0.745190 0.505140
0.467053 0.759612 0.515961
0.484664 0.763687 0.508989
0.605495 0.810702 0.472876
0.673251 0.852010 0.505425
0.779182 0.927471 0.572259
0.883868 0.965886 0.532919
0.622351 0.346584 0.649804
0.651266 0.349805 0.653209
0.670021 0.359292 0.664394
0.694540 0.373923 0.679980
0.742366 0.411053 0.715000
0.819938 0.474698 0.764129
0.874808 0.523874 0.787580
0.930831 0.505096 0.717528
0.001226 0.278243 0.583476
0.112576 0.286316 0.592044
0.630705 0.339671 0.640390
0.667067 0.362078 0.665948
0.713253 0.388438 0.694321
0.814179 0.467465 0.758628
0.888721 0.520319 0.766488
0.932315 0.505966 0.717349
0.000720 0.305941 0.617805
0.000850 0.302069 0.612533
0.001174 0.295580 0.602907
0.584222 0.391799 0.659582
0.663353 0.387472 0.674792
0.768197 0.453331 0.728711
0.889083 0.503370 0.741918
0.932668 0.507732 0.719062
0.076489 0.458271 0.669241
0.160227 0.455031 0.664501
0.341176 0.490196 0.690196
0.488612 0.497471 0.695187
0.639216 0.513726 0.705882
0.772549 0.541177 0.729412
0.905118 0.598542 0.755987
0.931947 0.576026 0.742317
0.096816 0.588291 0.711456
0.115774 0.586412 0.706668
0.243137 0.584314 0.694118
0.435294 0.600000 0.705882
0.611765 0.619608 0.717647
0.756900 0.635293 0.728408
0.874190 0.657143 0.740866
0.944905 0.652645 0.721636
0.239355 0.666155 0.665682
0.242825 0.667810 0.667333
0.257121 0.675580 0.676453
0.349918 0.703056 0.715914
0.568628 0.717647 0.721569
0.733333 0.733333 0.729412
0.865429 0.751726 0.749830
0.996078 0.764706 0.772549
0.446702 0.744244 0.605603
0.446782 0.744322 0.605674
0.450627 0.747178 0.609653
0.468272 0.760832 0.620630
0.516065 0.775885 0.648154
0.670588 0.835294 0.725490
0.847059 0.847059 0.756863
0.965134 0.856463 0.762158
0.437787 0.746108 0.508305
0.437857 0.746153 0.508347
0.456422 0.756588 0.523062
0.470375 0.764575 0.530877
0.531708 0.794686 0.572819
0.625194 0.834112 0.626698
0.805808 0.931708 0.716388
0.964706 0.992157 0.796078
0.719539 0.401414 0.705564
0.723749 0.401991 0.706585
0.729954 0.406470 0.710578
0.746499 0.421490 0.724324
0.791196 0.457524 0.751960
0.845533 0.506714 0.788118
0.859833 0.522595 0.798563
0.876477 0.537045 0.803350
0.507428 0.358732 0.663836
0.667890 0.386073 0.690112
0.703296 0.394183 0.697868
0.741192 0.420598 0.723295
0.773110 0.444133 0.742511
0.843077 0.504648 0.786812
0.860308 0.523039 0.798901
0.877177 0.537763 0.803587
0.001219 0.291801 0.598741
0.001220 0.291728 0.598648
0.109944 0.298139 0.604682
0.695386 0.396452 0.697690
0.750654 0.445152 0.741125
0.808774 0.485435 0.773321
0.869696 0.535496 0.807742
0.921678 0.572789 0.799047
0.096088 0.322020 0.616655
0.097106 0.321602 0.617486
0.241648 0.363412 0.645386
0.599912 0.508966 0.740926
0.676586 0.524851 0.761759
0.798649 0.561239 0.797493
0.899133 0.630714 0.852632
0.955316 0.617848 0.812956
0.024691 0.584751 0.777260
0.081039 0.580131 0.771617
0.313649 0.603419 0.790057
0.442463 0.653398 0.838162
0.629446 0.640161 0.808966
0.784859 0.670895 0.841064
0.902501 0.703665 0.851343
0.976413 0.710753 0.847903
0.012956 0.717316 0.856824
0.038529 0.719738 0.856001
0.188539 0.719240 0.841270
0.380392 0.721569 0.827451
0.584314 0.737255 0.835294
0.752941 0.760784 0.847059
0.886979 0.786349 0.869752
0.989604 0.802316 0.885686
0.318130 0.701214 0.703179
0.330543 0.706774 0.707108
0.358910 0.717558 0.713949
0.432621 0.742659 0.729027
0.513120 0.767683 0.760988
0.710783 0.845453 0.839496
0.866667 0.866667 0.866667
1.000000 0.882353 0.882353
0.482027 0.774902 0.625755
0.482101 0.774952 0.625797
0.490401 0.780818 0.629968
0.505089 0.788927 0.638259
0.572069 0.823655 0.673325
0.650248 0.855316 0.715673
0.836755 0.943508 0.829201
0.972173 0.988909 0.878446
0.759522 0.435225 0.735490
0.773030 0.445553 0.742979
0.780026 0.449584 0.746236
0.803380 0.470161 0.761875
0.837338 0.501349 0.784439
0.849831 0.512430 0.792140
0.860531 0.524965 0.800296
0.865680 0.531167 0.804501
0.752906 0.433263 0.733510
0.756577 0.435725 0.735954
0.756657 0.435788 0.736006
0.781513 0.453517 0.749434
0.826807 0.492799 0.778359
0.849898 0.512547 0.792228
0.860737 0.525230 0.800492
0.865951 0.531536 0.804766
0.369103 0.339714 0.646272
0.418815 0.355772 0.661523
0.690285 0.431151 0.729650
0.768755 0.456480 0.751103
0.791124 0.475594 0.766144
0.850321 0.517715 0.796344
0.869223 0.537147 0.808566
0.880233 0.555258 0.821021
0.002924 0.298494 0.604306
0.002918 0.298461 0.604279
0.160537 0.318563 0.621176
0.497798 0.426066 0.700455
0.819276 0.542939 0.810534
0.848361 0.573448 0.832522
0.886541 0.590126 0.845473
0.898660 0.590068 0.844096
0.282863 0.675347 0.883973
0.283389 0.675353 0.883938
0.298813 0.676711 0.884719
0.406688 0.659411 0.862537
0.667806 0.591355 0.795999
0.785283 0.623265 0.829319
0.929380 0.702326 0.902862
0.942452 0.698408 0.899469
0.026205 0.671282 0.841540
0.061788 0.671892 0.842492
0.288328 0.703010 0.892052
0.355166 0.721628 0.910620
0.526927 0.738147 0.912264
0.742129 0.752333 0.898502
0.902867 0.778164 0.923120
0.986475 0.808866 0.954735
0.011693 0.770718 0.904509
0.037782 0.777887 0.910285
0.072810 0.787674 0.918157
0.162447 0.807692 0.932609
0.329285 0.832743 0.953662
0.653237 0.852785 0.960929
0.871689 0.886837 0.977681
0.992463 0.885911 0.964251
0.392370 0.773390 0.793360
0.396159 0.775063 0.796378
0.409485 0.805688 0.843229
0.431093 0.821323 0.863564
0.483192 0.879346 0.959445
0.628238 0.919133 0.983956
0.794603 0.948352 0.983572
0.992157 0.992157 0.992157
