backend/3dlut-creator/demo/fuji_cc.cube
TITLE "3D LUT from Image Pairs"
LUT_3D_SIZE 64
0.007843 0.007843 0.007843
0.007843 0.003922 0.003922
0.007843 0.003922 0.003922
0.023529 0.011765 0.007843
0.043137 0.019608 0.015686
0.054902 0.023529 0.019608
0.062745 0.027451 0.023529
0.078431 0.027451 0.027451
0.093414 0.032493 0.032142
0.107815 0.032011 0.032645
0.117516 0.029807 0.030263
0.136077 0.034449 0.034899
0.160883 0.036221 0.035958
0.181237 0.037584 0.036827
0.192157 0.027451 0.027451
0.217838 0.041556 0.040928
0.240290 0.050629 0.049702
0.260747 0.056306 0.056045
0.287533 0.063621 0.063961
0.313784 0.069315 0.068534
0.338939 0.074761 0.074033
0.374597 0.081425 0.079107
0.397475 0.086234 0.083042
0.418243 0.088241 0.086950
0.440175 0.094648 0.092391
0.462458 0.101584 0.099338
0.485473 0.109607 0.106020
0.501515 0.114657 0.111220
0.516390 0.121997 0.117907
0.538590 0.135378 0.128224
0.563950 0.150111 0.140823
0.594234 0.172262 0.158718
0.622366 0.191030 0.176407
0.642837 0.203026 0.187067
0.669019 0.218739 0.200351
0.690676 0.230489 0.211790
0.705214 0.236659 0.217232
0.729749 0.248202 0.225840
0.744497 0.258834 0.231375
0.751588 0.261957 0.232385
0.759910 0.266500 0.235688
0.777827 0.275048 0.245097
0.781720 0.278119 0.247179
0.799187 0.290898 0.258321
0.805804 0.296169 0.263851
0.818250 0.306431 0.273664
0.827352 0.313879 0.281311
0.832688 0.317823 0.285684
0.835433 0.319650 0.288887
0.839824 0.323843 0.292572
0.842099 0.326655 0.294385
0.844150 0.329000 0.296196
0.848555 0.335794 0.300670
0.848632 0.335898 0.300760
0.851073 0.339580 0.303690
0.851123 0.339656 0.303749
0.853532 0.343270 0.306167
0.853565 0.343325 0.306207
0.853593 0.343371 0.306241
0.853616 0.343410 0.306269
0.853636 0.343443 0.306291
0.853651 0.343470 0.306310
0.853664 0.343493 0.306326
0.854631 0.345442 0.307060
0.013924 0.017151 0.014913
0.015216 0.016447 0.013756
0.015686 0.015686 0.011765
0.015686 0.007843 0.007843
0.027451 0.011765 0.007843
0.043137 0.019608 0.011765
0.054902 0.023529 0.019608
0.074608 0.031082 0.028099
0.089866 0.033827 0.032303
0.104602 0.035466 0.034439
0.119576 0.034685 0.034592
0.139927 0.041416 0.040307
0.165012 0.044132 0.042772
0.184182 0.045175 0.043803
0.203762 0.047130 0.047013
0.224806 0.051680 0.049501
0.240565 0.053791 0.051484
0.265558 0.060529 0.058071
0.285507 0.065256 0.061952
0.311947 0.070435 0.066568
0.336749 0.075588 0.071489
0.371544 0.084342 0.078086
0.392832 0.089705 0.083443
0.415341 0.094526 0.088939
0.439680 0.096934 0.093259
0.461318 0.105444 0.100480
0.484446 0.110968 0.106644
0.501814 0.116968 0.112361
0.516602 0.125820 0.119431
0.539515 0.141445 0.131601
0.562956 0.152878 0.141896
0.598313 0.176644 0.162045
0.623653 0.192901 0.177355
0.642966 0.203500 0.187365
0.672342 0.224577 0.204079
0.691385 0.232768 0.211703
0.701520 0.238452 0.215364
0.728139 0.251170 0.224881
0.744401 0.258795 0.231305
0.751527 0.261937 0.232330
0.759180 0.266261 0.234479
0.774759 0.273630 0.242474
0.782613 0.278566 0.245964
0.799339 0.290618 0.257325
0.805753 0.296141 0.263808
0.818226 0.306424 0.273637
0.827347 0.313884 0.281298
0.832682 0.317825 0.285671
0.835430 0.319649 0.288879
0.839822 0.323844 0.292568
0.842103 0.326664 0.294387
0.844155 0.329010 0.296200
0.848557 0.335802 0.300671
0.851019 0.339504 0.303625
0.851079 0.339594 0.303695
0.851129 0.339669 0.303754
0.853536 0.343282 0.306171
0.853570 0.343336 0.306212
0.853598 0.343382 0.306245
0.853621 0.343420 0.306273
0.853640 0.343452 0.306296
0.853655 0.343479 0.306314
0.853668 0.343501 0.306329
0.854634 0.345450 0.307063
0.021860 0.028060 0.022682
0.027771 0.030519 0.023487
0.030093 0.030323 0.022874
0.030595 0.027594 0.020687
0.030283 0.019749 0.013749
0.035294 0.011765 0.007843
0.054902 0.023529 0.015686
0.066667 0.027451 0.019608
0.085642 0.036901 0.026605
0.103534 0.039462 0.032892
0.124306 0.044266 0.040587
0.151618 0.052149 0.048373
0.177458 0.056901 0.054699
0.198997 0.059935 0.057768
0.217883 0.062945 0.060024
0.231737 0.062793 0.059082
0.246912 0.063264 0.059472
0.269486 0.066570 0.062622
0.290423 0.069028 0.064530
0.312899 0.072122 0.067300
0.340138 0.079575 0.073175
0.371838 0.091512 0.082547
0.390771 0.096081 0.086549
0.410132 0.100070 0.090509
0.434983 0.101486 0.093627
0.460229 0.108956 0.101256
0.477557 0.113441 0.105281
0.501852 0.124018 0.114799
0.513654 0.127959 0.119553
0.542278 0.145283 0.134210
0.565980 0.159882 0.146295
0.598800 0.181478 0.165184
0.620359 0.192263 0.176256
0.646393 0.208305 0.190157
0.669890 0.224186 0.202738
0.687427 0.233493 0.210358
0.701475 0.238476 0.215327
0.728091 0.251193 0.224834
0.746744 0.259645 0.230577
0.751462 0.261917 0.232273
0.759165 0.266261 0.234432
0.776345 0.275489 0.242867
0.782549 0.278538 0.245900
0.799263 0.290580 0.257261
0.805699 0.296112 0.263764
0.817513 0.306440 0.272692
0.823580 0.310369 0.277057
0.832676 0.317828 0.285658
0.832836 0.318004 0.285830
0.838405 0.322908 0.290696
0.842107 0.326674 0.294389
0.844159 0.329020 0.296204
0.848560 0.335811 0.300671
0.851024 0.339519 0.303629
0.851085 0.339608 0.303700
0.851135 0.339682 0.303759
0.853541 0.343294 0.306176
0.853574 0.343347 0.306216
0.853602 0.343392 0.306250
0.853625 0.343430 0.306277
0.853644 0.343461 0.306300
0.853659 0.343488 0.306318
0.854625 0.345435 0.307053
0.854638 0.345459 0.307067
0.032282 0.040723 0.028868
0.035352 0.040034 0.028028
0.038413 0.041568 0.029113
0.042112 0.042638 0.029332
0.039216 0.039216 0.023529
0.044705 0.030545 0.019356
0.053602 0.024048 0.014394
0.069538 0.031790 0.020495
0.086274 0.039216 0.023529
0.094118 0.023529 0.003922
0.121762 0.050007 0.038434
0.152984 0.059461 0.052978
0.180478 0.062762 0.058527
0.207610 0.069322 0.064482
0.227083 0.072334 0.067919
0.240225 0.074026 0.068691
0.258468 0.078242 0.072433
0.277241 0.078886 0.072699
0.295028 0.078383 0.071797
0.315146 0.077614 0.071271
0.345375 0.084831 0.076559
0.375877 0.097395 0.086337
0.393223 0.102879 0.090298
0.412848 0.107431 0.094109
0.427589 0.110164 0.097109
0.462789 0.117247 0.104431
0.480742 0.120456 0.109808
0.501372 0.125451 0.115440
0.510728 0.129570 0.119206
0.543427 0.149757 0.136064
0.560682 0.160881 0.145525
0.595848 0.182188 0.165012
0.616211 0.195648 0.177246
0.654164 0.215868 0.195760
0.665471 0.222499 0.200736
0.683693 0.232926 0.209014
0.701426 0.238504 0.215288
0.722816 0.250524 0.222064
0.742824 0.258980 0.228934
0.750496 0.261213 0.230610
0.759148 0.266262 0.234380
0.769285 0.271735 0.239058
0.783179 0.279686 0.246061
0.799182 0.290539 0.257193
0.806342 0.296807 0.262784
0.817498 0.306445 0.272674
0.823573 0.310378 0.277047
0.831251 0.316651 0.283761
0.832834 0.318011 0.285822
0.840062 0.324822 0.291869
0.842589 0.327655 0.293918
0.842726 0.327834 0.294075
0.848562 0.335820 0.300671
0.851030 0.339534 0.303634
0.851091 0.339623 0.303705
0.853506 0.343243 0.306131
0.853546 0.343306 0.306180
0.853579 0.343359 0.306221
0.853606 0.343403 0.306254
0.853629 0.343440 0.306282
0.853648 0.343471 0.306304
0.853663 0.343497 0.306322
0.854629 0.345444 0.307056
0.854641 0.345468 0.307070
0.033621 0.052054 0.031936
0.033458 0.050852 0.030806
0.036466 0.048751 0.029296
0.041912 0.047975 0.029508
0.047175 0.048948 0.031188
0.054177 0.053075 0.033597
0.061582 0.046635 0.028801
0.072900 0.040534 0.025568
0.091969 0.047276 0.030240
0.107951 0.051763 0.031498
0.122263 0.059562 0.037314
0.139996 0.067480 0.046516
0.169125 0.071253 0.056038
0.199886 0.073403 0.065842
0.227765 0.078015 0.071560
0.245508 0.081015 0.074416
0.269614 0.086361 0.079369
0.290631 0.092179 0.083833
0.303859 0.089239 0.081000
0.324259 0.091670 0.082330
0.351755 0.093486 0.083703
0.380556 0.100643 0.088204
0.397189 0.105261 0.091301
0.411915 0.109274 0.094323
0.429253 0.114579 0.098006
0.460387 0.123924 0.106103
0.475865 0.125789 0.108672
0.499942 0.130695 0.115923
0.510096 0.134830 0.120753
0.543794 0.155664 0.138635
0.562650 0.165614 0.148552
0.598068 0.186488 0.167773
0.616001 0.196561 0.176988
0.650840 0.217206 0.194315
0.667301 0.224348 0.201317
0.682112 0.233053 0.207865
0.702286 0.240441 0.215240
0.722690 0.250540 0.221996
0.742498 0.258521 0.227739
0.750446 0.261205 0.230531
0.758879 0.266720 0.234309
0.769204 0.271706 0.238962
0.784487 0.280351 0.246206
0.796514 0.289335 0.253361
0.806278 0.296787 0.262734
0.816772 0.305745 0.270547
0.823564 0.310390 0.277035
0.831241 0.316657 0.283745
0.835664 0.321107 0.287465
0.839114 0.324605 0.289972
0.842595 0.327673 0.293922
0.845119 0.331645 0.296729
0.848565 0.335832 0.300672
0.850801 0.339545 0.302921
0.851098 0.339641 0.303712
0.853511 0.343259 0.306137
0.853551 0.343321 0.306186
0.853585 0.343374 0.306226
0.853612 0.343417 0.306260
0.853635 0.343453 0.306287
0.853653 0.343483 0.306309
0.854622 0.345434 0.307047
0.854634 0.345456 0.307061
0.855577 0.347785 0.308521
0.033050 0.061097 0.035580
0.033766 0.060240 0.035463
0.034983 0.059764 0.035035
0.036715 0.058921 0.034101
0.042547 0.057685 0.032849
0.055899 0.061294 0.034934
0.066666 0.065548 0.039937
0.082781 0.067055 0.042803
0.102484 0.062368 0.039675
0.116255 0.063236 0.037949
0.127464 0.065136 0.039300
0.144584 0.072226 0.045814
0.163715 0.080073 0.052397
0.187971 0.088090 0.060411
0.206229 0.092450 0.065392
0.242066 0.090306 0.076165
0.282700 0.096812 0.088211
0.301365 0.101761 0.091984
0.317560 0.104510 0.093701
0.331979 0.103231 0.092410
0.359058 0.101911 0.090012
0.382242 0.104776 0.091210
0.401977 0.107699 0.092070
0.418288 0.114969 0.096342
0.436381 0.120521 0.099691
0.461808 0.129220 0.107043
0.477127 0.133360 0.110940
0.497393 0.142083 0.117942
0.509374 0.145159 0.122926
0.542187 0.156428 0.137817
0.562034 0.168509 0.150226
0.593305 0.186377 0.166758
0.616996 0.198520 0.177241
0.644423 0.215375 0.191423
0.666012 0.224900 0.200999
0.678782 0.232841 0.206287
0.698030 0.240046 0.212886
0.722529 0.250566 0.221912
0.739262 0.258329 0.226073
0.751068 0.261652 0.230661
0.760451 0.268579 0.234683
0.764988 0.271009 0.237253
0.786027 0.282669 0.247035
0.796169 0.290250 0.252556
0.803844 0.295361 0.259359
0.816733 0.305753 0.270507
0.823552 0.310406 0.277021
0.830529 0.316692 0.282333
0.836604 0.322320 0.287684
0.839112 0.324626 0.289964
0.841645 0.326980 0.292741
0.845126 0.331666 0.296732
0.850727 0.339454 0.302827
0.850806 0.339563 0.302924
0.850871 0.339653 0.303004
0.853519 0.343279 0.306143
0.853559 0.343341 0.306193
0.853592 0.343392 0.306233
0.853619 0.343434 0.306267
0.853641 0.343469 0.306294
0.854614 0.345425 0.307036
0.854628 0.345450 0.307053
0.854639 0.345471 0.307066
0.855579 0.347794 0.308523
0.031387 0.066946 0.033424
0.031896 0.066672 0.034229
0.033821 0.067968 0.036458
0.036657 0.068804 0.037915
0.043912 0.068092 0.037769
0.055398 0.070075 0.037299
0.064726 0.071836 0.037021
0.073823 0.074739 0.040447
0.093464 0.080110 0.047205
0.125387 0.078687 0.047430
0.136369 0.078252 0.045328
0.148774 0.079163 0.047516
0.168228 0.084797 0.053939
0.192498 0.092762 0.060282
0.207893 0.099771 0.064978
0.233809 0.112668 0.074009
0.249453 0.114664 0.078236
0.290439 0.106776 0.089695
0.316938 0.108485 0.097582
0.334385 0.109946 0.098828
0.366815 0.115107 0.100929
0.395617 0.115558 0.097010
0.414376 0.116065 0.095077
0.427220 0.122423 0.098874
0.444838 0.129245 0.102840
0.463737 0.137586 0.108421
0.475749 0.140242 0.111326
0.493621 0.146395 0.117041
0.508550 0.150735 0.122851
0.537002 0.164910 0.138623
0.553091 0.168405 0.145285
0.593014 0.186432 0.166201
0.625102 0.206282 0.182771
0.645181 0.216830 0.192226
0.667283 0.229345 0.201415
0.679251 0.235589 0.206730
0.691353 0.241561 0.211030
0.719461 0.251315 0.220516
0.737356 0.258614 0.225534
0.747618 0.262162 0.228983
0.759255 0.267892 0.233678
0.767460 0.273306 0.237607
0.785872 0.282618 0.246885
0.796053 0.290220 0.252441
0.796633 0.290606 0.252871
0.816683 0.305765 0.270456
0.820496 0.308563 0.273735
0.830533 0.316730 0.282327
0.836606 0.322355 0.287679
0.838885 0.325165 0.289492
0.841660 0.327017 0.292752
0.848004 0.336008 0.299847
0.850732 0.339477 0.302828
0.850812 0.339586 0.302928
0.850878 0.339676 0.303009
0.853527 0.343304 0.306151
0.853567 0.343364 0.306201
0.853600 0.343413 0.306242
0.853627 0.343454 0.306275
0.854604 0.345417 0.307023
0.854621 0.345446 0.307043
0.854635 0.345470 0.307059
0.855575 0.347792 0.308517
0.857489 0.350932 0.310426
0.032255 0.075740 0.032288
0.031244 0.073384 0.030687
0.030476 0.071989 0.029854
0.030892 0.072351 0.030342
0.034961 0.076429 0.034450
0.047331 0.080627 0.040082
0.066956 0.082235 0.039368
0.074371 0.081874 0.037780
0.087118 0.085996 0.041179
0.111378 0.095193 0.048785
0.146526 0.090784 0.049078
0.157574 0.090078 0.049328
0.167805 0.093136 0.052035
0.190978 0.097804 0.059217
0.214094 0.104626 0.065663
0.239111 0.115847 0.074597
0.258792 0.125949 0.081439
0.277940 0.134839 0.088490
0.306787 0.142392 0.097044
0.337226 0.133438 0.103733
0.374661 0.125373 0.103996
0.423420 0.139444 0.105668
0.434248 0.141641 0.105993
0.447945 0.142499 0.105912
0.458936 0.146214 0.109858
0.466264 0.146111 0.110177
0.477122 0.150394 0.112928
0.490047 0.152565 0.116161
0.505421 0.157511 0.121884
0.528747 0.164812 0.132131
0.550773 0.174592 0.144964
0.585864 0.192135 0.164337
0.623126 0.209654 0.183521
0.647283 0.223087 0.193799
0.667335 0.231305 0.201470
0.678655 0.237474 0.206554
0.685888 0.239558 0.208773
0.721537 0.254290 0.221969
0.738686 0.259758 0.225656
0.744666 0.262660 0.227787
0.758312 0.268122 0.233584
0.765223 0.272919 0.235521
0.785264 0.284937 0.245565
0.794494 0.289237 0.250893
0.797967 0.292522 0.253013
0.813559 0.304636 0.266641
0.823777 0.312636 0.275834
0.828193 0.316842 0.279983
0.834716 0.321965 0.285076
0.838899 0.325219 0.289498
0.842375 0.329887 0.293480
0.847779 0.336987 0.299146
0.850737 0.339505 0.302830
0.850819 0.339613 0.302932
0.852778 0.343036 0.304924
0.853538 0.343334 0.306161
0.853578 0.343392 0.306211
0.853610 0.343439 0.306251
0.854594 0.345411 0.307006
0.854614 0.345444 0.307031
0.855563 0.347779 0.308500
0.855572 0.347794 0.308511
0.857011 0.350697 0.310184
0.858925 0.354534 0.312104
0.037020 0.085957 0.035220
0.036869 0.085656 0.034888
0.037779 0.086240 0.035243
0.037271 0.085422 0.034445
0.038592 0.085749 0.034849
0.043647 0.089167 0.038038
0.057838 0.094241 0.042207
0.077629 0.094653 0.043423
0.086443 0.093959 0.042457
0.102020 0.098784 0.046537
0.129049 0.106279 0.053701
0.162183 0.100748 0.052980
0.176193 0.101803 0.055110
0.193513 0.109062 0.060539
0.210903 0.113060 0.064049
0.236192 0.119913 0.071430
0.266332 0.130335 0.083357
0.292935 0.143974 0.093189
0.314355 0.154302 0.099131
0.341968 0.169519 0.109734
0.373220 0.168463 0.111301
0.455918 0.168629 0.116768
0.458317 0.165630 0.114428
0.456723 0.162040 0.113212
0.460962 0.158669 0.112778
0.468797 0.159027 0.114024
0.478785 0.157245 0.114803
0.493699 0.161989 0.118984
0.512143 0.170628 0.125682
0.529924 0.178292 0.131534
0.555675 0.186802 0.147381
0.573994 0.193299 0.157071
0.626179 0.215165 0.185694
0.644074 0.225713 0.193321
0.665255 0.235467 0.201457
0.679121 0.239958 0.206653
0.689220 0.245756 0.210928
0.717948 0.254978 0.219769
0.732698 0.257718 0.223441
0.742969 0.262527 0.227057
0.760507 0.271751 0.233509
0.766665 0.275083 0.235501
0.781996 0.285878 0.243812
0.792927 0.291150 0.248831
0.798809 0.293774 0.252881
0.806352 0.299482 0.259163
0.824465 0.315365 0.274848
0.827485 0.317647 0.277857
0.833312 0.321826 0.283906
0.840345 0.328860 0.291196
0.842628 0.332611 0.293485
0.847776 0.337023 0.299138
0.850743 0.339539 0.302833
0.852734 0.343004 0.304861
0.852788 0.343079 0.304930
0.852833 0.343140 0.304986
0.853590 0.343425 0.306222
0.854581 0.345409 0.306986
0.854605 0.345446 0.307016
0.855556 0.347783 0.308488
0.855568 0.347799 0.308502
0.857010 0.350706 0.310179
0.858922 0.354538 0.312097
0.858930 0.354557 0.312106
0.044861 0.104176 0.043777
0.044754 0.104055 0.043567
0.044618 0.103885 0.043287
0.044954 0.101910 0.041853
0.046304 0.103251 0.042179
0.051352 0.106166 0.044809
0.059123 0.106414 0.046556
0.074271 0.109411 0.049986
0.091370 0.111429 0.050291
0.099250 0.110461 0.049742
0.119920 0.118171 0.057520
0.149152 0.125163 0.064125
0.187645 0.121990 0.066490
0.201717 0.116668 0.064677
0.211274 0.120759 0.067439
0.230841 0.126507 0.072043
0.257985 0.132230 0.079508
0.307374 0.151749 0.097101
0.332631 0.164954 0.106088
0.348362 0.173378 0.112130
0.363419 0.179148 0.114571
0.423383 0.177362 0.114496
0.460116 0.175528 0.117033
0.458572 0.172883 0.115030
0.460539 0.169645 0.114674
0.464501 0.167520 0.114922
0.475328 0.167616 0.116431
0.493092 0.171212 0.120921
0.515179 0.181707 0.127725
0.531534 0.187252 0.133689
0.543055 0.192297 0.138890
0.560881 0.197829 0.148966
0.603164 0.210434 0.171565
0.646770 0.228625 0.194369
0.665709 0.236260 0.201786
0.679601 0.244027 0.207656
0.692688 0.251177 0.213346
0.712775 0.257214 0.218891
0.728974 0.259591 0.222864
0.743891 0.265059 0.228298
0.761148 0.273413 0.233227
0.770204 0.278233 0.236405
0.782109 0.288104 0.242658
0.790578 0.292886 0.247124
0.795872 0.293595 0.250393
0.809352 0.305577 0.260682
0.821046 0.315487 0.271665
0.825793 0.317749 0.275700
0.832624 0.322656 0.282985
0.840852 0.332358 0.290957
0.845030 0.336761 0.295654
0.846092 0.336607 0.297214
0.850759 0.341786 0.302395
0.852746 0.343059 0.304867
0.852801 0.343129 0.304937
0.852845 0.343186 0.304994
0.854563 0.346117 0.306962
0.855529 0.347768 0.308450
0.855547 0.347790 0.308472
0.855562 0.347808 0.308490
0.857008 0.350722 0.310173
0.858920 0.354552 0.312092
0.858928 0.354567 0.312101
0.858936 0.354583 0.312110
0.056439 0.127961 0.054618
0.056323 0.125169 0.051842
0.055997 0.124535 0.051411
0.055784 0.122034 0.049200
0.055231 0.120955 0.049092
0.054705 0.118785 0.048278
0.057515 0.118775 0.048266
0.065374 0.121231 0.049996
0.085212 0.125795 0.053452
0.104261 0.128496 0.055976
0.118148 0.131889 0.059734
0.138466 0.137227 0.065883
0.167513 0.148976 0.075534
0.198674 0.138427 0.075086
0.217769 0.132103 0.074407
0.231965 0.135457 0.077158
0.255714 0.143948 0.084468
0.299421 0.154450 0.095925
0.343437 0.172123 0.110092
0.358029 0.179319 0.115092
0.368613 0.185357 0.117759
0.393291 0.186399 0.117402
0.443418 0.186459 0.118224
0.462040 0.182691 0.118023
0.462446 0.179624 0.117187
0.466980 0.180547 0.118382
0.475932 0.180806 0.119737
0.497586 0.182664 0.124574
0.520151 0.191040 0.131449
0.536641 0.198936 0.137772
0.540838 0.198112 0.138032
0.558044 0.207422 0.146241
0.577063 0.211054 0.155787
0.625711 0.227527 0.182458
0.664660 0.240877 0.203359
0.682947 0.251640 0.211609
0.690753 0.254112 0.214054
0.703609 0.256862 0.216819
0.723391 0.259142 0.220947
0.747037 0.269579 0.229155
0.761296 0.276807 0.233479
0.773583 0.282587 0.237558
0.785489 0.292030 0.243820
0.790477 0.296161 0.246414
0.799360 0.303870 0.251943
0.808804 0.308730 0.259667
0.821458 0.319839 0.272089
0.827127 0.322815 0.277278
0.829748 0.323450 0.280138
0.840656 0.334156 0.290530
0.844812 0.338551 0.294950
0.846349 0.338643 0.296978
0.846444 0.338743 0.297095
0.850829 0.341927 0.302473
0.852811 0.344622 0.304948
0.854541 0.346125 0.306924
0.855514 0.347780 0.308421
0.856969 0.351402 0.310123
0.856986 0.351421 0.310146
0.858908 0.354560 0.312070
0.858919 0.354576 0.312084
0.858928 0.354590 0.312095
0.858935 0.354602 0.312105
0.858942 0.354614 0.312113
0.062460 0.137761 0.053618
0.061693 0.136502 0.053368
0.061495 0.136235 0.053101
0.061241 0.135893 0.052751
0.060432 0.133544 0.050996
0.059970 0.131929 0.050108
0.060061 0.131673 0.050058
0.070801 0.134497 0.050788
0.090659 0.139754 0.053031
0.111084 0.148563 0.058031
0.123058 0.152057 0.058548
0.132255 0.152159 0.060358
0.153550 0.158527 0.069157
0.180497 0.166431 0.078674
0.217982 0.173772 0.089803
0.238681 0.160499 0.087715
0.256509 0.156125 0.089272
0.284728 0.159987 0.095883
0.348081 0.177751 0.112048
0.365342 0.185491 0.117609
0.379305 0.192525 0.121216
0.385712 0.193914 0.121554
0.426040 0.194922 0.120890
0.469464 0.196652 0.122990
0.469438 0.193453 0.121941
0.469429 0.190772 0.121013
0.473750 0.186945 0.120995
0.479082 0.187479 0.121889
0.511124 0.195396 0.130636
0.530054 0.199680 0.135322
0.547727 0.207482 0.141970
0.555525 0.209325 0.144871
0.561529 0.212367 0.148177
0.593679 0.222194 0.164924
0.650434 0.243383 0.196717
0.681618 0.255505 0.212625
0.691364 0.260507 0.217562
0.701372 0.261632 0.219085
0.717309 0.265283 0.223189
0.747073 0.275819 0.232698
0.762318 0.281721 0.234574
0.775123 0.288402 0.239089
0.790097 0.301870 0.245961
0.794179 0.302776 0.248107
0.800841 0.309724 0.252177
0.806868 0.313157 0.257471
0.821142 0.323630 0.271066
0.825421 0.325150 0.275335
0.831622 0.332424 0.281036
0.839479 0.339771 0.289370
0.842703 0.338235 0.292366
0.845651 0.339742 0.295557
0.846942 0.341250 0.297349
0.850608 0.345146 0.301990
0.856162 0.352081 0.309041
0.856201 0.352113 0.309093
0.856945 0.353071 0.310098
0.858882 0.355502 0.312038
0.858899 0.355518 0.312061
0.858918 0.354613 0.312075
0.858929 0.354624 0.312089
0.858937 0.354633 0.312100
0.858944 0.354641 0.312109
0.858950 0.354649 0.312117
0.068641 0.151141 0.056996
0.068536 0.150921 0.056812
0.070451 0.153576 0.057625
0.070162 0.152995 0.057250
0.069565 0.150711 0.056760
0.068798 0.148941 0.055538
0.068305 0.142754 0.051067
0.069480 0.141236 0.049951
0.084713 0.146762 0.052468
0.110359 0.148428 0.052683
0.128272 0.155093 0.057147
0.135472 0.157055 0.057217
0.139049 0.160480 0.059478
0.157648 0.167694 0.066783
0.180088 0.176031 0.076656
0.221686 0.193436 0.095101
0.250798 0.191227 0.100596
0.299596 0.193403 0.109869
0.353006 0.199791 0.120453
0.379648 0.201492 0.124859
0.387766 0.201121 0.125402
0.392662 0.203274 0.126662
0.408881 0.206766 0.127346
0.454843 0.201807 0.124261
0.471457 0.200927 0.124978
0.471712 0.198715 0.123976
0.474105 0.198440 0.124210
0.480547 0.198527 0.125381
0.495958 0.194778 0.126885
0.523080 0.204858 0.135471
0.542402 0.208308 0.140714
0.551413 0.210438 0.143597
0.557152 0.211787 0.145826
0.570166 0.215820 0.152190
0.610885 0.231530 0.174071
0.680425 0.259572 0.214367
0.687846 0.260170 0.216894
0.698274 0.262298 0.218998
0.708930 0.267512 0.223489
0.736430 0.275764 0.229665
0.765949 0.292216 0.238131
0.782206 0.300958 0.241310
0.795101 0.312582 0.248056
0.801158 0.315858 0.251471
0.803823 0.316190 0.253905
0.808325 0.320714 0.257230
0.817570 0.330099 0.266535
0.827228 0.336415 0.275704
0.832051 0.339275 0.280519
0.837326 0.342764 0.286524
0.843933 0.346309 0.293344
0.844036 0.346395 0.293456
0.847933 0.346934 0.297843
0.852741 0.353520 0.304164
0.856612 0.354729 0.309254
0.856656 0.354750 0.309314
0.858132 0.356225 0.311032
0.858161 0.356245 0.311070
0.858899 0.356275 0.312057
0.858915 0.356283 0.312079
0.858929 0.355585 0.312092
0.860838 0.358937 0.314006
0.860845 0.358944 0.314016
0.860852 0.358951 0.314026
0.076200 0.179381 0.066688
0.079080 0.175599 0.064460
0.078808 0.174714 0.064116
0.078468 0.173584 0.063679
0.076933 0.165656 0.060764
0.076496 0.164248 0.060242
0.076693 0.161922 0.059278
0.076981 0.156706 0.056768
0.080113 0.156589 0.057001
0.098989 0.159450 0.058804
0.128261 0.161068 0.058650
0.138684 0.162333 0.058158
0.142900 0.161836 0.055133
0.149812 0.169511 0.059073
0.160566 0.175874 0.062778
0.185174 0.184116 0.074645
0.209768 0.192610 0.087188
0.261836 0.214379 0.108817
0.334493 0.219322 0.125846
0.383246 0.218587 0.131294
0.395442 0.216498 0.131794
0.402258 0.214749 0.131408
0.406662 0.215925 0.132598
0.425909 0.213709 0.130351
0.480772 0.213927 0.130549
0.480654 0.213228 0.130212
0.478620 0.207454 0.128012
0.483054 0.206955 0.128195
0.483276 0.203769 0.127394
0.504858 0.205873 0.132044
0.536435 0.210135 0.139059
0.542243 0.211639 0.141215
0.552546 0.212059 0.144196
0.567336 0.222375 0.152726
0.609501 0.245392 0.175932
0.649850 0.260931 0.199351
0.688387 0.270834 0.220609
0.694361 0.265345 0.220019
0.712144 0.272186 0.224607
0.753379 0.293734 0.235495
0.775348 0.309904 0.242518
0.799760 0.324672 0.250652
0.799959 0.322933 0.250964
0.801308 0.322344 0.252222
0.809833 0.332412 0.257760
0.813836 0.334208 0.261810
0.816819 0.337100 0.264801
0.821543 0.338682 0.270458
0.829400 0.340105 0.277853
0.839432 0.350802 0.288116
0.845806 0.356862 0.295016
0.848085 0.357649 0.297553
0.849122 0.357469 0.298604
0.853226 0.359173 0.303417
0.855904 0.361823 0.306602
