backend/3dlut-creator/demo/fuji_nc.cube
TITLE "3D LUT from Image Pairs"
LUT_3D_SIZE 8
0.019608 0.019608 0.019608
0.118962 0.042478 0.029293
0.260624 0.057688 0.025056
0.492464 0.113385 0.019162
0.745854 0.234003 0.091908
0.854016 0.284602 0.149765
0.881715 0.311407 0.186499
0.884766 0.316514 0.191592
0.031108 0.113457 0.069381
0.082681 0.117785 0.065594
0.284160 0.158877 0.080820
0.469537 0.168750 0.050671
0.729807 0.246551 0.097494
0.845630 0.284953 0.138738
0.883195 0.314459 0.188964
0.888350 0.325184 0.199169
0.019448 0.262055 0.157498
0.056855 0.217643 0.110688
0.166123 0.220688 0.107078
0.500121 0.313814 0.162348
0.722706 0.334423 0.164272
0.858983 0.343934 0.172019
0.888696 0.376598 0.215933
0.894259 0.362575 0.218363
0.001446 0.406784 0.247615
0.011527 0.395159 0.217741
0.133333 0.337255 0.164706
0.413071 0.432128 0.205306
0.692751 0.528714 0.249211
0.895186 0.547699 0.327834
0.921218 0.513572 0.308050
0.932663 0.534229 0.335668
0.000445 0.505874 0.266589
0.000446 0.505605 0.266275
0.000571 0.501371 0.253097
0.194767 0.517969 0.249225
0.550725 0.585106 0.276397
0.783395 0.632488 0.310247
0.934764 0.711680 0.437834
0.947408 0.692028 0.442447
0.035462 0.625382 0.306547
0.048362 0.629816 0.311152
0.061086 0.645850 0.319357
0.066099 0.665440 0.326448
0.346231 0.691182 0.302677
0.654912 0.758574 0.364339
0.925260 0.794608 0.482851
0.934254 0.784651 0.482308
0.104788 0.684617 0.330240
0.131666 0.698816 0.333371
0.169200 0.716337 0.336616
0.227254 0.739882 0.345555
0.310916 0.779975 0.335620
0.444278 0.821981 0.313681
0.700083 0.863118 0.367067
0.911909 0.814128 0.483883
0.296633 0.780701 0.344177
0.294040 0.781484 0.342186
0.308722 0.789652 0.339645
0.331250 0.801546 0.338782
0.382824 0.826823 0.327306
0.399092 0.833550 0.322252
0.480341 0.853078 0.315897
0.662651 0.874887 0.337856
0.020575 0.039822 0.096266
0.156333 0.068610 0.103100
0.258824 0.070588 0.070588
0.462186 0.102799 0.055764
0.664090 0.173576 0.066177
0.807818 0.245663 0.132648
0.877821 0.303542 0.186025
0.887308 0.315096 0.199995
0.027741 0.127628 0.135832
0.113725 0.129412 0.125490
0.247059 0.141176 0.109804
0.443137 0.168628 0.090196
0.658824 0.207843 0.090196
0.817208 0.261623 0.130394
0.879097 0.306318 0.182892
0.887974 0.319866 0.198914
0.035435 0.252270 0.182831
0.072398 0.221613 0.158956
0.200000 0.231373 0.149020
0.423529 0.258824 0.137255
0.692912 0.319815 0.154620
0.835329 0.317185 0.156045
0.886226 0.336158 0.198094
0.890572 0.332780 0.204069
0.000032 0.375782 0.246853
0.000040 0.365425 0.239749
0.086275 0.360784 0.215686
0.356232 0.391889 0.207113
0.646177 0.450173 0.231289
0.869855 0.515853 0.307710
0.910159 0.490378 0.288005
0.932174 0.530728 0.333945
0.000068 0.511476 0.280568
0.000101 0.510483 0.280486
0.000158 0.507957 0.280326
0.250980 0.529412 0.286275
0.507332 0.552696 0.269627
0.766199 0.610195 0.294581
0.928891 0.694559 0.426755
0.947498 0.651568 0.424432
0.025929 0.603215 0.300934
0.025947 0.603278 0.300969
0.030502 0.613738 0.308151
0.095481 0.651904 0.335043
0.368627 0.690196 0.345098
0.643245 0.731782 0.360306
0.922941 0.795839 0.483765
0.939177 0.777143 0.482740
0.092825 0.676300 0.333761
0.102037 0.680212 0.334064
0.133290 0.691237 0.339388
0.196682 0.725637 0.342063
0.299037 0.769660 0.355630
0.448032 0.815070 0.325247
0.728677 0.865380 0.391609
0.929887 0.808801 0.501535
0.284588 0.772379 0.344081
0.284729 0.772465 0.344082
0.296870 0.780843 0.344208
0.330958 0.801367 0.338896
0.364656 0.820659 0.331845
0.400663 0.835211 0.322811
0.476681 0.854961 0.317218
0.689846 0.880459 0.345291
0.085575 0.127653 0.264335
0.226130 0.134043 0.233280
0.318217 0.145404 0.236670
0.505082 0.172104 0.191345
0.702377 0.218969 0.195332
0.815706 0.275264 0.256940
0.917420 0.325244 0.303009
0.926028 0.336870 0.322547
0.064123 0.133924 0.220762
0.133333 0.137255 0.211765
0.286275 0.164706 0.219608
0.478431 0.196079 0.200000
0.651043 0.221722 0.178542
0.818223 0.273436 0.193914
0.913416 0.320417 0.292762
0.926091 0.336915 0.322465
0.000460 0.250571 0.269808
0.086275 0.262745 0.282353
0.254902 0.274510 0.274510
0.450980 0.290196 0.247059
0.670588 0.317647 0.231373
0.819608 0.337255 0.235294
0.884013 0.337063 0.249951
0.907122 0.330706 0.252005
0.003356 0.389835 0.325634
0.003909 0.387327 0.326743
0.151111 0.390506 0.316684
0.392157 0.415686 0.309804
0.633270 0.439054 0.286462
0.811765 0.447059 0.282353
0.909804 0.458824 0.313725
0.899258 0.392728 0.239062
0.000073 0.414365 0.273903
0.000092 0.416954 0.276421
0.053313 0.451262 0.304698
0.288576 0.542364 0.369175
0.583168 0.580227 0.359057
0.789272 0.631247 0.384063
0.899926 0.646214 0.411841
0.955978 0.604752 0.426432
0.004303 0.548847 0.304557
0.011059 0.557541 0.310618
0.063946 0.584747 0.329554
0.198446 0.640032 0.380870
0.423530 0.698039 0.407843
0.713906 0.731104 0.424331
0.894446 0.775657 0.485957
0.949107 0.760796 0.486133
0.111542 0.674982 0.342939
0.120096 0.676212 0.344153
0.133030 0.682283 0.347565
0.154507 0.689166 0.354250
0.393823 0.764347 0.421914
0.588235 0.839216 0.486274
0.805063 0.878941 0.495776
0.932533 0.830674 0.529966
0.227253 0.742892 0.343750
0.227393 0.742973 0.343765
0.296586 0.771914 0.355911
0.314692 0.780121 0.355810
0.356806 0.810222 0.344741
0.413239 0.842347 0.326297
0.508632 0.865930 0.322722
0.730221 0.895047 0.369650
0.108477 0.205233 0.444109
0.192776 0.207683 0.432132
0.535037 0.263890 0.417150
0.591306 0.247574 0.375853
0.794736 0.316562 0.392242
0.859142 0.314425 0.364505
0.885072 0.320407 0.373373
0.947004 0.386846 0.399637
0.109804 0.180392 0.368627
0.103129 0.181146 0.376790
0.345399 0.216498 0.364440
0.510390 0.243881 0.365937
0.752992 0.290862 0.346965
0.839897 0.301631 0.339463
0.877867 0.313759 0.360237
0.947207 0.387246 0.400256
0.086275 0.266667 0.403922
0.164706 0.286275 0.407843
0.301961 0.305882 0.407843
0.501961 0.325490 0.392157
0.705266 0.350389 0.367689
0.844469 0.398778 0.396908
0.932999 0.446411 0.454951
0.954811 0.399157 0.417053
0.001078 0.439554 0.510549
0.021903 0.427306 0.489580
0.219608 0.435294 0.470588
0.466667 0.458824 0.454902
0.678431 0.478431 0.431373
0.831373 0.490196 0.423529
0.921569 0.498039 0.439216
0.961339 0.445730 0.445521
0.229006 0.602870 0.565157
0.228125 0.598320 0.558169
0.232930 0.584612 0.539143
0.360784 0.576471 0.501961
0.623530 0.603922 0.486275
0.803921 0.627451 0.478431
0.909804 0.643137 0.505882
0.960293 0.613291 0.499230
0.270181 0.699024 0.571349
0.269731 0.696554 0.569098
0.269502 0.696717 0.569220
0.279600 0.705327 0.575933
0.509748 0.721957 0.544835
0.756863 0.752941 0.533333
0.898342 0.761955 0.535704
0.976470 0.784314 0.615686
0.261539 0.689174 0.462382
0.296598 0.709502 0.489990
0.294942 0.702874 0.459443
0.377116 0.732504 0.481667
0.490917 0.777017 0.521435
0.645795 0.842561 0.577305
0.858823 0.866667 0.584314
0.942010 0.861071 0.597970
0.154511 0.689148 0.354244
0.164083 0.691859 0.354714
0.186765 0.702032 0.357795
0.356396 0.765439 0.400590
0.441950 0.800981 0.425319
0.600985 0.876493 0.455727
0.637703 0.910293 0.423303
0.824332 0.940050 0.469131
0.153722 0.277455 0.558608
0.529795 0.307017 0.510806
0.682997 0.344421 0.519177
0.741141 0.360729 0.534107
0.781533 0.366720 0.536560
0.906879 0.440750 0.569552
0.948029 0.425067 0.538014
0.934749 0.393715 0.495802
0.146986 0.264981 0.539791
0.146521 0.264312 0.538824
0.591989 0.311597 0.483476
0.656122 0.331257 0.504883
0.754154 0.346245 0.506727
0.888168 0.415527 0.537908
0.940818 0.406884 0.515441
0.929108 0.383439 0.479837
0.215134 0.313137 0.531684
0.298039 0.341177 0.537255
0.404699 0.352912 0.535711
0.564706 0.372549 0.525490
0.735357 0.402225 0.520531
0.847245 0.390805 0.483854
0.929871 0.437171 0.519483
0.920523 0.372367 0.458186
0.155066 0.453965 0.613719
0.171881 0.448324 0.606286
0.309804 0.462745 0.600000
0.521569 0.494118 0.584314
0.721569 0.513726 0.564706
0.854150 0.534112 0.558466
0.929396 0.541272 0.554178
0.977448 0.544900 0.576996
0.120781 0.586985 0.656774
0.119779 0.586466 0.656185
0.172310 0.591356 0.658988
0.435294 0.615686 0.650981
0.678432 0.639216 0.623529
0.839216 0.654902 0.615686
0.935757 0.655071 0.617551
0.976354 0.637912 0.611381
0.307555 0.690874 0.632375
0.307545 0.690889 0.632386
0.316300 0.693064 0.637493
0.356347 0.710317 0.657464
0.592157 0.745098 0.674510
0.807843 0.772549 0.666667
0.918749 0.788667 0.673742
0.990167 0.770535 0.671081
0.323745 0.743719 0.608204
0.323839 0.743785 0.608257
0.324240 0.744061 0.608477
0.360400 0.762944 0.624420
0.444826 0.794391 0.651749
0.709804 0.858824 0.694118
0.879045 0.880077 0.707036
0.957514 0.874867 0.700612
0.368679 0.766271 0.625765
0.372978 0.767746 0.626747
0.417618 0.783855 0.636142
0.442044 0.788921 0.628071
0.602774 0.839178 0.583714
0.696476 0.880230 0.608805
0.803133 0.942847 0.651970
0.882514 0.971204 0.602872
0.747120 0.392997 0.578303
0.777238 0.396375 0.573558
0.796244 0.406351 0.583278
0.820272 0.421951 0.598067
0.862336 0.460836 0.633017
0.918341 0.523409 0.684399
0.952342 0.566265 0.712324
0.973292 0.509875 0.628233
0.181991 0.320382 0.616748
0.240057 0.328958 0.620483
0.754209 0.385254 0.562968
0.794297 0.409623 0.586309
0.837784 0.437480 0.612590
0.914354 0.516074 0.678225
0.957712 0.552150 0.689154
0.973907 0.510471 0.628212
0.198782 0.350544 0.657806
0.196266 0.346101 0.651488
0.192130 0.338343 0.639873
0.710092 0.441510 0.611465
0.791226 0.436220 0.604565
0.883430 0.502778 0.656448
0.955532 0.527560 0.659911
0.974164 0.512308 0.630630
0.224283 0.501461 0.740724
0.289186 0.496887 0.724029
0.470588 0.545098 0.733333
0.611735 0.552784 0.707819
0.772549 0.572549 0.690196
0.886275 0.592157 0.690196
0.966117 0.631282 0.713262
0.975754 0.594962 0.683518
0.267688 0.631668 0.808257
0.272879 0.628665 0.802620
0.352941 0.627451 0.780392
0.541177 0.650981 0.764706
0.737255 0.682353 0.745098
0.870680 0.694218 0.734188
0.945011 0.701567 0.729194
0.981892 0.679579 0.701603
0.270331 0.698831 0.780050
0.274104 0.700755 0.781991
0.292547 0.709962 0.791793
0.417163 0.744513 0.824331
0.674510 0.776471 0.796078
0.839216 0.792157 0.776471
0.939245 0.806155 0.780788
1.000000 0.800000 0.784314
0.442404 0.775136 0.719342
0.442513 0.775215 0.719421
0.448860 0.778309 0.723660
0.471977 0.792239 0.735346
0.545454 0.811530 0.758140
0.760784 0.878432 0.815686
0.913725 0.890196 0.815686
0.979034 0.891287 0.809594
0.373729 0.768686 0.629888
0.373840 0.768734 0.629928
0.404859 0.780872 0.643651
0.426479 0.789367 0.650244
0.523851 0.823411 0.687527
0.663683 0.867813 0.731225
0.855590 0.949843 0.794558
0.960784 0.988235 0.850980
0.844830 0.452200 0.625636
0.848313 0.452533 0.625928
0.853070 0.457038 0.629912
0.868592 0.473248 0.643897
0.899983 0.508352 0.672910
0.936674 0.556921 0.712614
0.946060 0.572504 0.725230
0.955637 0.584639 0.731762
0.627100 0.406608 0.632700
0.794493 0.436419 0.619873
0.830535 0.444971 0.619659
0.864308 0.472393 0.643615
0.888400 0.495914 0.663051
0.935395 0.554838 0.711482
0.946333 0.572918 0.725581
0.956073 0.585241 0.732104
0.189956 0.334436 0.635065
0.189911 0.334355 0.634954
0.244017 0.340956 0.635944
0.824337 0.447489 0.621709
0.874847 0.499918 0.666772
0.916511 0.538401 0.698895
0.952560 0.585717 0.736299
0.979646 0.606921 0.733068
0.242832 0.364426 0.652467
0.244141 0.364205 0.653096
0.364264 0.410204 0.673977
0.748205 0.575013 0.726111
0.824243 0.593298 0.734521
0.915869 0.625025 0.753818
0.973279 0.691252 0.809356
0.993098 0.648514 0.756551
0.244466 0.642848 0.876224
0.274207 0.637826 0.865724
0.497722 0.669659 0.855381
0.664887 0.737846 0.892809
0.790111 0.717253 0.827072
0.909859 0.745919 0.836422
0.974117 0.764861 0.836850
0.999026 0.752157 0.822332
0.348087 0.774543 0.963499
0.363712 0.776503 0.961145
0.432402 0.775899 0.939947
0.549020 0.784314 0.913726
0.749020 0.807843 0.890196
0.886275 0.831373 0.878431
0.960728 0.845495 0.881596
1.000000 0.840405 0.876970
0.373205 0.739348 0.816606
0.388858 0.745163 0.820050
0.422299 0.756728 0.825599
0.507115 0.785380 0.835241
0.613320 0.816004 0.854957
0.834513 0.894006 0.903177
0.941177 0.909804 0.905882
1.000000 0.909804 0.901961
0.485905 0.805332 0.741445
0.486000 0.805383 0.741486
0.495994 0.811014 0.745656
0.516333 0.819838 0.753220
0.609853 0.855079 0.782403
0.722177 0.890872 0.815960
0.898121 0.960833 0.892608
0.972850 0.986345 0.918122
0.879175 0.487487 0.656047
0.887651 0.497162 0.663753
0.892625 0.500928 0.667016
0.908699 0.520819 0.683804
0.931807 0.551928 0.709521
0.939503 0.562734 0.717546
0.946866 0.575187 0.727633
0.950120 0.581851 0.732810
0.874795 0.486028 0.655030
0.877965 0.488715 0.657237
0.878027 0.488777 0.657290
0.894386 0.505373 0.670933
0.924947 0.543882 0.702487
0.939557 0.562856 0.717655
0.947004 0.575453 0.727866
0.950304 0.582225 0.733135
0.480889 0.386740 0.646074
0.531875 0.403705 0.653993
0.810571 0.484440 0.670151
0.889200 0.511183 0.676044
0.905039 0.530085 0.692014
0.941146 0.568766 0.723294
0.952685 0.588271 0.738082
0.960665 0.607701 0.753724
0.194582 0.340865 0.641331
0.194559 0.340835 0.641300
0.286459 0.364109 0.652513
0.628900 0.483953 0.693201
0.931428 0.605020 0.751227
0.949968 0.636707 0.776849
0.969583 0.650466 0.788829
0.973750 0.646791 0.785555
0.616629 0.769965 0.955922
0.616978 0.769993 0.955855
0.626253 0.771617 0.955038
0.674221 0.750762 0.918718
0.823298 0.667622 0.791665
0.912776 0.696833 0.807256
0.990824 0.771052 0.876005
0.996788 0.762561 0.868443
0.304225 0.733124 0.948078
0.331468 0.734649 0.946079
0.595037 0.784573 0.963502
0.664563 0.807039 0.971288
0.765124 0.823772 0.956308
0.891554 0.829702 0.915718
0.979821 0.842375 0.913482
1.000000 0.856929 0.925428
0.449434 0.824758 0.991218
0.460853 0.830978 0.993783
0.481421 0.839707 0.995690
0.521802 0.856467 0.996428
0.617123 0.878958 0.998281
0.838920 0.906070 0.986956
0.955358 0.925279 0.971977
1.000000 0.918328 0.951873
0.517854 0.814206 0.881624
0.523308 0.816350 0.884033
0.569926 0.846025 0.914881
0.596615 0.859015 0.927634
0.689996 0.910778 0.990438
0.797845 0.943804 0.998632
0.902071 0.966737 0.993764
0.992157 0.988235 0.988235
