backend/3dlut-creator/demo/fuji_provia.cube
TITLE "3D LUT from Image Pairs"
LUT_3D_SIZE 4
0.019608 0.019608 0.023529
0.422019 0.068603 0.073343
0.842077 0.236671 0.218263
0.923249 0.295085 0.271589
0.007911 0.379392 0.020197
0.309983 0.346011 0.005184
0.909903 0.441290 0.252173
0.933478 0.380108 0.254560
0.130376 0.637165 0.000000
0.140576 0.644119 0.000000
0.547214 0.704799 0.041954
0.962886 0.714844 0.271509
0.313861 0.824954 0.000000
0.323127 0.841350 0.000000
0.379801 0.884354 0.000000
0.586098 0.905071 0.000000
0.027663 0.165911 0.498691
0.418984 0.133787 0.424851
0.791003 0.203267 0.430559
0.995317 0.321095 0.445502
0.000023 0.336836 0.320493
0.349020 0.352941 0.352941
0.752941 0.352941 0.360784
0.991250 0.325777 0.426315
0.166971 0.602561 0.217988
0.245423 0.625041 0.197923
0.626566 0.658343 0.271602
1.000000 0.670588 0.372549
0.254633 0.758341 0.000000
0.306375 0.803984 0.000000
0.382510 0.888230 0.000000
0.694580 0.929570 0.134670
0.565522 0.308191 0.742813
0.693271 0.309641 0.754449
0.824628 0.375677 0.835783
0.987139 0.396937 0.738541
0.166212 0.315070 0.663113
0.448076 0.380312 0.711300
0.744234 0.402714 0.754054
0.974841 0.381096 0.709958
0.111406 0.654428 0.656100
0.109804 0.662745 0.666667
0.670588 0.670588 0.666667
1.000000 0.670588 0.698039
0.303977 0.764379 0.425807
0.328270 0.778042 0.436777
0.454873 0.824155 0.473737
0.921569 1.000000 0.596078
0.802920 0.380377 0.842598
0.831574 0.395006 0.856778
0.903707 0.445756 0.899043
0.921431 0.463316 0.911006
0.073323 0.308724 0.742790
0.627592 0.379918 0.829601
0.872918 0.452476 0.900802
0.937608 0.487135 0.927341
0.316316 0.677219 0.999798
0.317566 0.675880 0.999816
0.753437 0.659922 0.937355
1.000000 0.728237 1.000000
0.336226 0.778746 0.803753
0.362402 0.812114 0.857471
0.548446 0.918676 0.999788
0.992157 0.992157 0.992157
