backend/3dlut-creator/demo/fuji_nc.cube
TITLE "3D LUT from Image Pairs"
LUT_3D_SIZE 64
0.019608 0.019608 0.019608
0.015686 0.015686 0.015686
0.019608 0.015686 0.015686
0.035294 0.023529 0.019608
0.050980 0.035294 0.027451
0.066667 0.035294 0.027451
0.078431 0.039216 0.027451
0.090196 0.039216 0.031373
0.105155 0.044036 0.031909
0.118962 0.042478 0.029293
0.128479 0.037196 0.026119
0.141153 0.040611 0.027235
0.158619 0.039572 0.025501
0.175288 0.041195 0.024236
0.188235 0.031373 0.015686
0.206554 0.042463 0.022190
0.222238 0.048850 0.024322
0.238271 0.052608 0.024991
0.260624 0.057688 0.025056
0.283765 0.063002 0.025102
0.306425 0.068056 0.024604
0.341426 0.074684 0.023558
0.365225 0.080498 0.022978
0.388708 0.083526 0.020865
0.414376 0.091034 0.019836
0.441178 0.098762 0.019643
0.471192 0.107627 0.019895
0.492464 0.113385 0.019162
0.511272 0.121144 0.021305
0.539825 0.135222 0.026701
0.571781 0.150809 0.033632
0.609973 0.173286 0.046788
0.645621 0.191751 0.059821
0.670910 0.203359 0.068273
0.702783 0.217494 0.078169
0.728977 0.228580 0.087005
0.745854 0.234003 0.091908
0.772595 0.242874 0.098901
0.787348 0.251346 0.106237
0.793505 0.253201 0.106976
0.801334 0.255991 0.110061
0.818049 0.261387 0.118540
0.821382 0.263577 0.120652
0.836914 0.272502 0.132918
0.842776 0.276732 0.138667
0.854016 0.284602 0.149765
0.861916 0.290371 0.158581
0.866294 0.293347 0.163770
0.868552 0.294915 0.167303
0.871982 0.298379 0.171762
0.873760 0.300455 0.174099
0.875553 0.302292 0.176720
0.879457 0.308123 0.182759
0.879522 0.308215 0.182874
0.881715 0.311407 0.186499
0.881758 0.311474 0.186577
0.883687 0.314610 0.189940
0.883716 0.314659 0.189994
0.883740 0.314700 0.190040
0.883761 0.314735 0.190077
0.883777 0.314764 0.190109
0.883791 0.314789 0.190135
0.883802 0.314810 0.190156
0.884766 0.316514 0.191592
0.025568 0.031828 0.027630
0.026841 0.030941 0.026041
0.027451 0.027451 0.023529
0.023529 0.019608 0.015686
0.031373 0.023529 0.015686
0.050980 0.031373 0.023529
0.066667 0.039216 0.027451
0.086771 0.042748 0.030708
0.101411 0.045030 0.032434
0.114443 0.046515 0.032001
0.127755 0.043193 0.029436
0.143421 0.047103 0.030626
0.161504 0.047681 0.029744
0.176521 0.048754 0.028043
0.192401 0.049979 0.027884
0.209320 0.051188 0.026817
0.221548 0.051434 0.025565
0.241062 0.056158 0.025631
0.257946 0.059984 0.025076
0.281081 0.064678 0.024811
0.303685 0.069318 0.024386
0.337540 0.078553 0.024362
0.359441 0.084951 0.024898
0.383849 0.090411 0.024744
0.413159 0.093677 0.021383
0.439310 0.103141 0.022374
0.469666 0.109198 0.021208
0.492409 0.115858 0.020897
0.511280 0.125084 0.024264
0.540478 0.141741 0.031366
0.569978 0.153630 0.035629
0.614963 0.177931 0.050202
0.646919 0.193658 0.061190
0.671084 0.203865 0.068651
0.707212 0.223609 0.082474
0.729443 0.230638 0.087841
0.741240 0.235556 0.091430
0.770521 0.245623 0.099347
0.787246 0.251320 0.106183
0.793439 0.253186 0.106934
0.800599 0.255985 0.109033
0.815209 0.260669 0.116173
0.822041 0.263799 0.119725
0.836843 0.272238 0.131635
0.842731 0.276714 0.138626
0.853995 0.284598 0.149740
0.861912 0.290375 0.158571
0.866288 0.293348 0.163760
0.868549 0.294914 0.167297
0.871980 0.298380 0.171759
0.873763 0.300463 0.174104
0.875556 0.302301 0.176726
0.879458 0.308131 0.182762
0.881668 0.311339 0.186415
0.881720 0.311419 0.186508
0.881763 0.311486 0.186586
0.883691 0.314620 0.189947
0.883720 0.314669 0.190002
0.883744 0.314710 0.190047
0.883764 0.314744 0.190084
0.883781 0.314773 0.190115
0.883794 0.314797 0.190141
0.883806 0.314817 0.190162
0.884768 0.316522 0.191598
0.031572 0.043785 0.035176
0.037995 0.046924 0.034935
0.040169 0.046637 0.033738
0.040551 0.043636 0.030800
0.038748 0.033715 0.023348
0.039216 0.023529 0.015686
0.062745 0.035294 0.023529
0.074510 0.039216 0.023529
0.091835 0.047471 0.028468
0.107934 0.050067 0.031029
0.127969 0.053168 0.035035
0.149644 0.057668 0.036843
0.169331 0.060952 0.038445
0.185898 0.064029 0.037888
0.200795 0.065414 0.036693
0.212282 0.063075 0.033356
0.225368 0.061649 0.030735
0.244257 0.062825 0.028783
0.262029 0.064197 0.026718
0.281771 0.066544 0.025618
0.306382 0.074471 0.026445
0.336870 0.087210 0.028342
0.356563 0.092140 0.028576
0.377031 0.096834 0.028084
0.406103 0.098594 0.024192
0.437390 0.106476 0.024363
0.460062 0.111800 0.023205
0.490895 0.123297 0.025525
0.506690 0.127569 0.026240
0.543581 0.145979 0.034314
0.573873 0.161004 0.040728
0.615716 0.183189 0.054708
0.642803 0.193304 0.060869
0.675379 0.208916 0.071864
0.704086 0.222995 0.081832
0.725032 0.231122 0.087624
0.741184 0.235577 0.091436
0.770464 0.245646 0.099343
0.789140 0.251738 0.105465
0.793370 0.253170 0.106889
0.800576 0.255983 0.108995
0.816330 0.262066 0.116810
0.821982 0.263781 0.119665
0.836776 0.272214 0.131574
0.842683 0.276696 0.138582
0.853282 0.284614 0.148749
0.858386 0.287321 0.153670
0.866282 0.293350 0.163750
0.866419 0.293499 0.163958
0.871027 0.297674 0.169833
0.873765 0.300471 0.174109
0.875559 0.302309 0.176733
0.879460 0.308139 0.182765
0.881672 0.311352 0.186423
0.881725 0.311432 0.186517
0.881768 0.311498 0.186595
0.883695 0.314631 0.189955
0.883724 0.314679 0.190009
0.883748 0.314719 0.190054
0.883768 0.314753 0.190091
0.883784 0.314781 0.190122
0.883798 0.314805 0.190147
0.884761 0.316507 0.191583
0.884772 0.316530 0.191604
0.038381 0.056215 0.041614
0.042509 0.055916 0.039119
0.046156 0.057360 0.039703
0.050536 0.058277 0.039117
0.050980 0.054902 0.031373
0.050727 0.045333 0.027744
0.057148 0.036528 0.021237
0.075024 0.042990 0.025122
0.094118 0.047059 0.027451
0.074510 0.031373 0.003922
0.120873 0.058571 0.034405
0.148621 0.066013 0.042208
0.170275 0.067684 0.042434
0.191045 0.073235 0.043766
0.206722 0.075111 0.042841
0.217427 0.075359 0.041678
0.233009 0.078278 0.041504
0.249495 0.077099 0.037596
0.265093 0.075298 0.033383
0.283105 0.073300 0.029388
0.310887 0.080614 0.029058
0.340353 0.094126 0.031666
0.358104 0.100049 0.031441
0.378665 0.104948 0.030708
0.394999 0.107886 0.030056
0.438805 0.115574 0.027771
0.462692 0.118881 0.027873
0.489797 0.124695 0.026680
0.502221 0.129135 0.028063
0.544648 0.150444 0.037142
0.566466 0.162044 0.042567
0.611512 0.183682 0.055868
0.637108 0.197281 0.065733
0.684257 0.216380 0.077020
0.698551 0.221751 0.080763
0.720621 0.230781 0.087004
0.741122 0.235602 0.091443
0.764491 0.245434 0.098395
0.785207 0.251526 0.104275
0.792393 0.252700 0.105472
0.800552 0.255981 0.108953
0.809500 0.259250 0.113471
0.822384 0.264708 0.120067
0.836703 0.272189 0.131509
0.843099 0.276919 0.137801
0.853269 0.284619 0.148737
0.858379 0.287329 0.153664
0.864859 0.292407 0.161628
0.866416 0.293504 0.163953
0.872448 0.299115 0.171490
0.874009 0.301212 0.174114
0.874121 0.301365 0.174309
0.879462 0.308148 0.182768
0.881678 0.311366 0.186432
0.881730 0.311445 0.186526
0.883664 0.314586 0.189898
0.883699 0.314643 0.189963
0.883728 0.314690 0.190017
0.883752 0.314730 0.190062
0.883772 0.314763 0.190099
0.883788 0.314790 0.190129
0.883801 0.314813 0.190154
0.884764 0.316516 0.191589
0.884775 0.316538 0.191610
0.034075 0.067335 0.046309
0.033798 0.066026 0.044923
0.037451 0.063621 0.042167
0.044938 0.062590 0.041011
0.051995 0.063395 0.041535
0.058529 0.066853 0.043393
0.065860 0.060413 0.037254
0.076845 0.053400 0.030942
0.095265 0.057295 0.032846
0.108223 0.060852 0.032168
0.119758 0.067969 0.035705
0.133494 0.074736 0.040876
0.156740 0.077202 0.044146
0.182833 0.078032 0.047498
0.206209 0.081404 0.047900
0.221000 0.082916 0.046428
0.241293 0.086801 0.046731
0.259591 0.091846 0.047366
0.271377 0.087550 0.041751
0.290407 0.089222 0.039506
0.316268 0.090433 0.035452
0.344920 0.097989 0.032760
0.361836 0.102791 0.031956
0.377246 0.106857 0.031608
0.396060 0.112714 0.031457
0.433517 0.122378 0.031834
0.454409 0.124295 0.029785
0.486714 0.129887 0.029111
0.500209 0.134350 0.031075
0.543777 0.156746 0.041720
0.568793 0.166556 0.046815
0.614163 0.188042 0.059821
0.636838 0.198191 0.065737
0.679981 0.217038 0.077007
0.700767 0.223137 0.081452
0.718566 0.230669 0.086611
0.741967 0.237304 0.091928
0.764346 0.245450 0.098373
0.784861 0.251068 0.103110
0.792332 0.252691 0.105410
0.800275 0.256447 0.109129
0.809420 0.259230 0.113388
0.823466 0.265153 0.119982
0.834270 0.271705 0.127693
0.843043 0.276910 0.137756
0.852312 0.283921 0.146398
0.858372 0.287341 0.153657
0.864851 0.292412 0.161615
0.868772 0.296125 0.166292
0.871500 0.298654 0.169847
0.874014 0.301228 0.174123
0.876272 0.304703 0.177859
0.879464 0.308159 0.182773
0.881447 0.311377 0.185989
0.881737 0.311462 0.186538
0.883669 0.314601 0.189908
0.883704 0.314657 0.189973
0.883733 0.314703 0.190027
0.883757 0.314742 0.190071
0.883776 0.314774 0.190108
0.883792 0.314801 0.190138
0.884758 0.316507 0.191578
0.884768 0.316527 0.191597
0.885466 0.318608 0.193685
0.030853 0.076077 0.052165
0.031464 0.075257 0.051523
0.032568 0.074780 0.050766
0.034219 0.073870 0.049513
0.040368 0.072076 0.046655
0.054895 0.074861 0.047158
0.066748 0.078375 0.050731
0.083149 0.078630 0.050289
0.102295 0.072516 0.041928
0.114713 0.071874 0.037790
0.124126 0.073255 0.037509
0.136212 0.079051 0.041170
0.149101 0.085980 0.044809
0.167180 0.093038 0.048982
0.181722 0.096680 0.051236
0.215654 0.093686 0.051240
0.250662 0.098194 0.054454
0.267345 0.102045 0.054670
0.282392 0.103756 0.052990
0.296291 0.101740 0.048758
0.322923 0.099735 0.041246
0.346153 0.102516 0.036190
0.366612 0.105587 0.032266
0.383967 0.112771 0.033124
0.403676 0.118616 0.032487
0.434225 0.127759 0.033636
0.453859 0.132112 0.033499
0.480063 0.141110 0.035008
0.496915 0.144732 0.035742
0.541177 0.157479 0.041876
0.567399 0.169643 0.050165
0.607696 0.187939 0.060169
0.637996 0.199911 0.066510
0.671762 0.215383 0.076617
0.698967 0.223700 0.081745
0.714319 0.230435 0.086055
0.736305 0.237142 0.091252
0.764160 0.245476 0.098350
0.781378 0.251107 0.102369
0.792941 0.253135 0.105328
0.801377 0.257837 0.109766
0.805660 0.259234 0.112134
0.824776 0.266795 0.121281
0.833934 0.272392 0.127334
0.840847 0.275734 0.134169
0.852276 0.283933 0.146367
0.858362 0.287357 0.153649
0.864140 0.292444 0.160394
0.869479 0.297100 0.167001
0.871499 0.298673 0.169848
0.873536 0.300767 0.172909
0.876278 0.304722 0.177869
0.881382 0.311298 0.185875
0.881451 0.311394 0.185997
0.881507 0.311474 0.186099
0.883675 0.314620 0.189920
0.883710 0.314674 0.189985
0.883739 0.314720 0.190039
0.883762 0.314758 0.190082
0.883782 0.314789 0.190119
0.884751 0.316499 0.191564
0.884763 0.316522 0.191588
0.884773 0.316541 0.191607
0.885468 0.318616 0.193690
0.027607 0.081698 0.053003
0.028491 0.081512 0.053444
0.030201 0.082663 0.055155
0.032888 0.083202 0.055890
0.040711 0.082151 0.053770
0.051633 0.083451 0.051644
0.061041 0.084428 0.050047
0.069522 0.086267 0.051981
0.088364 0.089791 0.055528
0.119016 0.086375 0.047486
0.127832 0.085707 0.042854
0.138415 0.086601 0.043032
0.153597 0.090911 0.046561
0.170838 0.097473 0.049709
0.182228 0.103215 0.053002
0.202166 0.114429 0.060062
0.215992 0.115871 0.060577
0.255504 0.107224 0.057213
0.280972 0.108016 0.057251
0.297298 0.109021 0.054786
0.329358 0.113706 0.051341
0.359430 0.113181 0.040791
0.379685 0.113733 0.033821
0.393510 0.119903 0.034986
0.412814 0.126947 0.035298
0.435455 0.135551 0.036290
0.450726 0.138437 0.035624
0.473744 0.145350 0.036421
0.494007 0.149960 0.038022
0.531625 0.165355 0.047419
0.554827 0.169734 0.049451
0.607248 0.188188 0.060037
0.647362 0.207072 0.071680
0.672474 0.216598 0.077582
0.699976 0.227625 0.084261
0.714534 0.232891 0.088163
0.728912 0.238391 0.091944
0.759961 0.246455 0.097918
0.779217 0.251607 0.102105
0.789244 0.253630 0.104813
0.800175 0.257376 0.109011
0.807669 0.260843 0.112735
0.824633 0.266770 0.121145
0.833825 0.272379 0.127235
0.834351 0.272650 0.127679
0.852231 0.283951 0.146328
0.855536 0.285982 0.149891
0.864143 0.292478 0.160401
0.869482 0.297131 0.167009
0.871270 0.299208 0.169360
0.873549 0.300801 0.172931
0.878914 0.308347 0.181904
0.881386 0.311320 0.185884
0.881456 0.311416 0.186008
0.881513 0.311495 0.186110
0.883683 0.314643 0.189935
0.883718 0.314696 0.190000
0.883746 0.314740 0.190053
0.883770 0.314776 0.190096
0.884743 0.316493 0.191549
0.884758 0.316518 0.191578
0.884770 0.316540 0.191600
0.885465 0.318614 0.193684
0.886909 0.321781 0.196530
0.024540 0.089502 0.054169
0.023944 0.087560 0.052514
0.023334 0.086409 0.051621
0.023660 0.086702 0.051987
0.026869 0.090213 0.055582
0.039091 0.094003 0.058956
0.060219 0.094963 0.055025
0.067362 0.094061 0.051823
0.076823 0.096102 0.053252
0.096332 0.102570 0.057774
0.130432 0.097167 0.048468
0.140972 0.096656 0.045650
0.149913 0.099215 0.046860
0.168961 0.102664 0.050128
0.187200 0.107690 0.053565
0.205965 0.116915 0.060338
0.221401 0.125442 0.065306
0.237007 0.133393 0.070155
0.262625 0.139465 0.072643
0.295408 0.131275 0.066391
0.336703 0.123616 0.055405
0.387363 0.137070 0.049832
0.399593 0.139067 0.047012
0.414797 0.140291 0.042893
0.428377 0.144048 0.042988
0.437541 0.143968 0.040149
0.451241 0.148165 0.040035
0.467595 0.150610 0.038891
0.487639 0.156503 0.040539
0.519085 0.164769 0.044443
0.549380 0.175408 0.052318
0.596376 0.193067 0.063409
0.644551 0.210000 0.074342
0.675009 0.221707 0.081062
0.700003 0.229311 0.084938
0.713488 0.234510 0.088796
0.722498 0.236338 0.089868
0.762201 0.248999 0.100115
0.780082 0.252521 0.102298
0.785828 0.254343 0.104320
0.799446 0.257823 0.108939
0.805422 0.260890 0.111062
0.824264 0.269091 0.120750
0.832510 0.271901 0.125669
0.835689 0.274100 0.128304
0.849579 0.283062 0.142730
0.858343 0.289352 0.153147
0.862268 0.292816 0.158238
0.867592 0.296732 0.164406
0.871281 0.299255 0.169384
0.874024 0.303197 0.174351
0.878685 0.309084 0.181709
0.881391 0.311346 0.185894
0.881462 0.311442 0.186021
0.883173 0.314374 0.188921
0.883692 0.314670 0.189953
0.883727 0.314722 0.190018
0.883755 0.314764 0.190070
0.884734 0.316488 0.191533
0.884751 0.316517 0.191566
0.885454 0.318603 0.193664
0.885462 0.318617 0.193679
0.886900 0.321280 0.196050
0.888340 0.325137 0.199146
0.026549 0.098426 0.058587
0.026400 0.098205 0.058291
0.027077 0.098960 0.058619
0.026698 0.098313 0.057884
0.027838 0.098626 0.058101
0.032184 0.101631 0.060611
0.046908 0.105837 0.062770
0.067952 0.105872 0.059601
0.074793 0.103893 0.056699
0.085955 0.106698 0.059029
0.107261 0.111048 0.061729
0.140398 0.105752 0.051935
0.153680 0.106763 0.050645
0.167852 0.113101 0.054072
0.182414 0.115796 0.055175
0.202555 0.120309 0.058369
0.227241 0.128985 0.066611
0.248959 0.140903 0.073348
0.268012 0.149829 0.076347
0.292629 0.162954 0.083234
0.326597 0.162236 0.076083
0.420859 0.165222 0.059020
0.424231 0.162632 0.055334
0.423086 0.159235 0.053376
0.429502 0.156305 0.050044
0.439406 0.156577 0.048304
0.452358 0.154856 0.044150
0.471125 0.160072 0.044197
0.494540 0.169143 0.047229
0.517999 0.177012 0.049464
0.554177 0.186801 0.058015
0.579116 0.193585 0.062874
0.648227 0.214739 0.077901
0.671021 0.224005 0.082734
0.697080 0.232733 0.087558
0.714350 0.236717 0.089778
0.725983 0.242055 0.093925
0.757604 0.249269 0.099219
0.773615 0.251131 0.100803
0.783890 0.254425 0.103864
0.800742 0.260322 0.109558
0.806852 0.262781 0.111510
0.821231 0.270487 0.119930
0.830960 0.273578 0.124817
0.836305 0.275121 0.128693
0.843090 0.279333 0.135188
0.858794 0.291604 0.153190
0.861321 0.293376 0.156439
0.866422 0.296823 0.163238
0.872483 0.302416 0.172008
0.874509 0.305668 0.175300
0.878685 0.309118 0.181714
0.881397 0.311379 0.185908
0.883135 0.314347 0.188854
0.883183 0.314413 0.188941
0.883222 0.314467 0.189012
0.883737 0.314752 0.190038
0.884723 0.316488 0.191514
0.884744 0.316520 0.191553
0.885448 0.318607 0.193654
0.885459 0.318622 0.193673
0.886899 0.321289 0.196049
0.888338 0.325141 0.199142
0.888345 0.325159 0.199157
0.031108 0.113457 0.069381
0.031012 0.113373 0.069153
0.030885 0.113257 0.068851
0.031605 0.111850 0.066777
0.032588 0.113106 0.067175
0.036987 0.115940 0.069120
0.045869 0.116048 0.069630
0.060732 0.118338 0.070042
0.076215 0.119281 0.067567
0.082681 0.117785 0.065594
0.098372 0.122973 0.069994
0.120418 0.126719 0.071870
0.158255 0.123475 0.065097
0.172721 0.119270 0.058947
0.180489 0.122612 0.060644
0.196352 0.126539 0.062277
0.219567 0.130872 0.065010
0.261737 0.147477 0.075395
0.284160 0.158877 0.080820
0.298387 0.166412 0.084923
0.313621 0.171402 0.085341
0.381511 0.171910 0.069469
0.424063 0.171567 0.061197
0.422673 0.168841 0.058948
0.426115 0.166388 0.056362
0.431979 0.164613 0.054349
0.446502 0.164816 0.051804
0.469537 0.168750 0.050671
0.497642 0.179639 0.052957
0.519170 0.185660 0.054938
0.534449 0.190759 0.057746
0.559787 0.197059 0.062415
0.616315 0.209930 0.071958
0.674194 0.226590 0.084286
0.697590 0.233459 0.088105
0.714586 0.240087 0.092385
0.729807 0.246551 0.097494
0.751635 0.251053 0.100785
0.768935 0.252575 0.101709
0.784784 0.256502 0.105674
0.801365 0.261723 0.109984
0.810146 0.264965 0.112914
0.821336 0.272207 0.119945
0.828845 0.275517 0.124289
0.833616 0.275413 0.126714
0.845630 0.284953 0.138738
0.855868 0.292445 0.151032
0.859869 0.293715 0.154844
0.865732 0.297642 0.162843
0.872991 0.305420 0.172988
0.876671 0.309097 0.178644
0.877241 0.308940 0.179783
0.881167 0.313376 0.186125
0.883147 0.314398 0.188878
0.883195 0.314459 0.188964
0.883233 0.314509 0.189035
0.884707 0.317194 0.191733
0.885425 0.318596 0.193615
0.885441 0.318615 0.193643
0.885454 0.318631 0.193665
0.886898 0.321304 0.196048
0.888337 0.325154 0.199141
0.888343 0.325169 0.199155
0.888350 0.325184 0.199169
0.035092 0.133607 0.081008
0.035605 0.131496 0.078187
0.035444 0.131005 0.077752
0.035912 0.129024 0.075368
0.036093 0.128220 0.075100
0.036625 0.126492 0.073996
0.040124 0.126324 0.073458
0.048927 0.128084 0.074224
0.067467 0.131057 0.074695
0.084454 0.132964 0.074417
0.095607 0.135564 0.076357
0.112339 0.139283 0.078649
0.135531 0.147060 0.084061
0.165031 0.137166 0.075549
0.184573 0.132159 0.069418
0.195511 0.134789 0.070312
0.215246 0.141646 0.074167
0.254577 0.149921 0.076972
0.294092 0.165020 0.083753
0.307845 0.171371 0.087022
0.318041 0.176814 0.088790
0.345073 0.178274 0.083176
0.403286 0.180179 0.071202
0.425056 0.177605 0.064401
0.426214 0.175160 0.062240
0.432069 0.176525 0.062172
0.443926 0.177162 0.060393
0.473856 0.179779 0.057155
0.503659 0.188300 0.059171
0.525491 0.196176 0.062108
0.531056 0.195796 0.060271
0.554145 0.204926 0.065444
0.580014 0.209078 0.068623
0.644772 0.225319 0.082018
0.696098 0.237807 0.092309
0.718107 0.247039 0.098641
0.727375 0.249235 0.099718
0.741491 0.251339 0.100857
0.762590 0.252174 0.101059
0.787686 0.259683 0.107713
0.801267 0.264398 0.111425
0.813287 0.268367 0.115052
0.824478 0.275407 0.121867
0.828974 0.278519 0.125048
0.837112 0.284510 0.131861
0.845324 0.287878 0.139203
0.856290 0.296563 0.153159
0.861221 0.298558 0.158163
0.863333 0.298678 0.160513
0.872793 0.307208 0.173325
0.876454 0.310884 0.178444
0.877500 0.310723 0.180296
0.877579 0.310812 0.180430
0.881229 0.313503 0.186243
0.883202 0.315945 0.189473
0.884688 0.317202 0.191702
0.885412 0.318608 0.193594
0.886863 0.321984 0.196237
0.886878 0.322001 0.196263
0.888327 0.325163 0.199125
0.888336 0.325178 0.199143
0.888344 0.325190 0.199158
0.888350 0.325202 0.199170
0.888356 0.325213 0.199183
0.037998 0.141061 0.080582
0.037436 0.140055 0.080174
0.037238 0.139846 0.079953
0.036979 0.139580 0.079668
0.036616 0.137661 0.077987
0.036623 0.136468 0.076965
0.036880 0.136296 0.076920
0.048375 0.138124 0.076757
0.067432 0.141630 0.076505
0.084547 0.148196 0.078846
0.094018 0.150625 0.078146
0.102407 0.151018 0.078304
0.122011 0.156148 0.083326
0.144013 0.161499 0.089381
0.175866 0.165692 0.095395
0.196886 0.154820 0.086345
0.213622 0.151542 0.082622
0.239942 0.154782 0.082752
0.298261 0.169711 0.086440
0.314745 0.176835 0.089476
0.328362 0.182830 0.091826
0.335129 0.184037 0.091056
0.381928 0.186409 0.081158
0.432382 0.189878 0.071734
0.432527 0.187212 0.069756
0.433047 0.184967 0.067904
0.439703 0.182175 0.064672
0.446733 0.182877 0.063866
0.490775 0.192032 0.063739
0.516253 0.196486 0.062866
0.539611 0.204452 0.065661
0.550006 0.206509 0.066272
0.558104 0.209384 0.068365
0.600826 0.219552 0.075597
0.675941 0.239573 0.092994
0.716107 0.250521 0.102056
0.727727 0.255009 0.105972
0.738969 0.255649 0.105718
0.756203 0.258108 0.107126
0.787938 0.265465 0.113670
0.802270 0.268768 0.114314
0.815040 0.273402 0.118581
0.829073 0.283807 0.127353
0.832435 0.283929 0.128965
0.838590 0.289626 0.134528
0.843640 0.292048 0.139694
0.856457 0.300112 0.153602
0.859995 0.300877 0.157415
0.865457 0.306941 0.164877
0.872331 0.312825 0.174343
0.874584 0.310800 0.176146
0.876806 0.311819 0.179376
0.878077 0.313314 0.181433
0.881251 0.316477 0.186791
0.886069 0.322672 0.195415
0.886104 0.322698 0.195472
0.886839 0.323648 0.196936
0.888302 0.326099 0.199576
0.888317 0.326114 0.199602
0.888336 0.325213 0.199147
0.888345 0.325223 0.199164
0.888352 0.325232 0.199177
0.888357 0.325239 0.199188
0.888362 0.325247 0.199199
0.041447 0.151536 0.085461
0.041357 0.151350 0.085262
0.042697 0.153252 0.086074
0.042483 0.152776 0.085654
0.042344 0.150819 0.084788
0.041820 0.149362 0.083455
0.042437 0.144114 0.078619
0.044059 0.142783 0.077283
0.058935 0.146790 0.077926
0.082830 0.147603 0.074538
0.097241 0.153098 0.076592
0.103242 0.154708 0.075762
0.106006 0.157373 0.078387
0.122074 0.162696 0.083160
0.141651 0.169189 0.090295
0.175484 0.181809 0.105044
0.201726 0.179745 0.104485
0.247755 0.181849 0.102681
0.301202 0.188248 0.100459
0.327651 0.190435 0.097831
0.336704 0.190148 0.096217
0.341786 0.192038 0.096825
0.359786 0.195364 0.094892
0.415594 0.193661 0.078739
0.434593 0.193649 0.074260
0.434922 0.191751 0.072641
0.438255 0.191560 0.072029
0.446434 0.192140 0.070914
0.468874 0.190355 0.065387
0.505412 0.201054 0.067791
0.532070 0.204851 0.067001
0.544538 0.207350 0.067205
0.552079 0.208719 0.067692
0.569720 0.212834 0.070193
0.623575 0.228276 0.081799
0.715022 0.254307 0.105877
0.723972 0.254878 0.106285
0.735418 0.256327 0.106438
0.747112 0.260737 0.110119
0.776142 0.266257 0.113340
0.805901 0.277810 0.121648
0.821665 0.283962 0.124465
0.833846 0.293277 0.132865
0.838951 0.295334 0.136443
0.841341 0.295122 0.138219
0.845349 0.298642 0.142622
0.853841 0.306338 0.153179
0.861827 0.311204 0.162415
0.865896 0.313057 0.167253
0.870656 0.315797 0.173502
0.876291 0.318380 0.179814
0.876379 0.318451 0.179939
0.879071 0.318501 0.183878
0.883140 0.324355 0.191523
0.886521 0.325315 0.196591
0.886559 0.325331 0.196651
0.887558 0.326823 0.198843
0.887582 0.326839 0.198883
0.888315 0.326867 0.199852
0.888328 0.326874 0.199874
0.888341 0.326177 0.199653
0.890011 0.329294 0.202492
0.890017 0.329300 0.202503
0.890023 0.329307 0.202515
0.044236 0.172871 0.098138
0.047014 0.169720 0.094939
0.046937 0.169056 0.094467
0.046849 0.168209 0.093869
0.046982 0.162326 0.090061
0.046905 0.161250 0.089337
0.047760 0.159367 0.088055
0.049114 0.155300 0.084714
0.052267 0.155201 0.084446
0.070130 0.157217 0.084260
0.096236 0.157791 0.079773
0.105329 0.158537 0.077941
0.109027 0.157262 0.074568
0.113446 0.163628 0.078669
0.121687 0.168601 0.081822
0.143041 0.174837 0.089958
0.164458 0.181238 0.099726
0.208744 0.199098 0.116228
0.278049 0.204243 0.116209
0.329907 0.204685 0.108851
0.343549 0.203355 0.105535
0.350922 0.201880 0.102867
0.356132 0.203064 0.103149
0.379308 0.202062 0.095736
0.445345 0.205156 0.081173
0.445236 0.204531 0.080653
0.443097 0.199657 0.077205
0.448910 0.199482 0.075765
0.449656 0.196804 0.073770
0.479765 0.200549 0.071723
0.523068 0.206102 0.068602
0.531288 0.207798 0.069041
0.545763 0.208754 0.068102
0.565672 0.218334 0.074898
0.620919 0.240091 0.090248
0.674959 0.254746 0.103135
0.724748 0.264263 0.113222
0.731495 0.259301 0.109330
0.750085 0.264450 0.112494
0.792161 0.280305 0.122849
0.814591 0.293130 0.131945
0.838062 0.304144 0.139465
0.838227 0.302358 0.139105
0.839315 0.301496 0.139738
0.846891 0.309894 0.147603
0.850396 0.310730 0.151085
0.853121 0.313117 0.154309
0.857573 0.313931 0.159378
0.863738 0.314357 0.165662
0.872546 0.323621 0.178042
0.878171 0.328705 0.185776
0.879952 0.329240 0.187827
0.880736 0.328814 0.188607
0.883408 0.330292 0.193210
0.885589 0.332685 0.196830
