backend/3dlut-creator/demo/fuji_nc.cube
TITLE "3D LUT from Image Pairs"
LUT_3D_SIZE 4
0.019608 0.019608 0.019608
0.341426 0.074684 0.023558
0.821382 0.263577 0.120652
0.884766 0.316514 0.191592
0.004513 0.311294 0.182294
0.241330 0.290722 0.140802
0.893059 0.462325 0.273925
0.898455 0.396436 0.232820
0.014068 0.590195 0.290837
0.021226 0.598163 0.291507
0.593877 0.706539 0.340655
0.941383 0.760022 0.472330
0.296633 0.780701 0.344177
0.308291 0.793170 0.335897
0.388612 0.830630 0.324479
0.662651 0.874887 0.337856
0.093106 0.174645 0.381079
0.378666 0.171030 0.274951
0.801277 0.261750 0.262084
0.932791 0.349632 0.344857
0.006456 0.295488 0.319650
0.317647 0.333333 0.333333
0.780392 0.380392 0.294118
0.932662 0.353299 0.331991
0.136915 0.570913 0.405235
0.206699 0.603771 0.401403
0.699044 0.689022 0.434055
0.968627 0.725490 0.521569
0.202071 0.721848 0.348212
0.287539 0.764892 0.358366
0.397218 0.835285 0.337843
0.779864 0.911263 0.420591
0.637484 0.374274 0.583779
0.777312 0.396358 0.573542
0.886622 0.480995 0.648070
0.963675 0.472931 0.591107
0.223063 0.333132 0.571122
0.508235 0.429685 0.615925
0.832754 0.492788 0.622877
0.954077 0.453727 0.565747
0.238168 0.680317 0.762452
0.243137 0.690196 0.776471
0.796078 0.745098 0.729412
0.996079 0.752941 0.737255
0.361521 0.763397 0.624111
0.397485 0.777796 0.636294
0.565602 0.831388 0.671694
0.941176 0.984314 0.756863
0.879175 0.487487 0.656047
0.895611 0.504387 0.669945
0.939284 0.562394 0.717265
0.950120 0.581851 0.732810
0.189585 0.333650 0.633823
0.697955 0.461115 0.675329
0.929224 0.570622 0.725715
0.961195 0.608999 0.754833
0.606159 0.778213 0.966183
0.607332 0.777654 0.965450
0.888654 0.777598 0.869692
1.000000 0.836812 0.917703
0.517854 0.814206 0.881624
0.570284 0.846341 0.915315
0.768948 0.936831 0.998872
0.992157 0.988235 0.988235
