backend/3dlut-creator/demo/fuji_provia.cube
TITLE "3D LUT from Image Pairs"
LUT_3D_SIZE 8
0.019608 0.019608 0.023529
0.160483 0.046129 0.047388
0.342639 0.058313 0.066104
0.543823 0.091563 0.095314
0.754988 0.204726 0.193952
0.884496 0.259884 0.242619
0.919693 0.289201 0.269684
0.923249 0.295085 0.271589
0.042259 0.140557 0.041250
0.116801 0.143791 0.041354
0.363004 0.173010 0.083630
0.527044 0.162343 0.090623
0.737264 0.223537 0.183735
0.873542 0.261621 0.224728
0.921418 0.292809 0.269923
0.926841 0.304710 0.274470
0.026129 0.325391 0.037157
0.079414 0.277660 0.003599
0.230775 0.274793 0.007760
0.534616 0.332333 0.137890
0.716397 0.328587 0.196136
0.882129 0.331290 0.213647
0.920050 0.360959 0.249170
0.930985 0.345183 0.267564
0.009756 0.471990 0.053637
0.065903 0.461962 0.002232
0.200000 0.407843 0.000000
0.451148 0.468037 0.015496
0.659066 0.522176 0.111278
0.902409 0.517623 0.253075
0.955153 0.490761 0.248267
0.973788 0.508885 0.267108
0.023287 0.563374 0.000000
0.023406 0.563166 0.000000
0.046562 0.560504 0.000000
0.271530 0.566989 0.000000
0.534936 0.592118 0.033947
0.732747 0.605001 0.135744
0.956281 0.666670 0.261665
0.983715 0.648853 0.281660
0.159642 0.667355 0.000000
0.163582 0.670817 0.003161
0.178541 0.684605 0.003252
0.188463 0.703067 0.000000
0.366101 0.716676 0.000000
0.590285 0.753167 0.050766
0.925789 0.750537 0.266548
0.946181 0.740090 0.270093
0.203843 0.722853 0.000000
0.217085 0.737768 0.000000
0.237531 0.755523 0.000000
0.271364 0.778408 0.000000
0.326781 0.822446 0.000000
0.421202 0.867225 0.000000
0.616773 0.877697 0.032652
0.905977 0.777275 0.257446
0.313861 0.824954 0.000000
0.312775 0.826002 0.000000
0.322657 0.835884 0.000000
0.338868 0.848602 0.000000
0.375303 0.879036 0.000000
0.387278 0.887807 0.000000
0.445298 0.905177 0.000000
0.586098 0.905071 0.000000
0.035869 0.046733 0.159165
0.199249 0.062196 0.178693
0.333333 0.066667 0.152941
0.515379 0.074039 0.175157
0.679649 0.133671 0.189869
0.822333 0.208137 0.257727
0.915563 0.279193 0.275489
0.927977 0.292184 0.284814
0.015332 0.151601 0.149737
0.145098 0.149020 0.145098
0.321569 0.149020 0.145098
0.501961 0.156863 0.160784
0.674510 0.180392 0.192157
0.834254 0.232004 0.236830
0.916836 0.282874 0.269767
0.927193 0.298095 0.279893
0.040896 0.308902 0.109899
0.085173 0.272767 0.101994
0.266667 0.278431 0.098039
0.482353 0.282353 0.121569
0.692089 0.316549 0.186329
0.851027 0.301408 0.217154
0.922510 0.318157 0.262652
0.929082 0.313049 0.274550
0.000122 0.441818 0.084866
0.000108 0.431799 0.082914
0.149020 0.423529 0.047059
0.403135 0.431040 0.073409
0.629310 0.454044 0.162340
0.859923 0.488196 0.257535
0.939367 0.470123 0.241845
0.972944 0.505702 0.268425
0.010739 0.567225 0.000000
0.012156 0.566255 0.000209
0.021007 0.563893 0.001691
0.305882 0.564706 0.031372
0.504328 0.566318 0.044718
0.718119 0.586682 0.126609
0.946756 0.650500 0.261810
0.988013 0.612298 0.290623
0.142886 0.647471 0.000000
0.142952 0.647520 0.000000
0.151805 0.655976 0.000000
0.195093 0.687272 0.003566
0.376471 0.705882 0.000000
0.584985 0.724957 0.074033
0.921136 0.751353 0.267695
0.955714 0.731679 0.275111
0.198280 0.712839 0.000000
0.201998 0.716990 0.000000
0.216316 0.727302 0.000000
0.254109 0.764093 0.000000
0.314924 0.807959 0.000000
0.422587 0.855821 0.000109
0.640922 0.873475 0.058226
0.932625 0.766154 0.283133
0.305853 0.815659 0.000000
0.305950 0.815752 0.000000
0.314017 0.825109 0.000000
0.338651 0.848380 0.000000
0.362407 0.871940 0.000000
0.388160 0.889756 0.000000
0.442170 0.908046 0.000000
0.607003 0.908053 0.000000
0.060161 0.119882 0.367272
0.269245 0.117308 0.353818
0.369027 0.114922 0.376070
0.536226 0.129064 0.339960
0.698320 0.165925 0.356006
0.811222 0.223666 0.411272
0.980054 0.294227 0.412414
0.990695 0.307670 0.427072
0.040583 0.140788 0.295871
0.152941 0.137255 0.298039
0.341176 0.152941 0.321569
0.513725 0.168628 0.321569
0.657746 0.181770 0.314568
0.823816 0.234419 0.321394
0.973965 0.289287 0.403504
0.990709 0.307746 0.426909
0.000034 0.294128 0.274579
0.058823 0.301961 0.294118
0.298039 0.301961 0.298039
0.486274 0.298039 0.298039
0.658824 0.301961 0.309804
0.811765 0.309804 0.325490
0.911493 0.308507 0.341373
0.956416 0.306369 0.338816
0.002439 0.441735 0.241887
0.002719 0.438749 0.246471
0.185873 0.433626 0.247165
0.415686 0.435294 0.254902
0.613948 0.434386 0.261142
0.784314 0.427451 0.286275
0.929412 0.431373 0.317647
0.933286 0.374902 0.268168
0.000501 0.475803 0.104163
0.000556 0.477658 0.107503
0.087542 0.503084 0.142363
0.319336 0.563772 0.213827
0.548908 0.571287 0.228576
0.731074 0.593898 0.263443
0.889049 0.600998 0.292724
0.998412 0.568157 0.333406
0.072994 0.596742 0.003199
0.092121 0.603505 0.003277
0.142582 0.624667 0.025393
0.246256 0.664591 0.114703
0.407843 0.705882 0.152941
0.635019 0.702719 0.225324
0.862572 0.729349 0.294557
0.976817 0.714041 0.289478
0.205300 0.709535 0.003573
0.209103 0.710037 0.003573
0.214965 0.715624 0.003604
0.224772 0.721772 0.005835
0.372174 0.784159 0.115518
0.501961 0.847059 0.227451
0.714471 0.871684 0.249243
0.931661 0.791329 0.310886
0.270271 0.783245 0.000000
0.270360 0.783332 0.000000
0.312410 0.812478 0.000000
0.324062 0.821235 0.000000
0.354859 0.857106 0.000000
0.395816 0.897912 0.000000
0.464203 0.918795 0.000000
0.643425 0.920041 0.031540
0.025935 0.195223 0.565986
0.167044 0.194595 0.559520
0.520723 0.215833 0.581454
0.575279 0.190188 0.553865
0.755466 0.252331 0.561510
0.847303 0.253319 0.531359
0.890455 0.259384 0.538779
0.998242 0.355635 0.491364
0.050980 0.172549 0.478431
0.044016 0.173104 0.490484
0.371265 0.194677 0.501318
0.514130 0.202588 0.522384
0.719578 0.232628 0.514633
0.823806 0.241915 0.505751
0.881152 0.253593 0.525985
0.998336 0.356037 0.491875
0.000000 0.286275 0.462745
0.149020 0.301961 0.470588
0.321569 0.309804 0.478431
0.501961 0.305882 0.486274
0.667801 0.312343 0.479200
0.809928 0.349672 0.498319
0.956432 0.398041 0.533112
1.000000 0.367869 0.505016
0.000235 0.460394 0.478032
0.001699 0.450167 0.461320
0.219608 0.450980 0.447059
0.447059 0.450980 0.447059
0.623529 0.447059 0.447059
0.784314 0.443137 0.450980
0.925490 0.450981 0.470588
0.998922 0.410265 0.508789
0.207982 0.600530 0.445503
0.209873 0.597008 0.439171
0.223920 0.584783 0.424427
0.349020 0.568628 0.400000
0.560784 0.572549 0.407843
0.733333 0.572549 0.407843
0.886275 0.584314 0.435294
0.993547 0.563849 0.440010
0.247834 0.700820 0.388848
0.248568 0.697911 0.387259
0.248343 0.698106 0.387299
0.254657 0.706359 0.391399
0.446210 0.702661 0.372173
0.658824 0.705882 0.376471
0.850125 0.704587 0.384047
1.000000 0.721569 0.458824
0.272376 0.705506 0.232886
0.293430 0.721452 0.265707
0.299129 0.717229 0.221283
0.352734 0.740742 0.246707
0.427740 0.778013 0.295231
0.537549 0.838621 0.360787
0.776471 0.839216 0.384314
0.934989 0.822881 0.389224
0.224774 0.721751 0.005856
0.230645 0.724216 0.002242
0.243812 0.734372 0.002312
0.347158 0.792523 0.076662
0.402603 0.826255 0.123399
0.519481 0.908189 0.178546
0.565494 0.955689 0.107515
0.750350 0.962370 0.212138
0.048133 0.258704 0.674878
0.481474 0.256665 0.665888
0.618513 0.274584 0.691504
0.667386 0.280985 0.716003
0.708898 0.282656 0.724165
0.874454 0.355622 0.731672
0.970993 0.354217 0.691568
0.953991 0.325867 0.652801
0.044860 0.248249 0.657905
0.044587 0.247664 0.657003
0.552588 0.255458 0.645958
0.599546 0.266239 0.674682
0.686159 0.268630 0.690132
0.849461 0.334953 0.700980
0.961886 0.337866 0.670862
0.946670 0.317046 0.637099
0.176551 0.304286 0.622912
0.239216 0.309804 0.619608
0.381969 0.325160 0.637300
0.521569 0.325490 0.643137
0.663362 0.337970 0.652725
0.798639 0.320401 0.633512
0.932784 0.369736 0.648556
0.934331 0.307603 0.614844
0.050425 0.446781 0.616904
0.085324 0.441617 0.613294
0.274510 0.447059 0.611765
0.462745 0.454902 0.607843
0.635294 0.454902 0.611765
0.787095 0.461511 0.610559
0.906730 0.472832 0.603954
0.999894 0.485975 0.625002
0.006960 0.578164 0.571477
0.006679 0.577780 0.571009
0.086708 0.579642 0.575450
0.372549 0.580392 0.580392
0.580392 0.580392 0.580392
0.749019 0.580392 0.580392
0.906849 0.577848 0.593572
0.998211 0.569933 0.593832
0.261667 0.680114 0.480242
0.261659 0.680129 0.480245
0.268164 0.680903 0.486670
0.297174 0.694802 0.505171
0.486274 0.705882 0.541176
0.690196 0.709804 0.549020
0.863958 0.718337 0.557432
0.997046 0.702574 0.557286
0.279019 0.745668 0.413146
0.279076 0.745734 0.413183
0.279320 0.746012 0.413336
0.302783 0.763941 0.426377
0.361798 0.792417 0.453549
0.572549 0.839216 0.509804
0.787970 0.843559 0.536336
0.948456 0.831088 0.530587
0.308627 0.767030 0.426962
0.311786 0.768500 0.427698
0.344451 0.783174 0.435901
0.365545 0.787959 0.425706
0.500766 0.839119 0.364630
0.577271 0.883130 0.392825
0.701079 0.962963 0.461299
0.837230 0.994699 0.425892
0.665664 0.310946 0.754246
0.693186 0.309676 0.754439
0.711702 0.316493 0.766353
0.736442 0.327920 0.783896
0.785714 0.358952 0.820877
0.871888 0.411949 0.870534
0.932842 0.453867 0.883763
0.993117 0.428022 0.771145
0.067414 0.296640 0.728188
0.157876 0.301902 0.734569
0.672866 0.302729 0.740639
0.708047 0.319832 0.767416
0.755821 0.340451 0.799028
0.865467 0.405528 0.864728
0.948034 0.448494 0.847216
0.994239 0.428909 0.770516
0.077937 0.322339 0.765490
0.076605 0.318756 0.759479
0.075204 0.312811 0.748217
0.617834 0.361153 0.753861
0.700822 0.346774 0.770777
0.809460 0.399637 0.822817
0.947732 0.431757 0.813039
0.995349 0.430919 0.771783
0.129091 0.462776 0.777560
0.203302 0.455947 0.765981
0.360784 0.478431 0.784314
0.506113 0.476921 0.772855
0.658823 0.478431 0.772549
0.803922 0.490196 0.780392
0.954923 0.532536 0.795825
0.984979 0.505008 0.781388
0.098286 0.587474 0.781734
0.115341 0.585524 0.773952
0.243137 0.580392 0.752941
0.423529 0.584314 0.752941
0.603921 0.596078 0.745098
0.765911 0.597845 0.746279
0.905743 0.610523 0.749154
0.991447 0.590890 0.712193
0.146692 0.670824 0.671567
0.150953 0.672260 0.673225
0.168803 0.680076 0.683014
0.285973 0.705705 0.727196
0.525490 0.713726 0.713726
0.713725 0.717647 0.713725
0.877230 0.721803 0.721231
1.000000 0.717647 0.737255
0.345691 0.759442 0.552701
0.345752 0.759523 0.552760
0.349571 0.762390 0.556697
0.364309 0.776945 0.565807
0.419176 0.789548 0.594220
0.600000 0.847059 0.670588
0.827451 0.843137 0.698039
0.978183 0.841180 0.693483
0.311531 0.769648 0.431363
0.311605 0.769693 0.431400
0.332634 0.779656 0.445939
0.347663 0.787634 0.452539
0.417558 0.816285 0.492292
0.526798 0.855502 0.543684
0.744067 0.954599 0.628519
0.945098 1.000000 0.713725
0.761948 0.352487 0.810717
0.765909 0.352566 0.811744
0.772596 0.356053 0.816227
0.788907 0.368839 0.830716
0.839334 0.398219 0.859551
0.899584 0.440840 0.895264
0.915238 0.455191 0.905531
0.934159 0.467428 0.905053
0.554575 0.339270 0.784858
0.710051 0.344778 0.797006
0.744489 0.347680 0.802053
0.783836 0.368462 0.829445
0.818715 0.387345 0.849865
0.896893 0.439241 0.894408
0.915805 0.455564 0.905899
0.934925 0.468053 0.905051
0.073323 0.309315 0.744005
0.073296 0.309248 0.743902
0.158267 0.313059 0.747630
0.735300 0.351215 0.800619
0.791601 0.392322 0.847059
0.856500 0.423812 0.880528
0.926064 0.466925 0.914837
0.979319 0.498561 0.876424
0.151970 0.334626 0.754695
0.152363 0.334230 0.756030
0.283115 0.367000 0.773066
0.621375 0.476582 0.832412
0.699572 0.483482 0.853945
0.834512 0.506066 0.886693
0.949442 0.564022 0.941883
0.999241 0.542245 0.875687
0.069129 0.584491 0.890553
0.119024 0.578537 0.882017
0.335905 0.590030 0.887565
0.453025 0.635362 0.937499
0.632634 0.609393 0.884003
0.805032 0.628120 0.911977
0.941381 0.649592 0.905903
1.000000 0.646566 0.892209
0.007864 0.723994 0.957699
0.028113 0.725995 0.954066
0.169969 0.721971 0.926283
0.356863 0.717647 0.894118
0.560784 0.721569 0.886275
0.745098 0.737255 0.882353
0.904889 0.752639 0.895942
0.999590 0.758522 0.905842
0.242798 0.704945 0.711042
0.256292 0.710490 0.714275
0.286352 0.721233 0.719383
0.363055 0.746086 0.728231
0.448174 0.769700 0.760566
0.665958 0.844849 0.837804
0.854902 0.854902 0.854902
1.000000 0.858824 0.862745
0.372948 0.792285 0.567238
0.373013 0.792338 0.567272
0.379853 0.798452 0.570467
0.394555 0.806820 0.577760
0.466117 0.842814 0.609583
0.561973 0.872087 0.654715
0.790602 0.957303 0.776263
0.959413 0.994988 0.822501
0.802920 0.380377 0.842598
0.818623 0.388765 0.850329
0.826630 0.391809 0.853833
0.852662 0.409455 0.869721
0.890556 0.436721 0.892284
0.904093 0.446066 0.899290
0.916037 0.457583 0.907235
0.921431 0.463316 0.911006
0.795797 0.379662 0.840137
0.799228 0.381629 0.842825
0.799314 0.381678 0.842879
0.827858 0.395734 0.857274
0.878570 0.429143 0.885969
0.904164 0.446175 0.899384
0.916261 0.457822 0.907442
0.921721 0.463652 0.911283
0.416197 0.335956 0.779185
0.466485 0.346365 0.792148
0.735043 0.386817 0.841429
0.811875 0.400471 0.857980
0.836433 0.416871 0.873264
0.904102 0.451571 0.903754
0.925228 0.468829 0.914923
0.936892 0.486005 0.926517
0.080876 0.315260 0.748728
0.080844 0.315231 0.748703
0.203903 0.330135 0.762006
0.534043 0.406556 0.813512
0.861138 0.482935 0.912983
0.893933 0.509990 0.935452
0.939325 0.521814 0.948945
0.954834 0.520288 0.947380
0.326939 0.663354 0.997093
0.327304 0.663339 0.997055
0.339545 0.664201 0.996957
0.433098 0.641885 0.969484
0.683550 0.553222 0.880154
0.812125 0.572497 0.913241
0.976737 0.642133 0.987489
0.992833 0.634615 0.983698
0.040545 0.673165 0.955245
0.081758 0.672803 0.955529
0.323398 0.694455 0.989051
0.382272 0.711189 1.000000
0.535822 0.722975 0.996064
0.748494 0.723518 0.969365
0.931265 0.735724 0.983746
1.000000 0.761394 0.994030
0.022882 0.779321 0.990296
0.044533 0.786507 0.993124
0.076309 0.796565 0.995546
0.160395 0.816996 0.996726
0.317034 0.838418 0.999531
0.633979 0.846202 0.998985
0.874181 0.869647 1.000000
1.000000 0.857937 0.988864
0.336226 0.778746 0.803753
0.340744 0.780420 0.807285
0.362355 0.811762 0.856754
0.383888 0.827706 0.877656
0.448155 0.886966 0.983965
0.587086 0.925946 0.999734
0.763657 0.952903 0.995180
0.992157 0.992157 0.992157
