backend/3dlut-creator/demo/panasonic.cube
TITLE "3D LUT from Image Pairs"
LUT_3D_SIZE 8
0.011062 0.012060 0.013968
0.146263 0.015255 0.014424
0.324463 0.007592 0.021055
0.507516 0.004629 0.031901
0.660952 0.016836 0.034319
0.780961 0.038729 0.037553
0.873535 0.063604 0.052325
0.933189 0.086176 0.064840
0.000000 0.121569 0.000000
0.113412 0.125639 0.004705
0.297866 0.104396 0.009520
0.457749 0.103494 0.028630
0.654958 0.056306 0.041395
0.791992 0.063751 0.046953
0.900956 0.074984 0.053750
0.953187 0.108502 0.070009
0.006723 0.215062 0.002186
0.049130 0.284901 0.001618
0.258926 0.278605 0.000000
0.438035 0.261143 0.000160
0.561149 0.275086 0.000000
0.684871 0.274566 0.004982
0.801104 0.249740 0.018212
0.957674 0.135513 0.073911
0.026251 0.362332 0.037383
0.099904 0.397748 0.001567
0.178286 0.451832 0.000662
0.398045 0.426959 0.000000
0.561671 0.415563 0.000000
0.672279 0.431629 0.003802
0.760856 0.418871 0.000221
0.816892 0.544516 0.000000
0.042365 0.400633 0.058160
0.148830 0.474760 0.006097
0.221419 0.542016 0.012282
0.309804 0.584314 0.019608
0.519322 0.551092 0.003596
0.675349 0.553420 0.001461
0.787087 0.550706 0.000121
0.858721 0.622954 0.000000
0.106641 0.452810 0.031466
0.220576 0.550227 0.029880
0.278532 0.622411 0.037436
0.314518 0.655430 0.027947
0.414368 0.718558 0.028968
0.607879 0.702700 0.017033
0.790800 0.718666 0.004772
0.887849 0.689452 0.000000
0.241906 0.571073 0.046146
0.279828 0.626965 0.047535
0.295350 0.652545 0.056749
0.379081 0.709679 0.031577
0.452777 0.776220 0.030304
0.538755 0.838584 0.033834
0.650664 0.855149 0.035983
0.893069 0.795370 0.000226
0.284737 0.628675 0.056596
0.294775 0.650070 0.056626
0.336910 0.688716 0.059330
0.432362 0.765842 0.030875
0.500500 0.821047 0.031097
0.584383 0.868400 0.041402
0.633434 0.892066 0.061605
0.893275 0.824676 0.003783
0.007517 0.021145 0.177873
0.144567 0.043724 0.120140
0.326618 0.011332 0.120487
0.523479 0.000934 0.126106
0.659160 0.007268 0.142093
0.796040 0.046312 0.073517
0.901779 0.071045 0.063402
0.951883 0.097627 0.076713
0.006000 0.152359 0.138218
0.126646 0.131233 0.131945
0.306663 0.100723 0.122112
0.491398 0.093829 0.120415
0.656112 0.095938 0.116504
0.806264 0.081597 0.070046
0.919301 0.073141 0.059987
0.971794 0.125968 0.082099
0.005538 0.249959 0.121128
0.071402 0.293180 0.087075
0.270070 0.285848 0.077641
0.456422 0.251900 0.075372
0.621837 0.226321 0.110365
0.763965 0.221713 0.113030
0.884954 0.202480 0.120804
0.959892 0.154914 0.081544
0.020406 0.381124 0.074039
0.044532 0.409194 0.090053
0.205557 0.447663 0.086225
0.410998 0.433716 0.037219
0.550717 0.420858 0.078925
0.706717 0.397987 0.044637
0.815678 0.383467 0.070909
0.932088 0.300879 0.130242
0.036189 0.410579 0.091604
0.069137 0.420415 0.098513
0.246654 0.547073 0.087588
0.338158 0.583301 0.090094
0.521777 0.568427 0.049329
0.681661 0.554678 0.048188
0.802543 0.531068 0.016991
0.874773 0.589981 0.018243
0.037585 0.425242 0.110765
0.240784 0.571880 0.099708
0.294260 0.612562 0.102345
0.342354 0.667076 0.119609
0.439917 0.720349 0.116416
0.635808 0.690058 0.069109
0.790377 0.719765 0.065557
0.913152 0.697482 0.000452
0.223772 0.568877 0.111596
0.295747 0.617403 0.103090
0.330103 0.661076 0.117145
0.405332 0.718160 0.114264
0.474801 0.780443 0.134065
0.559686 0.842169 0.089489
0.739774 0.846025 0.043239
0.922269 0.842140 0.000789
0.274757 0.619270 0.107877
0.322307 0.655435 0.111529
0.365687 0.692931 0.117138
0.451953 0.760602 0.148762
0.515859 0.820593 0.141356
0.602477 0.891719 0.094622
0.688464 0.934508 0.102379
0.855587 0.919222 0.060459
0.073239 0.065646 0.358353
0.158056 0.105012 0.337363
0.365716 0.053014 0.223736
0.522895 0.059331 0.256069
0.657209 0.025221 0.185587
0.812847 0.079418 0.222806
0.862331 0.085680 0.247475
0.965247 0.109175 0.083679
0.036422 0.139384 0.379997
0.189658 0.157492 0.357675
0.314313 0.166643 0.319370
0.507527 0.115898 0.296046
0.633701 0.149863 0.279518
0.791510 0.133464 0.261803
0.878831 0.129260 0.276587
0.983136 0.132453 0.104157
0.023569 0.317485 0.322946
0.098305 0.315560 0.309858
0.295759 0.302207 0.300184
0.472068 0.263958 0.284341
0.625814 0.246969 0.275029
0.752605 0.254727 0.275170
0.883965 0.252987 0.252659
0.989903 0.195387 0.142023
0.038302 0.373888 0.360523
0.030638 0.447787 0.288814
0.217108 0.452958 0.266655
0.425580 0.444120 0.232694
0.579352 0.418284 0.218162
0.719815 0.400355 0.227227
0.846510 0.391735 0.244432
0.955807 0.353158 0.187395
0.037489 0.467016 0.340012
0.123731 0.492800 0.296823
0.286344 0.527862 0.247981
0.356582 0.582382 0.232893
0.540521 0.560094 0.195751
0.678628 0.557142 0.211141
0.809264 0.540997 0.212545
0.915215 0.552942 0.225470
0.067826 0.498109 0.373379
0.219627 0.527146 0.295993
0.339907 0.604340 0.196701
0.383939 0.664625 0.218250
0.457622 0.713060 0.243573
0.638556 0.694154 0.210328
0.801413 0.697680 0.218697
0.919967 0.692186 0.137197
0.164378 0.566844 0.440746
0.299086 0.603198 0.206176
0.372052 0.662762 0.199474
0.427875 0.720401 0.229274
0.496327 0.777445 0.259718
0.575415 0.839037 0.288291
0.760326 0.841782 0.262840
0.959310 0.833675 0.069549
0.229146 0.645145 0.553018
0.357830 0.659323 0.174979
0.414445 0.712293 0.214909
0.474061 0.765258 0.255695
0.539446 0.826200 0.277214
0.626776 0.882701 0.298828
0.732018 0.956723 0.220941
0.825381 0.977595 0.185683
0.159620 0.127634 0.473882
0.239688 0.154082 0.509127
0.308793 0.192052 0.533043
0.531308 0.091194 0.303024
0.614737 0.138189 0.300235
0.840310 0.097714 0.266340
0.867061 0.111487 0.280439
0.927149 0.142517 0.221874
0.120303 0.171104 0.572087
0.260558 0.191480 0.546169
0.336360 0.218109 0.544599
0.450554 0.229985 0.433841
0.606626 0.225229 0.369826
0.805198 0.213822 0.355257
0.858187 0.193748 0.355084
0.975222 0.197867 0.206060
0.088894 0.320709 0.512822
0.159014 0.306866 0.545260
0.346029 0.309576 0.518510
0.466304 0.324254 0.484856
0.625955 0.310644 0.437857
0.746502 0.310847 0.414468
0.875267 0.280055 0.406711
0.984843 0.290415 0.303536
0.124999 0.398151 0.503841
0.129133 0.463652 0.463211
0.246572 0.474394 0.462715
0.450980 0.454902 0.454902
0.594021 0.426984 0.437929
0.736187 0.406081 0.432561
0.856916 0.406655 0.430409
0.996085 0.320212 0.298776
0.125475 0.476038 0.535285
0.134811 0.529807 0.467760
0.237030 0.572068 0.481740
0.387058 0.578051 0.412252
0.549020 0.568627 0.392157
0.691049 0.552599 0.385223
0.821173 0.548020 0.392216
0.973890 0.522456 0.360827
0.163671 0.547339 0.567242
0.224695 0.624353 0.556309
0.256311 0.633549 0.522049
0.418908 0.637769 0.394739
0.503938 0.699466 0.394236
0.656873 0.691586 0.369658
0.796015 0.693972 0.379137
0.948515 0.678739 0.375112
0.219189 0.644492 0.569657
0.248245 0.664013 0.596016
0.266524 0.677290 0.610086
0.469784 0.713589 0.346046
0.545012 0.773535 0.388936
0.603674 0.837919 0.406060
0.766893 0.844727 0.396676
0.985273 0.829814 0.196313
0.255128 0.671051 0.602139
0.262877 0.681825 0.614379
0.298225 0.715392 0.655818
0.519977 0.775954 0.346288
0.585031 0.836341 0.391354
0.641877 0.890986 0.406240
0.736223 0.944138 0.419532
0.866862 0.983654 0.319167
0.146434 0.194684 0.655417
0.315359 0.218708 0.667721
0.372770 0.233082 0.686064
0.422824 0.267488 0.695127
0.579272 0.240389 0.467735
0.830217 0.195203 0.369844
0.854855 0.188107 0.354507
0.887548 0.185189 0.327750
0.060977 0.217687 0.726156
0.332970 0.245455 0.707558
0.397076 0.254194 0.702189
0.465957 0.305750 0.710087
0.597190 0.314696 0.567508
0.779032 0.296716 0.458378
0.849588 0.275059 0.425641
0.943234 0.283538 0.364558
0.121484 0.303623 0.758750
0.266259 0.324266 0.717322
0.400238 0.328868 0.691999
0.494007 0.352770 0.672572
0.616583 0.361857 0.575499
0.715006 0.385022 0.534259
0.836151 0.377504 0.500266
0.992907 0.296681 0.325395
0.162690 0.476387 0.671252
0.211486 0.475495 0.653906
0.298595 0.464380 0.662574
0.482353 0.462745 0.627451
0.587443 0.467790 0.610610
0.712846 0.440206 0.598615
0.830633 0.452897 0.563489
0.985598 0.316591 0.351037
0.189486 0.519499 0.723557
0.233670 0.543359 0.672508
0.252333 0.613782 0.578527
0.407843 0.592157 0.611765
0.572549 0.576471 0.576471
0.711506 0.555565 0.569696
0.830552 0.551146 0.551804
0.995838 0.315194 0.292418
0.214748 0.552332 0.756773
0.247746 0.663982 0.595876
0.269919 0.681233 0.616420
0.395262 0.672734 0.595393
0.536739 0.691729 0.543335
0.678410 0.696469 0.538907
0.813516 0.694051 0.533970
0.974641 0.656174 0.502263
0.246887 0.642810 0.665340
0.262845 0.681911 0.614445
0.307419 0.730167 0.674978
0.356164 0.758288 0.708498
0.577754 0.746320 0.543319
0.659980 0.826121 0.535221
0.792157 0.835294 0.525490
0.985590 0.825287 0.518598
0.268027 0.693068 0.628314
0.301197 0.728417 0.674480
0.328197 0.764027 0.718190
0.371027 0.800228 0.755596
0.631073 0.841541 0.498758
0.685396 0.895375 0.515106
0.759823 0.961144 0.528083
0.933761 0.976236 0.468473
0.138397 0.232763 0.747060
0.349732 0.260783 0.751734
0.407049 0.276819 0.751698
0.475694 0.320189 0.786219
0.539144 0.352257 0.787105
0.656406 0.327223 0.638115
0.847014 0.268931 0.423720
0.890174 0.263319 0.396022
0.091610 0.292511 0.833269
0.367406 0.303702 0.803495
0.440874 0.332475 0.816751
0.512950 0.344676 0.806133
0.561867 0.386349 0.819555
0.665233 0.394351 0.639531
0.824647 0.370456 0.513946
0.902625 0.357589 0.462821
0.107412 0.354615 0.911574
0.341011 0.377228 0.858068
0.456832 0.377318 0.853159
0.549798 0.384416 0.836484
0.589868 0.431249 0.824094
0.695221 0.454850 0.650427
0.822269 0.451406 0.595114
0.945428 0.367083 0.437353
0.182471 0.481372 0.875007
0.240480 0.478492 0.855317
0.365587 0.478104 0.834572
0.530530 0.481997 0.805851
0.630332 0.490542 0.780776
0.702729 0.501011 0.699418
0.824114 0.536337 0.670291
0.947704 0.435182 0.486050
0.221144 0.563059 0.862743
0.275471 0.592934 0.834312
0.330377 0.613309 0.789649
0.438969 0.601584 0.786488
0.613165 0.593177 0.751112
0.721288 0.594054 0.738745
0.840432 0.596994 0.713530
0.959763 0.507058 0.533313
0.229028 0.576543 0.884563
0.307898 0.633065 0.871921
0.324635 0.729493 0.716876
0.357516 0.762539 0.725346
0.535182 0.724178 0.726016
0.705668 0.710805 0.709766
0.842322 0.698566 0.700040
0.982476 0.605235 0.589196
0.256150 0.608181 0.882782
0.313553 0.737545 0.703781
0.327343 0.772338 0.732614
0.363841 0.810877 0.772423
0.508179 0.819391 0.764004
0.706942 0.804045 0.704159
0.817724 0.841338 0.681923
0.952715 0.832085 0.682754
0.299558 0.700684 0.796907
0.325706 0.773069 0.733345
0.348696 0.802051 0.763802
0.401248 0.835250 0.797520
0.495537 0.856679 0.814015
0.755074 0.895974 0.648606
0.815707 0.956519 0.679258
0.956357 0.978374 0.680826
0.133658 0.307707 0.864075
0.379403 0.316459 0.820640
0.438081 0.352451 0.849012
0.526910 0.378402 0.863310
0.566052 0.397589 0.867352
0.586468 0.419100 0.878872
0.721082 0.417809 0.725613
0.863574 0.349384 0.501994
0.123189 0.385489 0.951368
0.404637 0.361836 0.866401
0.460390 0.386309 0.876451
0.558903 0.410773 0.890546
0.583086 0.421410 0.889403
0.638326 0.479532 0.894131
0.723085 0.507875 0.811131
0.858895 0.427929 0.564672
0.152123 0.431507 0.982260
0.298351 0.420551 0.925093
0.488981 0.436257 0.903332
0.574325 0.441730 0.910290
0.628730 0.484327 0.915330
0.679733 0.520255 0.888294
0.749325 0.545556 0.817826
0.868422 0.536865 0.670803
0.179898 0.494658 0.994819
0.283706 0.547862 0.966067
0.486515 0.516255 0.934565
0.592329 0.530559 0.933615
0.675068 0.539942 0.925913
0.714980 0.566305 0.887450
0.798910 0.619457 0.866391
0.874067 0.632584 0.773537
0.222946 0.591872 0.996336
0.272285 0.615067 0.959475
0.356846 0.636059 0.951256
0.452661 0.627110 0.951501
0.669418 0.627168 0.919448
0.763057 0.627367 0.913008
0.830237 0.658393 0.851434
0.920993 0.672197 0.772637
0.240785 0.625340 0.998051
0.313218 0.663548 0.944043
0.375048 0.700180 0.938900
0.454866 0.735815 0.920162
0.571826 0.739849 0.910942
0.755235 0.734548 0.885928
0.860603 0.735715 0.869662
0.959248 0.743358 0.799097
0.247830 0.630715 0.993684
0.341540 0.690394 0.942178
0.373255 0.766491 0.876963
0.397365 0.829297 0.805118
0.501848 0.865987 0.840103
0.671092 0.867126 0.863700
0.850015 0.856068 0.854984
0.971523 0.845726 0.843411
0.302864 0.668953 0.967761
0.351016 0.776589 0.830618
0.371436 0.820608 0.784842
0.435747 0.849616 0.812774
0.540324 0.884195 0.855451
0.671218 0.915759 0.880150
0.854235 0.941313 0.850990
0.983001 0.972239 0.851121
0.174930 0.401088 0.958983
0.405699 0.362209 0.866136
0.478145 0.393019 0.888042
0.557447 0.424833 0.902847
0.589007 0.437387 0.906779
0.626427 0.477452 0.921759
0.655086 0.500038 0.911842
0.764351 0.504824 0.777530
0.195730 0.469184 0.995442
0.278900 0.434808 0.957730
0.508540 0.432516 0.910334
0.571544 0.445515 0.915284
0.618908 0.478893 0.927421
0.655094 0.509037 0.925538
0.706989 0.551512 0.917750
0.793787 0.593705 0.853860
0.238581 0.506519 1.000000
0.264467 0.517060 0.996198
0.520783 0.485079 0.932768
0.595270 0.498376 0.938257
0.648287 0.517704 0.938511
0.693975 0.557494 0.942833
0.757062 0.604287 0.923398
0.811967 0.629786 0.876653
0.256647 0.565022 1.000000
0.296623 0.619203 1.000000
0.342651 0.643193 0.998547
0.623067 0.576320 0.957449
0.688423 0.595512 0.964588
0.741141 0.627011 0.966608
0.786927 0.648622 0.942257
0.842954 0.664363 0.868681
0.256760 0.618707 1.000000
0.306710 0.641246 1.000000
0.335560 0.670997 1.000000
0.367671 0.721954 0.999259
0.711635 0.658791 0.980661
0.780879 0.685826 0.980113
0.822642 0.722153 0.975769
0.894497 0.741032 0.896295
0.257426 0.623983 1.000000
0.316508 0.668083 1.000000
0.348477 0.714223 1.000000
0.395254 0.760762 0.999786
0.488817 0.794906 1.000000
0.800419 0.773657 0.993344
0.870547 0.795166 0.989187
0.937189 0.825243 0.927780
0.267784 0.647612 0.998496
0.329053 0.689885 0.998820
0.383591 0.742427 0.997041
0.507853 0.800306 0.995782
0.570598 0.844458 0.998141
0.682738 0.879090 0.999245
0.897982 0.883225 0.993658
0.966529 0.908439 0.958123
0.293380 0.670751 0.998489
0.363462 0.722005 0.990514
0.472387 0.784416 0.987339
0.546046 0.831298 0.993954
0.618918 0.881974 0.997539
0.705352 0.930881 0.993366
0.815063 0.973855 0.996883
0.983390 0.982099 0.985686
