backend/3dlut-creator/demo/panasonic.cube
TITLE "3D LUT from Image Pairs"
LUT_3D_SIZE 64
0.011062 0.012060 0.013968
0.016052 0.010207 0.011317
0.024238 0.010061 0.009602
0.038458 0.009487 0.010398
0.055030 0.011906 0.010589
0.072488 0.013029 0.011932
0.089656 0.014338 0.013023
0.109659 0.014536 0.013465
0.125699 0.014931 0.013513
0.146263 0.015255 0.014424
0.165071 0.015645 0.014715
0.182869 0.015606 0.016118
0.207843 0.000000 0.000000
0.223783 0.014240 0.017490
0.242702 0.013224 0.017994
0.259505 0.015112 0.019742
0.289028 0.011556 0.020125
0.307041 0.008493 0.021808
0.324463 0.007592 0.021055
0.342622 0.007008 0.022079
0.367546 0.006680 0.022428
0.396681 0.005538 0.025704
0.420051 0.004394 0.025846
0.444604 0.003755 0.028359
0.450814 0.003917 0.028502
0.474448 0.004175 0.028943
0.487285 0.004382 0.030723
0.507516 0.004629 0.031901
0.544282 0.008010 0.030151
0.562021 0.009411 0.025815
0.574017 0.010188 0.027113
0.589244 0.011182 0.030384
0.600901 0.011369 0.031405
0.606486 0.011536 0.030091
0.625765 0.011469 0.033188
0.643845 0.014594 0.032972
0.660952 0.016836 0.034319
0.687542 0.018248 0.034431
0.711943 0.023160 0.033776
0.734076 0.026182 0.033914
0.741323 0.027505 0.035114
0.751601 0.030013 0.034611
0.757801 0.031624 0.035572
0.762434 0.032643 0.036675
0.769520 0.034705 0.037141
0.780961 0.038729 0.037553
0.791677 0.041306 0.039404
0.798168 0.042922 0.040822
0.802578 0.043429 0.041998
0.810761 0.045453 0.043638
0.822851 0.049504 0.046419
0.844018 0.055188 0.051013
0.848443 0.056644 0.051364
0.859635 0.061589 0.053102
0.873535 0.063604 0.052325
0.889161 0.066609 0.056548
0.901176 0.069790 0.057546
0.901646 0.069874 0.057614
0.908130 0.073485 0.058141
0.918485 0.078515 0.061456
0.924694 0.080486 0.063108
0.927858 0.082698 0.063602
0.931221 0.084898 0.064331
0.933189 0.086176 0.064840
0.010294 0.016452 0.014551
0.015263 0.014336 0.011353
0.024127 0.014285 0.009901
0.037920 0.014553 0.009679
0.054568 0.014842 0.010878
0.072920 0.016426 0.012528
0.090843 0.016927 0.013607
0.109871 0.017434 0.013805
0.128455 0.016307 0.013309
0.145781 0.017598 0.014811
0.166397 0.018333 0.016280
0.185469 0.019002 0.017207
0.203616 0.017259 0.017404
0.227827 0.016556 0.018400
0.242807 0.017307 0.019428
0.262235 0.017309 0.019557
0.289381 0.016022 0.018029
0.303097 0.012784 0.018852
0.323894 0.010954 0.018502
0.347078 0.010548 0.020534
0.373754 0.009787 0.021074
0.395792 0.008223 0.021840
0.419824 0.005572 0.024259
0.442435 0.005550 0.025747
0.456733 0.005905 0.024594
0.481864 0.005564 0.023362
0.496516 0.006270 0.025540
0.519001 0.006553 0.026404
0.549791 0.008869 0.025344
0.566152 0.011442 0.026188
0.577566 0.011611 0.027450
0.585142 0.011774 0.029510
0.599623 0.011956 0.030617
0.606380 0.011708 0.030076
0.624315 0.013096 0.031932
0.652514 0.016734 0.034798
0.666139 0.017510 0.034068
0.692373 0.019501 0.034934
0.712246 0.022854 0.034127
0.735616 0.026680 0.033669
0.741966 0.027765 0.034952
0.753986 0.030676 0.034994
0.760878 0.032704 0.036067
0.765691 0.033725 0.036620
0.780256 0.038448 0.037524
0.781470 0.038703 0.037735
0.795923 0.041934 0.040834
0.799808 0.042936 0.041585
0.802941 0.043475 0.042104
0.811054 0.045502 0.043717
0.827764 0.050681 0.047804
0.844208 0.055264 0.051043
0.854177 0.059949 0.052089
0.866467 0.064509 0.054082
0.878729 0.065533 0.053023
0.891963 0.064806 0.056527
0.901348 0.069780 0.057531
0.901841 0.069869 0.057602
0.911344 0.075130 0.059291
0.918608 0.078531 0.061432
0.924758 0.080504 0.063073
0.931155 0.084803 0.064267
0.931242 0.084906 0.064302
0.933214 0.086192 0.064819
0.010517 0.025687 0.013809
0.014966 0.024630 0.012744
0.023134 0.024496 0.011149
0.034110 0.022999 0.010175
0.049344 0.022721 0.010573
0.066880 0.022594 0.011109
0.088564 0.024287 0.012545
0.105189 0.024648 0.013170
0.128563 0.023774 0.014688
0.142286 0.022155 0.015518
0.163283 0.024600 0.017424
0.179559 0.022082 0.017510
0.197920 0.024747 0.018675
0.224288 0.024221 0.020002
0.242537 0.022262 0.019768
0.264979 0.022699 0.019399
0.285124 0.021266 0.018530
0.301698 0.017804 0.017512
0.326134 0.016949 0.018790
0.351832 0.016664 0.018041
0.378060 0.013038 0.019523
0.395942 0.011698 0.020170
0.417438 0.009145 0.021916
0.436136 0.007968 0.023626
0.458776 0.007771 0.023826
0.479966 0.008059 0.022170
0.501836 0.008435 0.021716
0.525479 0.008635 0.023441
0.551613 0.010006 0.024713
0.565572 0.012081 0.025904
0.577673 0.012054 0.027300
0.588098 0.012813 0.028805
0.599187 0.012373 0.030414
0.607300 0.012876 0.030571
0.618186 0.014881 0.032335
0.652465 0.016934 0.034827
0.672449 0.017291 0.034470
0.687439 0.020116 0.034695
0.714612 0.024781 0.033330
0.735290 0.028511 0.033048
0.745083 0.028789 0.034938
0.754191 0.030733 0.035040
0.762183 0.033186 0.035993
0.766527 0.034795 0.036194
0.780779 0.038421 0.037720
0.785342 0.039527 0.038755
0.796282 0.041930 0.040971
0.800171 0.042971 0.041703
0.805437 0.043960 0.043066
0.817490 0.047540 0.045108
0.831741 0.052534 0.048281
0.846729 0.056733 0.050625
0.854452 0.060068 0.052131
0.866803 0.064646 0.054137
0.884067 0.064671 0.053455
0.896568 0.068274 0.056503
0.901545 0.069761 0.057510
0.909247 0.074275 0.058048
0.916150 0.077925 0.060428
0.921457 0.079686 0.061853
0.924827 0.080522 0.063034
0.931172 0.084802 0.064229
0.933118 0.086072 0.064735
0.935839 0.088344 0.065503
0.010517 0.037933 0.013772
0.015027 0.037325 0.013238
0.022775 0.036638 0.012040
0.032933 0.035312 0.010887
0.045632 0.032193 0.009015
0.062380 0.030641 0.008769
0.081199 0.030635 0.009211
0.101831 0.033093 0.009958
0.122317 0.032790 0.013963
0.141903 0.035556 0.018557
0.156090 0.033725 0.017455
0.177795 0.032939 0.018189
0.197396 0.032072 0.019781
0.218997 0.034042 0.021637
0.236740 0.030896 0.021666
0.263466 0.029170 0.020788
0.284075 0.026859 0.019850
0.300923 0.025047 0.019786
0.327748 0.024294 0.020021
0.353204 0.019942 0.019718
0.375967 0.019252 0.019237
0.395318 0.016435 0.020791
0.414700 0.013679 0.022891
0.435414 0.012685 0.022643
0.458592 0.010674 0.023144
0.475598 0.010907 0.023462
0.503684 0.010320 0.022826
0.525243 0.011242 0.023933
0.554000 0.011702 0.025550
0.565671 0.012875 0.025783
0.576661 0.014234 0.026588
0.586650 0.014996 0.026476
0.593584 0.014311 0.028804
0.611648 0.014835 0.031000
0.622661 0.016394 0.032446
0.652287 0.017654 0.032981
0.672446 0.019788 0.034043
0.688298 0.022093 0.033745
0.710232 0.024205 0.033503
0.733147 0.028271 0.033256
0.744600 0.030334 0.035733
0.751976 0.031225 0.035973
0.763421 0.035725 0.036556
0.767792 0.036858 0.037380
0.778427 0.037630 0.038089
0.789503 0.040169 0.040154
0.799632 0.042614 0.041731
0.800514 0.043037 0.041803
0.805690 0.044017 0.043138
0.827392 0.050481 0.047792
0.837538 0.054204 0.049429
0.850905 0.058009 0.052046
0.858463 0.062523 0.052177
0.880339 0.066608 0.052965
0.886216 0.065635 0.053649
0.899076 0.069630 0.056472
0.903159 0.071126 0.057249
0.912696 0.076358 0.058712
0.919045 0.079076 0.060848
0.921524 0.079686 0.061801
0.931079 0.084661 0.064137
0.931190 0.084799 0.064186
0.933612 0.087714 0.064239
0.939871 0.090969 0.066658
0.009768 0.051958 0.011682
0.014144 0.053563 0.012310
0.022370 0.051297 0.012548
0.031388 0.047384 0.011140
0.043799 0.046722 0.009191
0.058262 0.042088 0.006999
0.077285 0.041537 0.006202
0.097913 0.043867 0.007225
0.118484 0.045918 0.010419
0.137196 0.047572 0.012695
0.154579 0.045044 0.014004
0.171497 0.042549 0.014028
0.189660 0.042715 0.016557
0.214810 0.042875 0.018424
0.233597 0.042428 0.018789
0.254582 0.041064 0.020138
0.274595 0.035635 0.021060
0.305533 0.033552 0.019830
0.322087 0.031919 0.020058
0.356012 0.026585 0.015749
0.369290 0.024896 0.019672
0.392549 0.023370 0.021078
0.409723 0.019979 0.023453
0.426564 0.016405 0.024365
0.458061 0.016296 0.025043
0.472171 0.014788 0.026304
0.502860 0.015196 0.023842
0.522525 0.012907 0.022398
0.551336 0.016178 0.025206
0.564848 0.016352 0.025183
0.575930 0.017718 0.025735
0.584165 0.016893 0.025846
0.593895 0.017244 0.027295
0.616098 0.018099 0.030770
0.624674 0.018175 0.031837
0.651532 0.018417 0.032445
0.670009 0.021202 0.032777
0.685393 0.022802 0.032372
0.705444 0.026152 0.033499
0.733153 0.031751 0.034952
0.743178 0.032154 0.036263
0.753882 0.032851 0.035772
0.766499 0.036941 0.037141
0.771894 0.037836 0.037724
0.776427 0.038774 0.038392
0.789742 0.040240 0.040225
0.799939 0.042715 0.041808
0.803944 0.043975 0.042499
0.812381 0.045389 0.044918
0.831419 0.052382 0.048276
0.837754 0.054332 0.049458
0.853754 0.060464 0.051633
0.867086 0.065219 0.053832
0.880604 0.066676 0.052917
0.891052 0.069525 0.053381
0.899294 0.069589 0.056432
0.903383 0.071087 0.057211
0.914463 0.077492 0.058888
0.919807 0.079520 0.061016
0.924785 0.080369 0.062884
0.931091 0.084645 0.064083
0.933505 0.087552 0.064144
0.933649 0.087739 0.064207
0.939906 0.091012 0.066638
0.008150 0.066142 0.008534
0.013063 0.066384 0.010200
0.021212 0.066440 0.011799
0.030198 0.064891 0.010685
0.040686 0.060693 0.008766
0.054861 0.058272 0.006989
0.073405 0.056621 0.005864
0.094495 0.058945 0.005921
0.113720 0.061783 0.007004
0.131425 0.058697 0.008092
0.152875 0.055560 0.010855
0.172101 0.052214 0.011919
0.189009 0.056983 0.010520
0.207532 0.056326 0.012247
0.234980 0.052839 0.011454
0.248244 0.054835 0.016105
0.268048 0.051021 0.018726
0.296732 0.050605 0.019307
0.315544 0.048627 0.020470
0.333880 0.045162 0.019868
0.361134 0.035850 0.021337
0.390801 0.031395 0.022193
0.408123 0.028572 0.024836
0.424093 0.028025 0.026754
0.446792 0.023490 0.029091
0.467005 0.023101 0.028751
0.495463 0.018533 0.027330
0.522426 0.018311 0.024976
0.549025 0.017877 0.025125
0.556338 0.019015 0.025019
0.576536 0.019127 0.025370
0.581071 0.018514 0.025245
0.602265 0.019573 0.026485
0.616909 0.019306 0.030155
0.624682 0.019378 0.031258
0.650570 0.020783 0.031270
0.670623 0.023155 0.031730
0.685558 0.024597 0.033134
0.700501 0.028348 0.034200
0.728240 0.031332 0.035502
0.738292 0.034093 0.036365
0.754221 0.034759 0.035750
0.766526 0.037177 0.037267
0.771899 0.038066 0.037788
0.783502 0.040446 0.040515
0.790447 0.041234 0.041299
0.803375 0.043720 0.042477
0.808201 0.044508 0.043820
0.819514 0.048560 0.046024
0.835035 0.053208 0.048980
0.841673 0.056550 0.049029
0.858265 0.062496 0.052140
0.866002 0.061378 0.051013
0.887886 0.068300 0.052868
0.891279 0.069469 0.053334
0.896727 0.072097 0.054051
0.912781 0.076574 0.058763
0.919632 0.079312 0.060898
0.919874 0.079498 0.060947
0.929602 0.084218 0.063958
0.931102 0.085537 0.064030
0.933540 0.087568 0.064103
0.936715 0.089163 0.065106
0.942295 0.095741 0.066162
0.005810 0.081054 0.005669
0.010073 0.082181 0.007319
0.017892 0.080571 0.009804
0.029327 0.079721 0.010104
0.038685 0.079330 0.008314
0.052066 0.076728 0.007251
0.070142 0.075981 0.006127
0.090365 0.076767 0.005991
0.108075 0.077315 0.007319
0.124829 0.076883 0.008017
0.147867 0.072378 0.009076
0.169187 0.070734 0.009068
0.185737 0.069831 0.008196
0.205079 0.069620 0.008761
0.228142 0.065642 0.011237
0.247970 0.063702 0.013370
0.265430 0.066276 0.014311
0.291061 0.066843 0.015954
0.306709 0.064981 0.016020
0.318434 0.062039 0.016653
0.340240 0.057965 0.018940
0.370443 0.047843 0.020547
0.404517 0.036737 0.026324
0.429420 0.035109 0.026692
0.440230 0.035312 0.028994
0.467272 0.030749 0.029802
0.485161 0.027922 0.028480
0.505042 0.027322 0.027951
0.541664 0.023329 0.026797
0.559138 0.021407 0.025912
0.570986 0.021252 0.024827
0.578537 0.019486 0.025924
0.603169 0.020188 0.026676
0.613709 0.020745 0.028408
0.629669 0.022107 0.029030
0.646995 0.021709 0.031030
0.665423 0.023353 0.032645
0.689856 0.027962 0.035048
0.698928 0.029640 0.034882
0.717543 0.033738 0.035330
0.737659 0.034314 0.036611
0.752879 0.036104 0.036790
0.765964 0.038088 0.037131
0.772994 0.039173 0.038440
0.780979 0.040254 0.040089
0.793642 0.042319 0.041956
0.803904 0.044092 0.042673
0.811975 0.045274 0.044899
0.819667 0.048706 0.046026
0.836167 0.054283 0.049462
0.847511 0.060209 0.049984
0.861071 0.063130 0.053086
0.877068 0.062594 0.052118
0.890457 0.069640 0.052818
0.893584 0.071028 0.053279
0.902719 0.072715 0.056307
0.915455 0.077914 0.059147
0.919690 0.079274 0.060817
0.921963 0.079919 0.060872
0.930968 0.085318 0.063895
0.933400 0.087347 0.063977
0.933578 0.087586 0.064062
0.938366 0.090119 0.066005
0.943986 0.097179 0.066634
0.004413 0.095153 0.005424
0.008049 0.095966 0.005735
0.015301 0.096923 0.007801
0.026229 0.096129 0.009162
0.036973 0.096641 0.009310
0.049860 0.094690 0.007852
0.066020 0.091312 0.006492
0.084984 0.091386 0.005635
0.103681 0.092747 0.006264
0.123217 0.091811 0.008450
0.146246 0.091739 0.009814
0.163098 0.090605 0.008608
0.183355 0.083376 0.005814
0.202635 0.080851 0.006347
0.222476 0.084893 0.007045
0.246506 0.077645 0.010296
0.267237 0.079366 0.011964
0.289568 0.077665 0.013149
0.302020 0.079554 0.013428
0.311997 0.078402 0.014189
0.322457 0.081596 0.016226
0.350458 0.070633 0.018381
0.386137 0.061703 0.023764
0.417761 0.053854 0.026446
0.436920 0.048463 0.027773
0.454010 0.055487 0.027829
0.464992 0.051244 0.028772
0.491586 0.045689 0.029234
0.527609 0.033286 0.031153
0.544873 0.029524 0.030169
0.567951 0.023189 0.025428
0.572275 0.023328 0.025189
0.598134 0.023768 0.026986
0.617755 0.025627 0.030679
0.630218 0.028632 0.031535
0.642636 0.024679 0.033066
0.677270 0.028049 0.036685
0.690475 0.029269 0.036118
0.699371 0.030945 0.035965
0.717493 0.037384 0.037394
0.732917 0.037492 0.039053
0.751669 0.036571 0.037390
0.767012 0.038987 0.038061
0.775979 0.040505 0.039309
0.780765 0.040694 0.040526
0.797031 0.043400 0.042814
0.806281 0.046472 0.044626
0.814492 0.051135 0.046701
0.825955 0.056109 0.048572
0.839418 0.061801 0.049983
0.853263 0.066068 0.053034
0.865813 0.061380 0.050954
0.882038 0.066544 0.051827
0.893278 0.070987 0.053233
0.895888 0.073053 0.053678
0.904910 0.076330 0.054832
0.918060 0.079024 0.060444
0.920864 0.081284 0.060044
0.923541 0.081673 0.061248
0.930974 0.085285 0.063836
0.933435 0.087356 0.063930
0.936152 0.089456 0.064719
0.941184 0.095011 0.065761
0.946409 0.098642 0.067591
0.000000 0.117647 0.007843
0.005207 0.110176 0.003646
0.011633 0.112172 0.005050
0.019712 0.112851 0.007160
0.034268 0.112300 0.008839
0.047747 0.113218 0.008985
0.062150 0.111615 0.007476
0.079484 0.108136 0.006088
0.096941 0.108193 0.005544
0.123293 0.108871 0.007080
0.141076 0.105984 0.008451
0.162894 0.099945 0.007680
0.183672 0.097157 0.006526
0.200020 0.099743 0.005575
0.221200 0.102032 0.007119
0.240418 0.100660 0.008489
0.258801 0.096069 0.009292
0.284627 0.091037 0.010924
0.306357 0.087622 0.013403
0.313480 0.091684 0.013172
0.323821 0.092171 0.014450
0.339014 0.096669 0.013799
0.373023 0.090764 0.016022
0.402182 0.091225 0.017731
0.428318 0.080393 0.023476
0.434870 0.081718 0.024149
0.461154 0.074256 0.027032
0.476797 0.072875 0.030218
0.499708 0.065155 0.029775
0.528173 0.051649 0.030049
0.552980 0.037166 0.031035
0.576711 0.041548 0.032635
0.593387 0.041137 0.031829
0.612754 0.039885 0.033904
0.622578 0.041864 0.035918
0.634585 0.040323 0.035568
0.665961 0.039384 0.038343
0.689726 0.036705 0.040656
0.695787 0.037618 0.040615
0.716906 0.039216 0.039325
0.728450 0.039985 0.040908
0.743390 0.040558 0.040975
0.759461 0.047197 0.038968
0.774085 0.046902 0.038604
0.784515 0.048831 0.041848
0.799383 0.049424 0.045543
0.807632 0.055258 0.047205
0.818521 0.058214 0.047729
0.827887 0.061331 0.049599
0.843946 0.066985 0.052388
0.851473 0.066977 0.052390
0.875007 0.068720 0.052106
0.881066 0.072444 0.052017
0.895599 0.073053 0.053640
0.897626 0.073204 0.053362
0.906594 0.077400 0.054982
0.918994 0.082673 0.058503
0.920841 0.081215 0.059963
0.925113 0.082526 0.061634
0.930980 0.085257 0.063783
0.933474 0.087372 0.063890
0.938022 0.093155 0.064238
0.941694 0.096440 0.065761
0.952399 0.107233 0.069743
0.000000 0.121569 0.000000
0.004194 0.121554 0.002779
0.006656 0.124671 0.003187
0.014027 0.128236 0.005013
0.029369 0.129238 0.007792
0.045477 0.129361 0.008780
0.061096 0.128209 0.008052
0.076862 0.126350 0.006575
0.093766 0.124794 0.005162
0.113412 0.125639 0.004705
0.135047 0.126376 0.005631
0.154498 0.126318 0.006474
0.178842 0.121451 0.005742
0.199913 0.116794 0.005547
0.220228 0.115346 0.005637
0.235454 0.115302 0.006345
0.253998 0.114597 0.006409
0.273165 0.114315 0.007821
0.297866 0.104396 0.009520
0.313119 0.100798 0.012313
0.325951 0.105459 0.013540
0.348866 0.106975 0.012667
0.367891 0.108953 0.012905
0.395867 0.110650 0.013882
0.415601 0.102281 0.018145
0.430443 0.106677 0.019218
0.445136 0.100126 0.024883
0.457749 0.103494 0.028630
0.480251 0.092663 0.031228
0.500121 0.095213 0.026701
0.522483 0.084735 0.034311
0.559864 0.074485 0.034837
0.590967 0.064256 0.035304
0.607066 0.065400 0.035636
0.612489 0.064295 0.036891
0.632544 0.052879 0.040548
0.654958 0.056306 0.041395
0.672705 0.055326 0.041691
0.683574 0.056454 0.041230
0.704958 0.058730 0.043828
0.720877 0.057682 0.040088
0.739728 0.058639 0.041906
0.751023 0.061282 0.042812
0.774118 0.050628 0.041396
0.781220 0.058734 0.044727
0.791992 0.063751 0.046953
0.801212 0.064178 0.047337
0.823168 0.063452 0.049978
0.831601 0.066702 0.051348
0.838337 0.069423 0.052477
0.848192 0.070057 0.053170
0.879550 0.073373 0.051620
0.883237 0.074702 0.052471
0.892373 0.076542 0.053805
0.900956 0.074984 0.053750
0.910315 0.080577 0.055137
0.919896 0.083512 0.058443
0.921951 0.082075 0.060122
0.923261 0.081339 0.061120
0.933304 0.090542 0.062828
0.936032 0.092669 0.063646
0.940378 0.096195 0.064933
0.943407 0.098378 0.066013
0.953187 0.108502 0.070009
0.001574 0.125071 0.006236
0.003450 0.130420 0.004773
0.007278 0.137076 0.003085
0.012333 0.143032 0.004269
0.023092 0.146956 0.005865
0.039144 0.145962 0.007474
0.056696 0.146339 0.007634
0.072056 0.146837 0.006613
0.089643 0.144330 0.005078
0.107547 0.140946 0.004308
0.129271 0.143033 0.004244
0.149830 0.143479 0.004680
0.164143 0.144054 0.004898
0.192261 0.135619 0.004741
0.216174 0.132715 0.005581
0.236397 0.131840 0.005605
0.253194 0.130233 0.005109
0.274720 0.126728 0.004040
0.293371 0.124517 0.006390
0.312713 0.119960 0.008484
0.331749 0.121421 0.010656
0.353723 0.125187 0.009377
0.371783 0.125204 0.010593
0.390708 0.122092 0.011421
0.404802 0.122367 0.013000
0.427625 0.117084 0.017357
0.440184 0.126774 0.018412
0.453400 0.125490 0.020944
0.467575 0.131062 0.021388
0.485974 0.126144 0.030115
0.512478 0.124975 0.033304
0.535293 0.118187 0.035291
0.565799 0.108022 0.038237
0.593852 0.087916 0.041119
0.608440 0.081429 0.040336
0.618323 0.091625 0.034855
0.641943 0.089691 0.037954
0.659637 0.079528 0.040398
0.674841 0.083976 0.041257
0.689555 0.079451 0.040916
0.697757 0.078581 0.042734
0.731104 0.075340 0.043723
0.750001 0.068973 0.048083
0.759263 0.073505 0.048187
0.778991 0.069359 0.048156
0.789785 0.069036 0.047874
0.801076 0.072352 0.051955
0.819071 0.071174 0.048835
0.829194 0.074794 0.050527
0.837776 0.070709 0.052578
0.857196 0.073703 0.050597
0.880019 0.075904 0.052094
0.883195 0.074809 0.052444
0.895082 0.077071 0.054231
0.900695 0.079358 0.054849
0.913558 0.082383 0.056483
0.920325 0.084146 0.059799
0.920520 0.084316 0.059872
0.923211 0.085194 0.061332
0.933543 0.090997 0.063051
0.936981 0.093149 0.063879
0.940435 0.096253 0.064948
0.944652 0.101046 0.064148
0.954229 0.111941 0.068642
0.002288 0.136385 0.007523
0.002925 0.140688 0.004445
0.007731 0.148281 0.002962
0.009608 0.156898 0.002888
0.015573 0.165568 0.002831
0.026435 0.167194 0.004012
0.048404 0.163823 0.005660
0.067931 0.163039 0.005355
0.086238 0.161772 0.004776
0.104365 0.159629 0.003749
0.124197 0.157666 0.003258
0.145743 0.158842 0.002950
0.162562 0.158299 0.002663
0.185100 0.159750 0.003416
0.210166 0.161159 0.003289
0.226870 0.157697 0.003307
0.249433 0.149507 0.003552
0.271070 0.144654 0.003383
0.290137 0.144018 0.003277
0.307352 0.145851 0.004702
0.329211 0.145130 0.005270
0.353719 0.144682 0.004272
0.368720 0.139680 0.006741
0.387930 0.134434 0.008368
0.403213 0.133396 0.010415
0.423213 0.142445 0.010733
0.439232 0.141266 0.012941
0.447372 0.139978 0.015084
0.464219 0.142098 0.016320
0.482205 0.139042 0.021604
0.509545 0.135062 0.027913
0.528899 0.130975 0.032871
0.543999 0.128062 0.035574
0.575256 0.126733 0.035871
0.599769 0.118805 0.034278
0.607081 0.113001 0.032576
0.634538 0.100702 0.036876
0.644499 0.097729 0.038158
0.670007 0.098097 0.042437
0.677039 0.099597 0.044163
0.697671 0.097465 0.048030
0.706539 0.097273 0.046423
0.743260 0.084361 0.045432
0.758686 0.087256 0.050530
0.767116 0.086959 0.050544
0.788716 0.079990 0.054236
0.793792 0.086422 0.051684
0.806365 0.092443 0.052723
0.821371 0.083978 0.048644
0.843770 0.078190 0.054310
0.864553 0.080515 0.051809
0.876616 0.080319 0.052107
0.885240 0.078014 0.052431
0.894889 0.079736 0.053728
0.900996 0.082932 0.055772
0.915393 0.083298 0.058592
0.919116 0.084593 0.059348
0.920461 0.084288 0.059879
0.926386 0.088411 0.061806
0.932601 0.091480 0.064465
0.934885 0.094134 0.061295
0.939776 0.097987 0.062812
0.945884 0.102319 0.064603
0.953842 0.112556 0.068430
0.002830 0.144494 0.005878
0.004317 0.149941 0.003209
0.008610 0.159879 0.003095
0.011489 0.168385 0.002282
0.010854 0.173834 0.001800
0.021799 0.180429 0.001955
0.038005 0.183648 0.003196
0.059784 0.182053 0.003745
0.083650 0.181308 0.003400
0.101441 0.181873 0.002692
0.119794 0.178052 0.001857
0.139287 0.176212 0.001012
0.159133 0.174055 0.001226
0.184456 0.175445 0.001480
0.208524 0.174993 0.001895
0.226070 0.177186 0.002422
0.240680 0.174900 0.002366
0.268123 0.168314 0.002491
0.291423 0.163656 0.002403
0.309177 0.162135 0.002451
0.327386 0.162562 0.002519
0.352535 0.157497 0.001346
0.364806 0.157354 0.002757
0.382366 0.160403 0.003927
0.393461 0.156349 0.004902
0.425603 0.158255 0.007803
0.434736 0.161049 0.007786
0.443291 0.159862 0.009227
0.455091 0.163625 0.009786
0.469307 0.167516 0.010181
0.491931 0.166424 0.015586
0.515793 0.160952 0.018269
0.534754 0.148673 0.025188
0.560829 0.149584 0.025610
0.581719 0.140645 0.028921
0.597798 0.133053 0.032543
0.612616 0.132163 0.034795
0.636812 0.132890 0.035775
0.657016 0.126908 0.038240
0.666212 0.126121 0.040791
0.682107 0.121032 0.042104
0.701158 0.115912 0.042563
0.717882 0.107814 0.052030
0.742025 0.103757 0.048013
0.760869 0.101920 0.044794
0.771847 0.099724 0.049173
0.788258 0.095964 0.050526
0.797998 0.097906 0.052268
0.819538 0.097418 0.051259
0.831362 0.099405 0.051146
0.858021 0.088644 0.050832
0.871610 0.087716 0.050251
0.880267 0.080007 0.052431
0.893790 0.080784 0.054900
0.900824 0.083051 0.055804
0.912986 0.084050 0.057915
0.916980 0.085305 0.058915
0.920166 0.086160 0.059913
0.927279 0.089405 0.059737
0.933049 0.094374 0.061889
0.937245 0.096586 0.061750
0.937438 0.096906 0.061857
0.947614 0.105066 0.066275
0.957943 0.116715 0.069875
0.002525 0.155394 0.005226
0.005302 0.163953 0.004742
0.009116 0.173404 0.003207
0.010309 0.177428 0.003106
0.014303 0.186630 0.002618
0.019823 0.191364 0.001265
0.031069 0.197809 0.001599
0.052594 0.199316 0.002101
0.074801 0.198855 0.001759
0.095165 0.200616 0.001495
0.114950 0.199133 0.001147
0.134972 0.196121 0.000801
0.154157 0.190049 0.000381
0.178208 0.189292 0.000408
0.206077 0.186597 0.000986
0.226006 0.190463 0.001781
0.241793 0.192987 0.002659
0.257824 0.197192 0.002513
0.287105 0.189281 0.002246
0.308761 0.181242 0.001801
0.327164 0.177166 0.001397
0.350453 0.173096 0.000763
0.363970 0.178830 0.000186
0.380084 0.182395 0.000000
0.394425 0.183959 0.001747
0.411592 0.185208 0.003170
0.427901 0.179317 0.005101
0.437060 0.181379 0.005109
0.457487 0.192025 0.004454
0.467797 0.198973 0.004010
0.479130 0.193812 0.005700
0.497959 0.196720 0.005752
0.520591 0.186669 0.009398
0.553432 0.167560 0.016578
0.574992 0.154435 0.020923
0.587675 0.154880 0.025280
0.602699 0.170007 0.023917
0.614156 0.163948 0.024908
0.637870 0.155185 0.029977
0.648816 0.145485 0.038562
0.672415 0.138265 0.038132
0.689436 0.128398 0.046669
0.713597 0.129437 0.047557
0.730128 0.124996 0.042857
0.744924 0.128060 0.045241
0.756517 0.116261 0.048456
0.771493 0.119319 0.050069
0.791084 0.115039 0.052215
0.811957 0.113260 0.049418
0.830915 0.107844 0.047912
0.848154 0.102033 0.049750
0.862265 0.097151 0.048731
0.879048 0.090089 0.052396
0.897627 0.083713 0.055645
0.901368 0.084357 0.055850
