backend/3dlut-creator/demo/panasonic.cube
TITLE "3D LUT from Image Pairs"
LUT_3D_SIZE 4
0.011062 0.012060 0.013968
0.396681 0.005538 0.025704
0.757801 0.031624 0.035572
0.933189 0.086176 0.064840
0.016632 0.257284 0.002105
0.315621 0.330512 0.000242
0.617078 0.329693 0.000000
0.915232 0.202723 0.054645
0.063121 0.419161 0.051376
0.277126 0.621661 0.034330
0.567790 0.662788 0.017949
0.882965 0.664274 0.000000
0.284737 0.628675 0.056596
0.385169 0.722503 0.041919
0.570971 0.860981 0.039644
0.893275 0.824676 0.003783
0.104801 0.091091 0.406799
0.431978 0.059765 0.259687
0.781595 0.081261 0.220642
0.960542 0.112352 0.111764
0.034304 0.347314 0.370720
0.356863 0.356863 0.356863
0.709095 0.297737 0.331043
0.989799 0.254666 0.209683
0.071100 0.502066 0.395949
0.353826 0.587030 0.301233
0.612583 0.642772 0.256335
0.954781 0.628185 0.206010
0.228394 0.654542 0.571085
0.444688 0.732204 0.257000
0.604059 0.871586 0.343484
0.828387 0.986662 0.222876
0.139408 0.219717 0.713239
0.420277 0.274433 0.741284
0.613523 0.323000 0.636668
0.885539 0.241183 0.379883
0.139588 0.370716 0.869071
0.467021 0.395090 0.788663
0.690303 0.453048 0.649143
0.964480 0.357236 0.412413
0.224347 0.565873 0.855707
0.311988 0.709866 0.664251
0.661723 0.663074 0.663483
0.986371 0.449449 0.425665
0.286053 0.721848 0.686504
0.357869 0.807337 0.768109
0.721539 0.872314 0.610561
0.953612 0.969929 0.584444
0.174930 0.401088 0.958983
0.519415 0.413171 0.899824
0.607687 0.458219 0.915247
0.764351 0.504824 0.777530
0.250157 0.526717 1.000000
0.545058 0.515385 0.941418
0.700437 0.571822 0.949791
0.819444 0.642785 0.880972
0.257947 0.623061 1.000000
0.347223 0.718262 0.999814
0.769271 0.742396 0.991995
0.924730 0.796916 0.926199
0.293380 0.670751 0.998489
0.505192 0.799494 0.993243
0.673399 0.912426 0.996175
0.983390 0.982099 0.985686
