backend/3dlut-creator/demo/pentax.cube
TITLE "3D LUT from Image Pairs"
LUT_3D_SIZE 4
0.018939 0.018725 0.016819
0.363252 0.019390 0.026866
0.703296 0.003925 0.012522
0.878332 0.001206 0.028216
0.009609 0.229211 0.000484
0.317620 0.335358 0.000000
0.681107 0.291257 0.000000
0.935133 0.133792 0.003620
0.153925 0.447572 0.000000
0.313721 0.568334 0.000000
0.609039 0.652703 0.000000
0.890888 0.599673 0.000000
0.000000 0.673696 0.375476
0.463673 0.680673 0.000000
0.662145 0.799925 0.000000
0.771196 0.848829 0.000000
0.040489 0.014897 0.303942
0.370515 0.036176 0.236519
0.727490 0.005541 0.277390
0.977368 0.000000 0.256457
0.000000 0.252306 0.378141
0.317647 0.317647 0.317647
0.690342 0.268464 0.293964
0.968570 0.201056 0.241937
0.000000 0.621884 0.353830
0.279951 0.578714 0.267016
0.621231 0.651437 0.202827
0.940891 0.635524 0.141471
0.000000 0.724372 0.442163
0.051618 0.778952 0.494911
0.648306 0.833510 0.080576
0.869586 0.932405 0.000000
0.024504 0.004707 0.640107
0.299508 0.129161 0.553698
0.811005 0.090958 0.437871
0.970316 0.042892 0.460641
0.090291 0.174749 0.677747
0.360810 0.203287 0.655981
0.673786 0.345596 0.616482
0.969716 0.207406 0.622622
0.000000 0.598810 0.681913
0.209160 0.617911 0.659457
0.640342 0.641456 0.640504
0.994379 0.379702 0.487078
0.000000 0.763312 0.574686
0.000000 0.821646 0.637958
0.615165 0.847796 0.578949
0.935003 0.956156 0.429094
0.011882 0.003130 0.768174
0.255391 0.093693 0.718840
0.502626 0.251851 0.733299
0.958815 0.171857 0.594436
0.070632 0.075220 0.837704
0.186875 0.118022 0.861967
0.600218 0.377088 0.796193
0.988561 0.343022 0.707434
0.000000 0.545792 0.904618
0.040588 0.575837 0.921173
0.307264 0.162912 0.959554
0.986009 0.649948 0.853003
0.000000 0.693377 0.844279
0.008884 0.757659 0.879546
0.556663 0.860578 0.928050
0.969923 0.967833 0.969032
