backend/3dlut-creator/demo/pentax.cube
TITLE "3D LUT from Image Pairs"
LUT_3D_SIZE 64
0.018939 0.018725 0.016819
0.025404 0.018015 0.015772
0.035054 0.018481 0.015938
0.049103 0.018619 0.017611
0.063904 0.020394 0.019767
0.079349 0.021689 0.021164
0.097174 0.023875 0.021200
0.114363 0.022708 0.021884
0.131037 0.022010 0.022125
0.146617 0.020480 0.021648
0.168764 0.019245 0.021346
0.185510 0.019011 0.020443
0.195951 0.019207 0.020094
0.209144 0.020234 0.022550
0.231729 0.020650 0.024216
0.254580 0.022073 0.027728
0.270938 0.021436 0.027150
0.285453 0.021232 0.027231
0.303319 0.020750 0.026532
0.322380 0.019914 0.026695
0.334487 0.019915 0.027036
0.363252 0.019390 0.026866
0.385506 0.018259 0.026052
0.412985 0.017320 0.024760
0.429048 0.016119 0.022717
0.449057 0.015238 0.020993
0.463369 0.015842 0.020743
0.478632 0.016010 0.019760
0.494436 0.015173 0.018947
0.505182 0.015258 0.019078
0.526887 0.014418 0.017859
0.543352 0.013888 0.016109
0.559318 0.014370 0.015027
0.584343 0.010365 0.013292
0.594906 0.009166 0.012729
0.605613 0.009341 0.012697
0.623534 0.007804 0.012832
0.639131 0.007375 0.012363
0.652875 0.007599 0.013778
0.666251 0.007062 0.013711
0.675364 0.006500 0.014013
0.686202 0.005490 0.013739
0.703296 0.003925 0.012522
0.708904 0.004173 0.012197
0.723749 0.003251 0.014017
0.740115 0.001358 0.013465
0.757253 0.000498 0.014627
0.761884 0.000498 0.014770
0.767433 0.000490 0.014699
0.769687 0.000477 0.015248
0.779015 0.000912 0.013779
0.788745 0.000480 0.015851
0.800373 0.000500 0.016588
0.805696 0.000510 0.016858
0.812758 0.000979 0.016665
0.824967 0.000982 0.019244
0.828293 0.000976 0.019549
0.838400 0.002142 0.020769
0.845027 0.001687 0.022009
0.858392 0.001688 0.024469
0.867435 0.001214 0.025710
0.873465 0.000744 0.026715
0.875668 0.001209 0.027231
0.878332 0.001206 0.028216
0.018909 0.024632 0.015547
0.022898 0.023588 0.014215
0.035124 0.023292 0.013806
0.049005 0.023928 0.015262
0.064587 0.025023 0.017831
0.081598 0.027440 0.019006
0.099321 0.027881 0.020178
0.116357 0.028378 0.020589
0.132550 0.027823 0.020206
0.149544 0.024721 0.020843
0.166160 0.019279 0.018859
0.185124 0.020669 0.019751
0.198080 0.020247 0.019285
0.210414 0.021324 0.021706
0.228676 0.022631 0.024849
0.253206 0.023483 0.028073
0.268183 0.023775 0.027642
0.287415 0.022320 0.026893
0.302873 0.021336 0.026746
0.320271 0.021208 0.026111
0.335532 0.021442 0.026477
0.360163 0.020700 0.027704
0.380757 0.019334 0.025858
0.408769 0.018570 0.025035
0.431685 0.017067 0.022007
0.445916 0.016440 0.021688
0.461313 0.016493 0.021089
0.475444 0.016050 0.020380
0.491691 0.016650 0.019551
0.512696 0.015902 0.019483
0.525680 0.015106 0.017758
0.542163 0.016057 0.016631
0.557515 0.015317 0.015132
0.581459 0.011532 0.013383
0.593807 0.010513 0.013077
0.604762 0.012025 0.013969
0.620245 0.012532 0.013944
0.639414 0.011201 0.013390
0.654435 0.009703 0.014660
0.662652 0.008383 0.013806
0.677135 0.006746 0.013172
0.688254 0.005284 0.012828
0.705096 0.003894 0.011472
0.708696 0.003697 0.011791
0.727798 0.001718 0.011902
0.738676 0.000871 0.011877
0.750426 0.000451 0.012381
0.760773 0.000460 0.013196
0.765195 0.000460 0.014468
0.773257 0.000452 0.014230
0.781936 0.000453 0.012995
0.793857 0.000485 0.013696
0.803933 0.000505 0.016491
0.811131 0.000512 0.016323
0.818437 0.000971 0.017515
0.822363 0.000510 0.017809
0.835941 0.000500 0.020667
0.847393 0.000490 0.020986
0.854127 0.001187 0.022244
0.864859 0.000720 0.025127
0.868684 0.000726 0.025661
0.874996 0.000726 0.026676
0.878375 0.000726 0.027204
0.884736 0.000723 0.026558
0.017230 0.035025 0.014360
0.021902 0.036563 0.012923
0.033157 0.035960 0.012095
0.045759 0.034245 0.012478
0.061122 0.034284 0.013454
0.079124 0.036374 0.014226
0.096883 0.036643 0.016878
0.114129 0.037261 0.018861
0.132128 0.037431 0.020259
0.148234 0.033197 0.019686
0.164382 0.029436 0.019516
0.186097 0.026259 0.018163
0.199800 0.025866 0.017245
0.213116 0.027805 0.021082
0.229631 0.028543 0.024242
0.248386 0.029924 0.027747
0.264156 0.029188 0.028835
0.281562 0.027208 0.028624
0.302220 0.025647 0.027588
0.319790 0.025905 0.027323
0.334799 0.024629 0.027250
0.357246 0.024879 0.027432
0.381574 0.023723 0.026619
0.406791 0.021984 0.025005
0.427052 0.021250 0.023329
0.445833 0.018900 0.021737
0.457708 0.020265 0.021967
0.476570 0.018811 0.021718
0.488944 0.018477 0.020736
0.512367 0.016980 0.019981
0.529157 0.017379 0.017835
0.543467 0.018063 0.015963
0.562141 0.016592 0.014729
0.578318 0.014573 0.013939
0.591806 0.013105 0.013260
0.607256 0.015393 0.014207
0.620470 0.014685 0.014538
0.631928 0.015042 0.013652
0.654729 0.012131 0.013704
0.665521 0.010465 0.013609
0.676889 0.008051 0.012761
0.689947 0.006980 0.011404
0.704052 0.005167 0.010926
0.718206 0.002636 0.010238
0.732907 0.001059 0.010293
0.739812 0.000779 0.010624
0.749457 0.000388 0.011513
0.755502 0.000000 0.011088
0.762448 0.000000 0.011037
0.773567 0.000000 0.012093
0.788482 0.000452 0.012220
0.795982 0.000482 0.012964
0.805466 0.000500 0.014191
0.813033 0.000505 0.014222
0.819746 0.000504 0.014470
0.832408 0.000497 0.016825
0.836926 0.000487 0.017139
0.849925 0.000476 0.020254
0.856900 0.000000 0.020795
0.858917 0.000000 0.022961
0.873738 0.000704 0.025370
0.879103 0.000705 0.026161
0.882688 0.000705 0.025526
0.890417 0.001863 0.028599
0.015744 0.047612 0.011832
0.020548 0.047839 0.010914
0.031842 0.049445 0.011037
0.044921 0.048890 0.010650
0.059902 0.048363 0.010454
0.076514 0.047425 0.010786
0.094793 0.047286 0.011656
0.113280 0.047790 0.014513
0.131974 0.047476 0.017315
0.151451 0.047608 0.019752
0.165927 0.043231 0.019183
0.184266 0.042014 0.018597
0.200744 0.036052 0.016633
0.218001 0.036541 0.017186
0.227784 0.035747 0.021821
0.241859 0.036795 0.026947
0.261244 0.035790 0.028542
0.281407 0.034222 0.029690
0.302836 0.033053 0.029178
0.320372 0.032167 0.030393
0.335303 0.031522 0.029917
0.360964 0.032766 0.029649
0.380378 0.031279 0.029452
0.400801 0.029632 0.026802
0.425690 0.025771 0.024885
0.441423 0.024577 0.024574
0.458812 0.023234 0.023689
0.474636 0.023595 0.023283
0.490490 0.021243 0.023292
0.512004 0.020618 0.021797
0.528724 0.020132 0.018820
0.543237 0.020002 0.017706
0.563819 0.018426 0.016268
0.576916 0.016899 0.014455
0.594039 0.018470 0.014682
0.609008 0.019022 0.014946
0.620885 0.018017 0.014633
0.638103 0.015858 0.013623
0.651680 0.013496 0.012827
0.664162 0.012560 0.013463
0.677071 0.011745 0.012327
0.689817 0.008739 0.012430
0.709309 0.004686 0.010912
0.720492 0.003050 0.010377
0.735355 0.001202 0.011156
0.740887 0.000547 0.011067
0.750793 0.000000 0.012065
0.756556 0.000000 0.011155
0.762329 0.000000 0.010326
0.773307 0.000674 0.010686
0.787264 0.000693 0.011701
0.804844 0.000465 0.013879
0.809020 0.000479 0.012286
0.817174 0.000483 0.013701
0.822285 0.000481 0.014185
0.830181 0.000477 0.015626
0.843348 0.000469 0.017548
0.853510 0.000000 0.019700
0.857047 0.000000 0.020726
0.862994 0.000000 0.020806
0.873651 0.000000 0.024617
0.884321 0.000000 0.025856
0.884651 0.000000 0.025927
0.893285 0.001161 0.028300
0.014084 0.057806 0.009205
0.018040 0.061077 0.008445
0.028347 0.063183 0.009890
0.042630 0.061634 0.010095
0.057882 0.061444 0.009918
0.074746 0.062258 0.009884
0.091403 0.059335 0.010252
0.109607 0.057969 0.011079
0.128111 0.057883 0.012918
0.146807 0.058412 0.015665
0.165486 0.058063 0.017967
0.181091 0.053533 0.018173
0.198842 0.051440 0.016607
0.216327 0.048922 0.016263
0.230042 0.045346 0.014270
0.242174 0.048978 0.020062
0.259275 0.046613 0.025769
0.279218 0.046838 0.029223
0.300999 0.044177 0.030304
0.316788 0.043237 0.031390
0.333156 0.044687 0.032100
0.357084 0.042458 0.031091
0.377426 0.039691 0.031636
0.401214 0.035838 0.031263
0.419009 0.033330 0.028696
0.440698 0.029447 0.026443
0.459880 0.026471 0.025911
0.477663 0.027663 0.025473
0.495388 0.026401 0.025753
0.509762 0.026439 0.024952
0.534429 0.021119 0.020777
0.541960 0.021611 0.019566
0.566464 0.020725 0.017384
0.584878 0.022183 0.015297
0.595766 0.021359 0.015986
0.613100 0.022313 0.014505
0.624576 0.022060 0.014254
0.637540 0.019546 0.013257
0.655693 0.019288 0.012753
0.665162 0.019221 0.012509
0.675087 0.017718 0.012339
0.687699 0.013627 0.012662
0.704777 0.009097 0.010729
0.723608 0.002895 0.011209
0.735074 0.002496 0.010845
0.748047 0.000571 0.010717
0.752377 0.000375 0.011540
0.758856 0.000582 0.010405
0.766598 0.000658 0.010264
0.776082 0.000712 0.010862
0.789777 0.000727 0.010763
0.798915 0.000712 0.011466
0.810609 0.000688 0.012643
0.818929 0.000452 0.014964
0.825464 0.000455 0.015469
0.834647 0.000000 0.015528
0.844786 0.000000 0.016496
0.854547 0.000000 0.017493
0.862750 0.000000 0.019017
0.863129 0.000000 0.019111
0.876113 0.000000 0.020588
0.882121 0.000000 0.023471
0.887737 0.000000 0.024215
0.890808 0.000000 0.026119
0.012736 0.068331 0.007174
0.017212 0.071318 0.006737
0.026148 0.074908 0.008214
0.040864 0.076266 0.009335
0.054361 0.075295 0.009498
0.071152 0.076863 0.009335
0.088613 0.076018 0.009173
0.105854 0.072635 0.009051
0.124366 0.071821 0.008251
0.145277 0.069465 0.010153
0.162096 0.069209 0.014020
0.180883 0.069481 0.016019
0.196891 0.067933 0.016902
0.216814 0.067028 0.016256
0.229402 0.064955 0.015322
0.242775 0.065185 0.015538
0.257155 0.064215 0.017538
0.275625 0.063787 0.023103
0.295712 0.060418 0.027361
0.317269 0.057669 0.028699
0.331794 0.055678 0.032036
0.354219 0.054864 0.031452
0.372165 0.051546 0.033885
0.395568 0.047608 0.033052
0.410657 0.042898 0.030677
0.445626 0.033963 0.028906
0.465490 0.034645 0.029301
0.485274 0.034756 0.028394
0.503144 0.033140 0.028167
0.509161 0.033046 0.027439
0.519162 0.032797 0.025621
0.542673 0.026801 0.022559
0.564649 0.026617 0.020041
0.587159 0.025680 0.016153
0.599099 0.026847 0.016491
0.615260 0.025491 0.014675
0.625993 0.024187 0.013741
0.638910 0.025280 0.011693
0.656939 0.024081 0.012323
0.665568 0.021410 0.011380
0.674042 0.018176 0.011687
0.693985 0.013705 0.012062
0.708953 0.009589 0.010108
0.729435 0.005764 0.010890
0.736859 0.002517 0.010895
0.748214 0.000755 0.011038
0.754713 0.001080 0.010563
0.761774 0.000992 0.009954
0.769022 0.000702 0.010853
0.776864 0.000754 0.010659
0.791012 0.000754 0.010896
0.798163 0.000954 0.010446
0.808692 0.001153 0.011351
0.820658 0.000233 0.014074
0.827268 0.000233 0.014610
0.837002 0.000230 0.013763
0.844107 0.000000 0.014964
0.853217 0.000000 0.015518
0.864437 0.000000 0.017964
0.869989 0.000000 0.016893
0.876163 0.000000 0.017902
0.883118 0.000000 0.020565
0.886683 0.000000 0.021789
0.893938 0.000000 0.023222
0.012809 0.079566 0.007514
0.014203 0.085011 0.006573
0.021332 0.088639 0.006663
0.032329 0.091323 0.007778
0.049106 0.089514 0.008156
0.066322 0.089444 0.007844
0.083720 0.089254 0.007671
0.101849 0.088910 0.006790
0.120285 0.086360 0.006100
0.139422 0.083018 0.006687
0.161047 0.081634 0.008483
0.178613 0.081482 0.010944
0.198023 0.079805 0.014145
0.215348 0.081365 0.015584
0.231496 0.080258 0.016033
0.243200 0.076630 0.014161
0.257466 0.075910 0.015085
0.273114 0.074497 0.016314
0.294421 0.071646 0.022066
0.314879 0.071533 0.022010
0.326963 0.067155 0.026322
0.351302 0.070311 0.029733
0.371782 0.066875 0.030741
0.386481 0.059644 0.032012
0.403660 0.059823 0.032922
0.436210 0.053990 0.033485
0.474138 0.046203 0.028641
0.488094 0.043382 0.027910
0.498473 0.043050 0.029718
0.509683 0.044005 0.029846
0.516227 0.041237 0.029216
0.537319 0.036696 0.027399
0.561778 0.033059 0.023633
0.576701 0.032178 0.020880
0.603320 0.027168 0.015757
0.618300 0.026899 0.014350
0.629686 0.028365 0.012584
0.641254 0.028346 0.012428
0.657418 0.024847 0.012197
0.662446 0.023670 0.011445
0.675675 0.021087 0.010763
0.694849 0.015360 0.011792
0.716938 0.009936 0.010723
0.729654 0.006165 0.010886
0.742886 0.002280 0.011391
0.747405 0.000738 0.011324
0.754564 0.001135 0.011007
0.766696 0.001051 0.010091
0.772584 0.000746 0.010922
0.782607 0.000994 0.009965
0.795076 0.001220 0.009925
0.802042 0.001206 0.010060
0.811767 0.001173 0.011537
0.819804 0.000486 0.012020
0.829534 0.000477 0.013456
0.839449 0.000242 0.013798
0.848561 0.000235 0.013208
0.858902 0.000000 0.014685
0.864300 0.000000 0.014781
0.872851 0.000000 0.016971
0.873156 0.000000 0.017059
0.884769 0.000000 0.018559
0.893000 0.000000 0.020031
0.894904 0.000000 0.019847
0.012947 0.089260 0.007447
0.013854 0.095211 0.006733
0.017545 0.100550 0.005945
0.024849 0.105205 0.005397
0.039875 0.105596 0.006314
0.059929 0.104162 0.006426
0.078636 0.105443 0.005996
0.097464 0.104896 0.005834
0.116346 0.101327 0.005773
0.136049 0.101232 0.005217
0.155178 0.096667 0.005725
0.174395 0.093339 0.006603
0.196113 0.091680 0.008018
0.215743 0.089184 0.012144
0.232851 0.089096 0.013944
0.247509 0.087456 0.013263
0.262776 0.085925 0.012667
0.275692 0.086957 0.013041
0.294959 0.088255 0.012671
0.315846 0.080753 0.016526
0.335059 0.082670 0.017770
0.356754 0.082048 0.023041
0.370368 0.076598 0.030367
0.383601 0.078506 0.032398
0.393544 0.077590 0.033540
0.432953 0.069005 0.031963
0.466624 0.058969 0.029653
0.491450 0.052055 0.027488
0.498185 0.054045 0.028800
0.508724 0.052600 0.030928
0.517747 0.052233 0.030421
0.534594 0.049515 0.032807
0.551239 0.047083 0.031432
0.579305 0.035485 0.024909
0.597236 0.036443 0.021184
0.620385 0.033213 0.016417
0.627149 0.030953 0.014938
0.646183 0.029502 0.013286
0.654753 0.027536 0.012572
0.660993 0.027066 0.011308
0.679162 0.022036 0.010964
0.694928 0.018710 0.011074
0.719523 0.010590 0.012309
0.733272 0.006581 0.011500
0.741212 0.004469 0.011193
0.751890 0.001489 0.011429
0.760538 0.001035 0.011644
0.768665 0.001098 0.010887
0.780108 0.000975 0.010399
0.787596 0.001240 0.009699
0.795739 0.001660 0.009982
0.803349 0.001634 0.010647
0.813435 0.001184 0.012034
0.820645 0.000514 0.012784
0.828152 0.000498 0.013409
0.843325 0.000255 0.013145
0.852793 0.000242 0.012813
0.856898 0.000230 0.013402
0.867571 0.000000 0.013758
0.871722 0.000000 0.014094
0.877404 0.000000 0.014639
0.887758 0.000000 0.018218
0.892754 0.000000 0.018080
0.896740 0.000000 0.019323
0.008926 0.103358 0.005705
0.011555 0.108975 0.005446
0.012983 0.112816 0.004384
0.018285 0.116817 0.002967
0.029818 0.118822 0.003793
0.051434 0.120060 0.005188
0.071405 0.118280 0.005217
0.091618 0.117851 0.005576
0.111138 0.117106 0.005217
0.130815 0.115753 0.004817
0.150735 0.113305 0.004620
0.170505 0.110078 0.004424
0.190429 0.106608 0.004182
0.211560 0.103951 0.004501
0.232303 0.101354 0.007934
0.249139 0.101893 0.009536
0.262859 0.100849 0.010414
0.280174 0.098954 0.010010
0.297759 0.097059 0.009380
0.314955 0.100754 0.008938
0.332518 0.099404 0.011373
0.353343 0.099180 0.016832
0.367140 0.097131 0.019235
0.384551 0.090255 0.027380
0.399658 0.091861 0.027966
0.428434 0.086724 0.025074
0.457870 0.076495 0.024183
0.487542 0.065493 0.024374
0.499173 0.058548 0.024784
0.506630 0.060810 0.027168
0.517591 0.061409 0.030179
0.533237 0.059172 0.033836
0.544768 0.057414 0.033259
0.573084 0.049799 0.031791
0.594180 0.046143 0.027828
0.615722 0.043328 0.020922
0.627608 0.038263 0.017710
0.647512 0.031976 0.015159
0.657476 0.028370 0.014122
0.663403 0.027048 0.011953
0.683004 0.022149 0.010723
0.694919 0.019464 0.011023
0.725475 0.010248 0.011929
0.732024 0.008139 0.011991
0.740658 0.005335 0.011793
0.759784 0.001453 0.012320
0.763787 0.001476 0.011525
0.775358 0.001527 0.010645
0.781927 0.001216 0.010191
0.787831 0.001268 0.010043
0.799059 0.001678 0.010418
0.805427 0.001637 0.009779
0.816228 0.001186 0.011869
0.823382 0.001174 0.012062
0.834257 0.001190 0.011013
0.847272 0.000959 0.011426
0.852354 0.000944 0.012041
0.859125 0.000926 0.012422
0.866661 0.000684 0.012569
0.872455 0.000000 0.013595
0.877930 0.000000 0.014379
0.887956 0.000000 0.017223
0.893621 0.000000 0.017561
0.900694 0.000000 0.018113
0.009765 0.117085 0.004260
0.009578 0.118383 0.003926
0.010764 0.123204 0.002766
0.012168 0.128172 0.001739
0.021807 0.130378 0.002067
0.040657 0.134486 0.003472
0.062844 0.135983 0.004468
0.084069 0.135327 0.004072
0.104652 0.134358 0.003760
0.125051 0.130942 0.003553
0.145619 0.131638 0.003051
0.168061 0.128229 0.003051
0.186063 0.124753 0.002109
0.206570 0.121190 0.001711
0.227512 0.117289 0.002392
0.248225 0.114266 0.004365
0.265193 0.112101 0.006456
0.287478 0.109372 0.006828
0.306504 0.101607 0.006048
0.321477 0.107806 0.006478
0.335735 0.109356 0.006122
0.355122 0.111626 0.009549
0.372245 0.110406 0.010753
0.382831 0.111692 0.010447
0.408867 0.110670 0.014732
0.422316 0.107977 0.014115
0.444679 0.100489 0.013776
0.475003 0.092483 0.011083
0.492012 0.074048 0.018717
0.502701 0.069035 0.025411
0.516082 0.067190 0.028230
0.529414 0.068463 0.029541
0.546502 0.067338 0.031188
0.567902 0.064083 0.033991
0.590264 0.056926 0.032068
0.614901 0.051525 0.024859
0.626582 0.044122 0.020778
0.636259 0.043624 0.020579
0.654711 0.035321 0.016192
0.663988 0.031635 0.015744
0.678551 0.025798 0.013983
0.703025 0.019530 0.011896
0.727659 0.010783 0.011365
0.736139 0.007536 0.012078
0.746524 0.004676 0.011521
0.760789 0.001526 0.012528
0.772298 0.001532 0.011091
0.780719 0.001177 0.010265
0.786398 0.001249 0.010151
0.788734 0.001296 0.009970
0.799684 0.001696 0.010311
0.812564 0.002039 0.010222
0.819392 0.002605 0.010579
0.827948 0.001227 0.010313
0.835256 0.001227 0.010308
0.849553 0.000989 0.011591
0.856576 0.000965 0.011780
0.860499 0.000941 0.011501
0.870579 0.000694 0.012771
0.874999 0.000000 0.013346
0.881429 0.000000 0.013451
0.888472 0.000000 0.015368
0.893341 0.000000 0.016360
0.903285 0.000000 0.018081
0.007252 0.122356 0.004707
0.009461 0.126368 0.002612
0.010219 0.133304 0.001977
0.009773 0.137164 0.001412
0.015295 0.142785 0.001555
0.026464 0.148450 0.001912
0.049685 0.150551 0.002793
0.074260 0.151013 0.002854
0.096762 0.150011 0.002341
0.118075 0.148453 0.002237
0.139329 0.147613 0.002237
0.160182 0.146699 0.001912
0.181076 0.145169 0.001492
0.201939 0.139903 0.001119
0.223428 0.135971 0.000956
0.242385 0.131904 0.001803
0.262440 0.128244 0.002512
0.287972 0.122011 0.003482
0.303744 0.119661 0.004726
0.326122 0.116589 0.005896
0.344157 0.115555 0.004169
0.357939 0.120330 0.004265
0.374668 0.121400 0.004674
0.395450 0.126237 0.003121
0.409949 0.128717 0.003035
0.427377 0.130654 0.001562
0.442877 0.126979 0.004806
0.465881 0.125352 0.003899
0.485056 0.118297 0.006350
0.495914 0.113856 0.009702
0.511866 0.112897 0.015503
0.533625 0.101009 0.019631
0.537577 0.102375 0.019876
0.562147 0.094946 0.029056
0.580573 0.087498 0.029124
0.607158 0.063376 0.028881
0.628519 0.048999 0.024190
0.632567 0.054713 0.024311
0.644059 0.049443 0.022390
0.664168 0.041874 0.019826
0.681009 0.039131 0.016570
0.705589 0.032083 0.014754
0.722385 0.015344 0.013371
0.737359 0.008019 0.011499
0.753790 0.004633 0.012432
0.764978 0.001780 0.012439
0.773494 0.001588 0.011147
0.781901 0.001216 0.010239
0.787225 0.001275 0.010115
0.793921 0.001718 0.010143
0.803296 0.002506 0.010289
0.815205 0.002695 0.010120
0.825104 0.002097 0.010294
0.832945 0.002096 0.011000
0.837846 0.001258 0.010367
0.851010 0.001015 0.011819
0.856707 0.000985 0.011347
0.861946 0.000953 0.011512
0.866793 0.000703 0.012094
0.876650 0.000000 0.012879
0.885629 0.000467 0.013663
0.890591 0.000472 0.014887
0.896686 0.000474 0.014939
0.903836 0.000000 0.016872
0.007028 0.130982 0.003151
0.007653 0.136643 0.002171
0.008901 0.140000 0.001656
0.010000 0.150513 0.001622
0.012194 0.155037 0.001270
0.020776 0.162561 0.001422
0.035787 0.165299 0.001964
0.060484 0.165850 0.002066
0.086555 0.165920 0.001851
0.109787 0.164810 0.001878
0.131986 0.163650 0.001912
0.153369 0.163103 0.001689
0.175172 0.162385 0.001296
0.196767 0.158578 0.000793
0.217914 0.156402 0.000570
0.238593 0.154107 0.000760
0.258911 0.147531 0.000956
0.280463 0.143219 0.000929
0.301821 0.139690 0.001444
0.325998 0.135219 0.002880
0.344780 0.128894 0.003587
0.367581 0.128793 0.002633
0.385052 0.132277 0.001080
0.400367 0.132243 0.001268
0.418712 0.133086 0.001069
0.438402 0.135148 0.000864
0.449644 0.140027 0.001232
0.464177 0.142839 0.000432
0.482297 0.145172 0.003044
0.497046 0.142763 0.003264
0.511697 0.142906 0.003342
0.526223 0.141745 0.004490
0.538651 0.135570 0.008725
0.551386 0.131085 0.015643
0.566157 0.121457 0.023582
0.582674 0.110375 0.025796
0.612921 0.090501 0.027808
0.633482 0.068273 0.025923
0.647865 0.069003 0.026187
0.667849 0.072949 0.026237
0.680801 0.060423 0.022373
0.695746 0.046527 0.018591
0.714255 0.029586 0.015691
0.736838 0.016411 0.011561
0.754046 0.007644 0.011400
0.770904 0.003158 0.011006
0.775914 0.001630 0.010306
0.781498 0.001245 0.011259
0.787739 0.001293 0.010097
0.801223 0.002548 0.011363
0.808216 0.002768 0.010577
0.817884 0.007033 0.010697
0.829105 0.007205 0.009640
0.836860 0.006484 0.010771
0.840244 0.006530 0.009858
0.849722 0.006311 0.010607
0.858831 0.000995 0.011853
0.860756 0.000962 0.012005
0.874201 0.001173 0.011894
0.877242 0.000478 0.012209
0.884756 0.000486 0.013417
0.893514 0.000488 0.013717
0.897758 0.000486 0.014695
0.903735 0.000483 0.015925
0.006655 0.137137 0.003091
0.007448 0.146595 0.002354
0.008464 0.156556 0.002054
0.009316 0.159412 0.001694
0.011764 0.170205 0.001837
0.014950 0.175981 0.000865
0.026094 0.176997 0.001120
0.048197 0.177723 0.001334
0.078201 0.180305 0.001296
0.099929 0.181010 0.001152
0.123080 0.179826 0.001330
0.145731 0.178986 0.001133
0.168473 0.178627 0.000793
0.190822 0.178071 0.000570
0.212436 0.176541 0.000177
0.233447 0.171438 0.000196
0.254407 0.168330 0.000374
0.277483 0.163245 0.000177
0.298452 0.161469 0.000000
0.320152 0.154516 0.000625
0.343120 0.148863 0.001505
0.367873 0.144963 0.001141
0.385799 0.144183 0.000777
0.404041 0.140355 0.000880
0.425988 0.138472 0.000565
0.443544 0.141281 0.000352
0.453295 0.145774 0.000746
0.473131 0.148210 0.000405
0.488701 0.151829 0.000193
0.501240 0.157253 0.000589
0.515508 0.160487 0.000000
0.529310 0.155752 0.001906
0.539545 0.155014 0.002194
0.551430 0.157955 0.000473
0.565866 0.161194 0.002963
0.578619 0.160076 0.010981
0.589160 0.167969 0.011439
0.608289 0.148929 0.012062
0.640320 0.109335 0.023671
0.660629 0.094611 0.024196
0.675649 0.071380 0.025721
0.688479 0.064990 0.023782
0.708262 0.043378 0.018330
0.732321 0.025496 0.013763
0.752679 0.011316 0.011664
0.770114 0.006093 0.011689
0.777838 0.004629 0.011407
0.782603 0.004712 0.012579
0.795995 0.002350 0.012618
0.809726 0.007520 0.010610
0.814503 0.008388 0.010077
0.826860 0.007972 0.011271
0.835840 0.007245 0.011272
0.838054 0.007071 0.010713
0.843841 0.007046 0.010169
0.851483 0.006737 0.010907
0.857468 0.006590 0.011272
0.865060 0.001431 0.011865
0.871369 0.001194 0.012409
0.878959 0.000498 0.013385
0.889746 0.000503 0.013192
0.898597 0.000502 0.015130
0.901190 0.003352 0.014449
0.910088 0.003395 0.015919
0.006686 0.157609 0.002167
0.007096 0.160900 0.002123
0.005835 0.164606 0.002673
0.008958 0.174255 0.002303
0.011107 0.181143 0.001171
0.014417 0.187294 0.000522
0.019771 0.189901 0.000511
0.035307 0.194297 0.000507
0.060113 0.195238 0.000586
0.091488 0.195618 0.000570
0.113058 0.196508 0.000374
0.136775 0.194107 0.000374
0.160826 0.194672 0.000374
0.183739 0.194313 0.000177
0.206158 0.193920 0.000000
0.227870 0.191150 0.000000
0.249776 0.188297 0.000000
0.272022 0.186225 0.000000
0.294762 0.179538 0.000000
0.316435 0.177422 0.000000
0.338462 0.171151 0.000189
0.364529 0.167071 0.000330
0.384427 0.163088 0.000157
0.407995 0.159427 0.000197
0.429539 0.155991 0.000180
0.445255 0.153138 0.000000
0.461833 0.152167 0.000290
0.480262 0.154049 0.000000
0.495124 0.157989 0.000000
0.507206 0.159379 0.000000
0.519494 0.162621 0.000000
0.530319 0.168136 0.000000
0.541234 0.172470 0.000000
0.554592 0.177027 0.000000
0.569554 0.179740 0.000844
0.580799 0.182107 0.003051
0.587792 0.177794 0.005400
0.590292 0.177857 0.005595
0.620742 0.154054 0.011505
0.643150 0.128258 0.019150
0.665611 0.105906 0.021702
0.676385 0.096980 0.023319
0.699120 0.067818 0.023984
0.723237 0.047269 0.018180
0.750979 0.029693 0.013843
0.769349 0.019014 0.012874
0.777765 0.015843 0.011656
0.783333 0.011356 0.012863
0.801058 0.007925 0.011201
0.817021 0.008839 0.010464
0.820760 0.008644 0.012342
0.832772 0.007765 0.011657
0.836385 0.007841 0.011458
0.838261 0.007847 0.010646
0.849934 0.007314 0.011348
