backend/3dlut-creator/demo/pentax.cube
TITLE "3D LUT from Image Pairs"
LUT_3D_SIZE 8
0.018939 0.018725 0.016819
0.146617 0.020480 0.021648
0.303319 0.020750 0.026532
0.478632 0.016010 0.019760
0.623534 0.007804 0.012832
0.740115 0.001358 0.013465
0.812758 0.000979 0.016665
0.878332 0.001206 0.028216
0.009765 0.117085 0.004260
0.125051 0.130942 0.003553
0.306504 0.101607 0.006048
0.475003 0.092483 0.011083
0.626582 0.044122 0.020778
0.760789 0.001526 0.012528
0.835256 0.001227 0.010308
0.903285 0.000000 0.018081
0.006452 0.200087 0.001639
0.034284 0.272248 0.000000
0.263532 0.279177 0.000000
0.467022 0.250390 0.000000
0.598172 0.231063 0.000000
0.699667 0.258719 0.000000
0.863100 0.015878 0.013154
0.928351 0.003797 0.013705
0.028334 0.289278 0.000246
0.101007 0.371420 0.000000
0.177567 0.434536 0.000000
0.414002 0.435294 0.000000
0.587693 0.401732 0.000000
0.718809 0.400643 0.000000
0.797128 0.443073 0.000000
0.927664 0.276556 0.000000
0.115175 0.402200 0.000000
0.165210 0.459353 0.000000
0.231332 0.500127 0.000000
0.358596 0.559225 0.000000
0.537255 0.568627 0.000000
0.672594 0.573837 0.000000
0.810424 0.531587 0.000000
0.875235 0.558647 0.000000
0.166954 0.474055 0.016641
0.234664 0.523394 0.000000
0.306118 0.574944 0.000000
0.416573 0.624251 0.000000
0.496973 0.678457 0.000000
0.641316 0.694518 0.000000
0.765433 0.712193 0.000000
0.899379 0.642966 0.000000
0.015493 0.631975 0.332926
0.298250 0.573017 0.000000
0.369988 0.612380 0.000000
0.459012 0.672692 0.000000
0.536818 0.717113 0.000000
0.634301 0.771282 0.000000
0.719725 0.811387 0.000000
0.799100 0.807302 0.000000
0.000000 0.673696 0.375476
0.347309 0.603193 0.000000
0.439736 0.664766 0.000000
0.498870 0.702678 0.000000
0.583304 0.747347 0.000000
0.677356 0.810584 0.000000
0.712470 0.830532 0.000000
0.771196 0.848829 0.000000
0.017946 0.003611 0.128922
0.120849 0.005737 0.125006
0.294946 0.013355 0.110624
0.474510 0.000000 0.117647
0.630230 0.019915 0.087298
0.747833 0.019772 0.045416
0.850013 0.010340 0.031873
0.926574 0.007117 0.054042
0.000177 0.116184 0.131249
0.120067 0.121741 0.119216
0.293341 0.109475 0.115045
0.467090 0.097146 0.106702
0.617195 0.093417 0.099730
0.750778 0.043167 0.050910
0.865393 0.004713 0.029850
0.935653 0.002647 0.032270
0.000719 0.198842 0.151184
0.064659 0.266063 0.101490
0.258306 0.273781 0.083075
0.458273 0.256130 0.076528
0.611166 0.234006 0.078405
0.742890 0.191432 0.053666
0.864945 0.133720 0.012609
0.963037 0.009442 0.018573
0.010777 0.378172 0.194497
0.097699 0.353689 0.067632
0.186621 0.437522 0.016304
0.413354 0.432733 0.006353
0.583496 0.421592 0.007608
0.723522 0.393519 0.004020
0.850836 0.334818 0.000000
0.945404 0.292176 0.000000
0.000000 0.505633 0.278032
0.152629 0.464669 0.043266
0.247257 0.536049 0.000000
0.354543 0.564870 0.001106
0.537665 0.564935 0.000000
0.697101 0.560597 0.000000
0.832869 0.533309 0.000000
0.928385 0.538681 0.000000
0.000000 0.590627 0.330397
0.218122 0.540903 0.037438
0.309788 0.580401 0.000485
0.389155 0.626541 0.000000
0.489864 0.683500 0.000000
0.650307 0.695220 0.000000
0.808681 0.693967 0.000000
0.927969 0.666245 0.000000
0.000000 0.673253 0.374964
0.000000 0.649663 0.361466
0.358092 0.613747 0.000487
0.452788 0.680137 0.000000
0.530746 0.729512 0.000000
0.626781 0.782321 0.000000
0.743118 0.820779 0.000000
0.876685 0.820683 0.000000
0.000000 0.692704 0.393991
0.000000 0.689784 0.393075
0.437032 0.673293 0.000729
0.506607 0.723634 0.000000
0.579248 0.765237 0.000000
0.679705 0.831786 0.000000
0.739716 0.867723 0.000000
0.816728 0.874443 0.000000
0.032249 0.009256 0.247160
0.120531 0.006072 0.253601
0.311673 0.035002 0.203010
0.500367 0.015025 0.189103
0.600937 0.006529 0.210732
0.741182 0.001181 0.252200
0.855229 0.000000 0.231546
0.954758 0.000000 0.202147
0.012293 0.082693 0.278660
0.140151 0.088537 0.284184
0.282501 0.088290 0.271180
0.466505 0.084378 0.251866
0.622007 0.076020 0.252851
0.740467 0.007175 0.234024
0.850314 0.068550 0.216696
0.979470 0.008749 0.104670
0.000000 0.208257 0.294598
0.056223 0.263559 0.270377
0.259118 0.261356 0.261278
0.457653 0.237968 0.247232
0.611623 0.219038 0.237437
0.732020 0.212799 0.228884
0.851458 0.204116 0.225949
0.990775 0.044785 0.085901
0.000000 0.455934 0.283000
0.002797 0.443493 0.245889
0.194020 0.425343 0.232313
0.410699 0.429352 0.212979
0.579803 0.417501 0.200876
0.716354 0.396584 0.200452
0.837746 0.380956 0.204627
0.968397 0.292745 0.097857
0.000000 0.549128 0.320672
0.000000 0.515937 0.294716
0.181917 0.518354 0.215774
0.355574 0.571786 0.171576
0.540288 0.562112 0.159486
0.695137 0.560612 0.147104
0.816700 0.556807 0.155993
0.954251 0.504411 0.037637
0.000000 0.639983 0.361000
0.000000 0.626068 0.362770
0.223096 0.574409 0.212470
0.397374 0.630606 0.137536
0.490928 0.691252 0.113851
0.655732 0.692097 0.090985
0.806123 0.699589 0.078031
0.947619 0.670182 0.002666
0.000000 0.689043 0.390902
0.000000 0.680340 0.393400
0.035346 0.668742 0.387575
0.461423 0.690114 0.117177
0.533738 0.746022 0.061156
0.627181 0.799966 0.012302
0.763635 0.826042 0.000375
0.926940 0.828799 0.000000
0.000000 0.715196 0.426618
0.000000 0.711136 0.418826
0.026852 0.738732 0.450078
0.517740 0.737948 0.086673
0.580901 0.783891 0.040199
0.673380 0.842201 0.000000
0.768234 0.894381 0.000000
0.864031 0.911885 0.000000
0.075102 0.037450 0.399739
0.144776 0.016459 0.351599
0.257369 0.053631 0.346372
0.479364 0.051444 0.270845
0.661708 0.030639 0.288999
0.767700 0.028641 0.327339
0.859073 0.026586 0.369091
0.976660 0.001588 0.390153
0.093914 0.046741 0.450421
0.184939 0.078267 0.425391
0.278339 0.104167 0.404508
0.413513 0.123121 0.393689
0.631605 0.102577 0.350222
0.748223 0.092340 0.380190
0.852748 0.079390 0.418790
0.990977 0.005397 0.402492
0.000000 0.244609 0.434362
0.087615 0.210279 0.441959
0.268173 0.226611 0.433115
0.450836 0.217359 0.429687
0.612432 0.197690 0.421836
0.732996 0.200392 0.421113
0.851619 0.186202 0.418730
0.969980 0.147759 0.385275
0.000000 0.374824 0.448257
0.009095 0.394171 0.435322
0.189185 0.417853 0.414857
0.419608 0.419608 0.419608
0.584314 0.400000 0.411765
0.720148 0.385689 0.401012
0.847059 0.360784 0.392157
0.992157 0.290196 0.352941
0.000000 0.583900 0.373389
0.000000 0.583637 0.356841
0.088852 0.548523 0.366023
0.353658 0.563318 0.380372
0.541176 0.560784 0.372549
0.693983 0.556248 0.368844
0.824845 0.546733 0.364589
1.000000 0.427451 0.266667
0.000000 0.678085 0.389427
0.000000 0.670648 0.398870
0.020064 0.652782 0.421076
0.382909 0.641957 0.370810
0.496559 0.687211 0.345487
0.665081 0.694943 0.336381
0.808419 0.699080 0.328621
0.939054 0.685449 0.306698
0.000000 0.722931 0.442003
0.000000 0.710999 0.436678
0.000000 0.728442 0.467252
0.347866 0.714112 0.405115
0.542214 0.746107 0.332879
0.634839 0.799966 0.289409
0.773290 0.825750 0.262381
0.942088 0.827404 0.170652
0.000000 0.738147 0.481001
0.000000 0.770073 0.524475
0.000000 0.789949 0.539072
0.153753 0.793728 0.523787
0.593311 0.794431 0.301108
0.691343 0.864090 0.205975
0.770562 0.905863 0.084548
0.882488 0.947258 0.000173
0.043468 0.009223 0.558390
0.159090 0.046068 0.494294
0.263769 0.107171 0.473295
0.347729 0.123040 0.456065
0.674295 0.085519 0.356384
0.821108 0.055918 0.391443
0.890518 0.061222 0.431326
0.964741 0.023865 0.436902
0.041604 0.008733 0.592735
0.204492 0.071373 0.548256
0.284297 0.130821 0.517285
0.388505 0.173297 0.508023
0.647916 0.172064 0.453924
0.772237 0.140881 0.472771
0.885647 0.103384 0.491956
0.975941 0.082546 0.499633
0.103159 0.145823 0.585754
0.178608 0.089402 0.600482
0.305691 0.169620 0.572418
0.431441 0.227462 0.536352
0.586526 0.257555 0.527401
0.751793 0.210309 0.515604
0.863355 0.188739 0.543020
0.975506 0.157217 0.552477
0.000000 0.396078 0.568627
0.015425 0.378963 0.572567
0.209868 0.384767 0.570758
0.419608 0.384314 0.568627
0.588235 0.368627 0.564706
0.725547 0.368025 0.561344
0.842348 0.356872 0.558532
0.978427 0.315848 0.556761
0.000000 0.509469 0.590117
0.000000 0.526359 0.584412
0.152193 0.528395 0.562134
0.360784 0.556863 0.552941
0.552941 0.552941 0.552941
0.705484 0.541640 0.549044
0.835059 0.524661 0.540174
1.000000 0.180392 0.309804
0.000000 0.697462 0.512729
0.000000 0.699940 0.510340
0.050913 0.682635 0.512575
0.331264 0.657630 0.537666
0.503794 0.695364 0.523201
0.676690 0.694574 0.520603
0.815464 0.691873 0.517980
0.975103 0.550780 0.330881
0.000000 0.750195 0.530534
0.000000 0.774467 0.569436
0.000000 0.795557 0.551621
0.078138 0.806617 0.556565
0.489171 0.782011 0.528071
0.643227 0.814135 0.475154
0.790480 0.828160 0.469803
0.955601 0.821477 0.405988
0.000000 0.753263 0.543388
0.000000 0.785431 0.587079
0.000000 0.806849 0.573591
0.025771 0.823697 0.589896
0.419948 0.816094 0.552434
0.679942 0.865542 0.469985
0.782686 0.903673 0.401029
0.944834 0.964007 0.097846
0.015805 0.003093 0.668969
0.039417 0.010549 0.659225
0.287153 0.123100 0.580860
0.334834 0.153176 0.600283
0.567677 0.189541 0.516286
0.852419 0.089960 0.463175
0.903995 0.082216 0.477817
0.970102 0.066339 0.481493
0.018418 0.004793 0.707133
0.118438 0.035095 0.660835
0.303927 0.128027 0.629297
0.355699 0.168446 0.624440
0.517930 0.257150 0.594838
0.775850 0.191659 0.539137
0.909628 0.140548 0.549317
0.962626 0.131366 0.550187
0.043286 0.021620 0.729719
0.127393 0.050548 0.695630
0.235725 0.068116 0.698183
0.422258 0.224283 0.670307
0.576995 0.306291 0.633266
0.717870 0.342993 0.622888
0.891102 0.233171 0.609992
0.969400 0.199958 0.618201
0.042319 0.329318 0.705065
0.165016 0.316726 0.703617
0.237112 0.273873 0.709247
0.433041 0.335149 0.692731
0.598664 0.362939 0.688809
0.731532 0.379088 0.656704
0.855090 0.377977 0.650619
0.983566 0.286212 0.670345
0.000000 0.533814 0.690356
0.000000 0.552185 0.673594
0.166889 0.507062 0.701081
0.379710 0.532326 0.698246
0.558915 0.529958 0.698359
0.715324 0.529891 0.692948
0.840327 0.517834 0.688916
0.987630 0.445920 0.682440
0.000000 0.627791 0.721669
0.000000 0.627838 0.715987
0.038619 0.639814 0.692707
0.336886 0.664606 0.692471
0.502320 0.688751 0.685955
0.682356 0.683480 0.684905
0.830539 0.673526 0.682282
0.989658 0.424349 0.526317
0.000000 0.746403 0.613804
0.000000 0.782198 0.607642
0.000000 0.804818 0.657916
0.033943 0.821258 0.670182
0.398264 0.806575 0.680931
0.643964 0.828347 0.661153
0.810557 0.829527 0.657942
0.959835 0.809389 0.607653
0.000000 0.767510 0.588205
0.000000 0.793762 0.616426
0.000000 0.817288 0.651460
0.043869 0.836502 0.672924
0.245251 0.846392 0.704619
0.679593 0.877580 0.653746
0.804200 0.916699 0.615041
0.950673 0.960909 0.479710
0.020304 0.006485 0.725409
0.020457 0.006559 0.725278
0.258366 0.089679 0.665111
0.341539 0.156710 0.648030
0.442933 0.210138 0.669969
0.847187 0.146165 0.527151
0.931052 0.119049 0.537806
0.963950 0.117670 0.543425
0.015357 0.005780 0.755756
0.039212 0.010607 0.750716
0.229839 0.068264 0.716452
0.372574 0.170418 0.701552
0.451303 0.219112 0.696726
0.749824 0.264607 0.616046
0.918097 0.198149 0.606780
0.964595 0.186255 0.607672
0.034429 0.028549 0.814985
0.145283 0.074873 0.778825
0.177076 0.047942 0.770261
0.306195 0.117257 0.759233
0.534683 0.299818 0.742638
0.678437 0.358414 0.684339
0.917697 0.269664 0.645227
0.971142 0.254031 0.657864
0.127060 0.164848 0.832783
0.123806 0.108997 0.834189
0.211605 0.142260 0.825742
0.242548 0.088648 0.839235
0.575854 0.368160 0.762179
0.664612 0.435281 0.753336
0.858779 0.447043 0.711603
0.986300 0.353053 0.709665
0.000000 0.467164 0.827045
0.106043 0.425390 0.828183
0.261859 0.457767 0.831186
0.335912 0.310176 0.843817
0.591538 0.488624 0.793815
0.713577 0.513882 0.804615
0.857669 0.535106 0.757280
0.982078 0.481910 0.762067
0.000000 0.670110 0.809048
0.000000 0.699019 0.814260
0.025658 0.671756 0.831501
0.367282 0.624060 0.830611
0.517622 0.664753 0.827182
0.700161 0.664276 0.832491
0.849181 0.679582 0.827144
0.984925 0.622495 0.818368
0.000000 0.700452 0.813656
0.000000 0.718568 0.827690
0.000000 0.744634 0.846120
0.090516 0.777133 0.847737
0.404454 0.807998 0.847525
0.649257 0.819943 0.821838
0.819124 0.821026 0.820724
0.982814 0.805016 0.819920
0.000000 0.708080 0.821248
0.000000 0.724270 0.834288
0.000000 0.767435 0.807723
0.121491 0.828243 0.754100
0.393099 0.846938 0.800055
0.643895 0.898805 0.829418
0.805727 0.943531 0.814284
0.967864 0.962703 0.637195
0.011882 0.003130 0.768174
0.021252 0.004337 0.766527
0.124828 0.031906 0.749937
0.288785 0.105604 0.733719
0.400487 0.179876 0.733774
0.742360 0.229621 0.643205
0.935807 0.181243 0.598240
0.958815 0.171857 0.594436
0.020446 0.012748 0.806794
0.036449 0.016678 0.824443
0.122162 0.043494 0.819349
0.291249 0.108503 0.773771
0.424944 0.209654 0.757792
0.599288 0.348921 0.743105
0.932377 0.242935 0.640998
0.968872 0.232339 0.645856
0.050726 0.050113 0.833751
0.066751 0.037927 0.858915
0.117356 0.062298 0.860996
0.240697 0.095793 0.843366
0.354208 0.162333 0.826420
0.628693 0.393193 0.780457
0.908943 0.349504 0.707614
0.984859 0.307442 0.689352
0.106983 0.158703 0.842029
0.111552 0.122769 0.868546
0.153990 0.127807 0.873237
0.249876 0.141979 0.879567
0.301783 0.138761 0.884538
0.653394 0.441193 0.821600
0.845243 0.487177 0.766831
0.985064 0.407160 0.740798
0.000000 0.496666 0.887757
0.045812 0.456396 0.889680
0.197052 0.290262 0.872606
0.264105 0.211913 0.891015
0.290693 0.168494 0.926243
0.476547 0.311917 0.918592
0.789370 0.586348 0.863059
0.986409 0.554290 0.803881
0.000000 0.576129 0.902778
0.000000 0.582126 0.910137
0.000000 0.609336 0.925877
0.135697 0.621225 0.921106
0.391553 0.417818 0.901507
0.392005 0.280751 0.952699
0.780869 0.681217 0.918335
0.982866 0.690945 0.872130
0.000000 0.663229 0.861832
0.000000 0.703496 0.854601
0.000000 0.723414 0.880832
0.046108 0.725926 0.913512
0.326265 0.778251 0.921934
0.574685 0.648627 0.934852
0.808046 0.807742 0.961544
0.980675 0.835682 0.937407
0.000000 0.693377 0.844279
0.000000 0.724155 0.849421
0.000000 0.737390 0.874627
0.115899 0.782823 0.886435
0.388904 0.821120 0.909983
0.616887 0.871359 0.937690
0.806078 0.928680 0.964535
0.969923 0.967833 0.969032
