backend/3dlut-creator/demo/ricoh_positive.cube
TITLE "3D LUT from Image Pairs"
LUT_3D_SIZE 8
0.007843 0.007843 0.007843
0.129796 0.021072 0.010555
0.314953 0.034467 0.018621
0.538185 0.017360 0.014233
0.691841 0.010019 0.012437
0.807958 0.006367 0.011820
0.881009 0.010919 0.012970
0.920947 0.011250 0.015519
0.044679 0.128819 0.077959
0.121569 0.101961 0.031373
0.313725 0.082353 0.023529
0.498039 0.062745 0.015686
0.656043 0.052665 0.019759
0.795868 0.015152 0.015939
0.878304 0.004824 0.009323
0.917510 0.010270 0.013626
0.008267 0.272082 0.110174
0.134932 0.264634 0.082136
0.282353 0.235294 0.054902
0.498039 0.203922 0.035294
0.643137 0.160785 0.019608
0.758310 0.176901 0.047411
0.855115 0.138790 0.053627
0.920569 0.022515 0.013794
0.021630 0.470770 0.238967
0.130420 0.466671 0.217978
0.324087 0.442700 0.128347
0.470588 0.407843 0.066667
0.639216 0.372549 0.047059
0.752941 0.325490 0.027451
0.843737 0.372644 0.021464
0.878224 0.379003 0.085898
0.063710 0.599203 0.348642
0.151442 0.602603 0.337435
0.356948 0.584895 0.249468
0.418767 0.568409 0.186428
0.612798 0.559791 0.105764
0.760784 0.533334 0.062745
0.847059 0.490196 0.035294
0.918310 0.481358 0.021234
0.030201 0.705546 0.473817
0.063239 0.706839 0.471173
0.309825 0.721541 0.448912
0.499078 0.715095 0.376574
0.570867 0.708349 0.279847
0.736288 0.702229 0.199334
0.881598 0.677009 0.148557
0.942774 0.622856 0.033224
0.066681 0.773565 0.550965
0.073690 0.777126 0.553803
0.227367 0.775777 0.533493
0.446340 0.740336 0.430335
0.563865 0.739870 0.378463
0.680603 0.758907 0.346936
0.814786 0.782522 0.335039
0.977084 0.722741 0.130398
0.063851 0.788801 0.568639
0.137896 0.784568 0.557683
0.145403 0.786033 0.557595
0.280806 0.780315 0.529538
0.569277 0.750430 0.399228
0.613228 0.755995 0.380410
0.805467 0.787910 0.360245
0.819831 0.793660 0.361564
0.000000 0.000000 0.062745
0.104085 0.026509 0.079833
0.281882 0.019885 0.068125
0.467675 0.031473 0.068396
0.631373 0.015687 0.039216
0.751348 0.001373 0.020295
0.860928 0.003937 0.016129
0.923564 0.006734 0.018464
0.029597 0.091842 0.105989
0.098039 0.098039 0.098039
0.254902 0.086275 0.090196
0.451339 0.080425 0.080604
0.619608 0.066667 0.074510
0.748461 0.010324 0.025665
0.855930 0.009176 0.012373
0.923857 0.011622 0.016366
0.039216 0.239216 0.137255
0.082353 0.235294 0.125490
0.258823 0.235294 0.109804
0.454902 0.219608 0.105882
0.596078 0.211765 0.105882
0.721569 0.160784 0.050980
0.851272 0.099373 0.042741
0.923913 0.021348 0.014172
0.013418 0.438923 0.225420
0.100826 0.420294 0.202865
0.250980 0.419608 0.164706
0.458823 0.403922 0.133333
0.615686 0.388235 0.137255
0.733333 0.356863 0.125490
0.823595 0.338746 0.074017
0.889960 0.297917 0.110533
0.012291 0.584631 0.336314
0.053496 0.573691 0.321190
0.286659 0.580616 0.283926
0.421397 0.555471 0.213448
0.600000 0.552941 0.180392
0.737255 0.541177 0.172549
0.843624 0.492376 0.094364
0.897030 0.450377 0.020851
0.029884 0.703899 0.472412
0.039130 0.706158 0.473392
0.150757 0.727470 0.486018
0.462122 0.703614 0.382597
0.562392 0.698143 0.319577
0.721569 0.690196 0.219608
0.847059 0.698039 0.172549
0.952941 0.623529 0.054901
0.066041 0.773418 0.550830
0.073109 0.777023 0.553693
0.085004 0.781632 0.558017
0.380407 0.764235 0.487248
0.541542 0.741075 0.396352
0.649766 0.757137 0.364775
0.817497 0.791140 0.354337
0.975820 0.734510 0.165676
0.063730 0.788816 0.568657
0.063848 0.788918 0.568751
0.140258 0.790373 0.563670
0.240447 0.784300 0.542212
0.525857 0.753741 0.426924
0.614223 0.758887 0.387947
0.802704 0.791775 0.371654
0.820954 0.795711 0.366381
0.002668 0.000000 0.202876
0.065575 0.003260 0.201585
0.248487 0.022362 0.175754
0.438283 0.037222 0.182541
0.603560 0.020689 0.168793
0.713725 0.043138 0.180392
0.839216 0.000001 0.129412
0.911491 0.005781 0.123632
0.032260 0.073099 0.208376
0.081719 0.075986 0.196869
0.235294 0.078431 0.192157
0.440175 0.074253 0.189837
0.592082 0.077180 0.191724
0.712755 0.060863 0.181837
0.834731 0.057687 0.169117
0.928776 0.003170 0.060589
0.030506 0.207210 0.234851
0.080474 0.215780 0.240247
0.227451 0.227451 0.227451
0.427451 0.215686 0.215686
0.592157 0.192157 0.207843
0.717647 0.172549 0.196078
0.827451 0.145098 0.188235
0.972549 0.007844 0.027451
0.000000 0.400000 0.317647
0.105548 0.402150 0.283898
0.196078 0.411765 0.274510
0.435294 0.403922 0.243137
0.596078 0.388235 0.243137
0.705882 0.388235 0.243137
0.815721 0.368563 0.235322
0.917647 0.235294 0.125490
0.000000 0.556863 0.376471
0.091103 0.554262 0.363966
0.192157 0.564706 0.341177
0.400000 0.560784 0.309804
0.588235 0.552941 0.278431
0.725490 0.549020 0.290196
0.819608 0.556863 0.290196
0.903703 0.519601 0.222557
0.011632 0.701929 0.479079
0.025828 0.699578 0.473513
0.172467 0.725719 0.488970
0.360506 0.698083 0.426957
0.565505 0.689049 0.360335
0.713726 0.686275 0.337255
0.854902 0.698039 0.376471
0.936720 0.639925 0.258947
0.053990 0.772757 0.552518
0.057575 0.776978 0.557609
0.083693 0.784236 0.561173
0.130308 0.790015 0.564687
0.509478 0.765002 0.458738
0.682259 0.786255 0.426102
0.815912 0.803146 0.410521
0.974970 0.764109 0.245581
0.063394 0.788940 0.568814
0.063551 0.789094 0.568958
0.075559 0.794297 0.573682
0.093210 0.800196 0.579347
0.368537 0.786367 0.521168
0.603118 0.767012 0.419272
0.788305 0.802131 0.406449
0.829612 0.805099 0.383730
0.006240 0.000333 0.401677
0.019018 0.001650 0.386508
0.183101 0.000000 0.354075
0.416940 0.025725 0.331005
0.615686 0.000001 0.325490
0.701961 0.011765 0.321569
0.827451 0.007844 0.298039
0.945098 0.000001 0.262745
0.044962 0.050002 0.332269
0.058247 0.034075 0.343180
0.205194 0.067002 0.337664
0.392611 0.073242 0.319572
0.545098 0.078432 0.329412
0.702250 0.070972 0.328643
0.815686 0.054903 0.317647
0.988235 0.000002 0.301961
0.007399 0.178508 0.380541
0.055177 0.188267 0.380443
0.197165 0.189998 0.363161
0.407843 0.215686 0.360784
0.567302 0.191829 0.347651
0.708386 0.184769 0.346158
0.827451 0.192157 0.333333
0.964706 0.109804 0.352941
0.147342 0.384293 0.405786
0.181253 0.383039 0.409828
0.210761 0.389234 0.415532
0.400000 0.400000 0.400000
0.568628 0.388235 0.388235
0.710942 0.361597 0.375327
0.826372 0.337985 0.371750
0.980392 0.070589 0.133333
0.088765 0.560250 0.496490
0.121053 0.553334 0.491962
0.210407 0.559246 0.478531
0.364706 0.549020 0.443137
0.572549 0.549020 0.415686
0.709804 0.549020 0.423529
0.811765 0.552941 0.427451
0.937255 0.458824 0.360784
0.057768 0.695917 0.526448
0.075110 0.693718 0.533185
0.158916 0.693039 0.537930
0.356863 0.705882 0.521569
0.531534 0.698584 0.489466
0.709804 0.690196 0.462745
0.843137 0.701961 0.474510
0.937255 0.686275 0.486274
0.002762 0.758473 0.558951
0.009214 0.767061 0.565111
0.051268 0.801493 0.590754
0.147375 0.819479 0.604223
0.472051 0.826474 0.583996
0.679832 0.834156 0.559143
0.839216 0.831373 0.541176
0.996079 0.784314 0.431372
0.025696 0.784324 0.571134
0.052977 0.788883 0.572639
0.075641 0.799065 0.580275
0.102012 0.808956 0.590003
0.175942 0.813452 0.590596
0.566053 0.819002 0.537872
0.747666 0.836764 0.516042
0.861552 0.836218 0.477936
0.161503 0.000000 0.541230
0.185537 0.000000 0.532071
0.222968 0.000000 0.516491
0.329935 0.000000 0.498914
0.552482 0.010376 0.468653
0.696278 0.019874 0.464347
0.811765 0.035296 0.458823
0.941176 0.003923 0.427451
0.012389 0.001825 0.490655
0.029197 0.001492 0.491108
0.152941 0.000000 0.470588
0.370806 0.041767 0.475210
0.545098 0.066667 0.466667
0.692668 0.065407 0.467324
0.807843 0.078432 0.474510
0.940599 0.039900 0.428030
0.032667 0.162091 0.503871
0.062068 0.168826 0.505261
0.185263 0.182024 0.487638
0.371270 0.207007 0.502841
0.537255 0.223530 0.474510
0.692263 0.183330 0.486345
0.793051 0.178996 0.476546
0.966540 0.120150 0.452814
0.128013 0.346655 0.481212
0.135517 0.357384 0.503882
0.179025 0.346645 0.526667
0.368627 0.364706 0.529412
0.533333 0.376471 0.509804
0.709804 0.356863 0.505882
0.815566 0.362477 0.520706
0.976471 0.290196 0.513725
0.162854 0.525382 0.544264
0.189392 0.524353 0.551238
0.219097 0.518102 0.551853
0.376471 0.541177 0.564706
0.552941 0.552941 0.552941
0.698039 0.541177 0.545098
0.839216 0.517647 0.533333
0.972549 0.227451 0.325490
0.066198 0.676829 0.627955
0.070370 0.673264 0.622991
0.228396 0.690522 0.618488
0.363713 0.698163 0.619449
0.525490 0.698039 0.592157
0.701961 0.686275 0.580392
0.819608 0.694118 0.592157
0.968627 0.631373 0.545098
0.020941 0.787065 0.633878
0.029032 0.795932 0.637780
0.091054 0.812630 0.656020
0.220453 0.832995 0.684150
0.407843 0.843137 0.678431
0.658823 0.839216 0.647059
0.847059 0.835294 0.631373
0.980392 0.815686 0.643137
0.011523 0.799478 0.601307
0.023918 0.811662 0.611767
0.043262 0.828289 0.626390
0.073381 0.844153 0.639413
0.127919 0.857179 0.655712
0.486044 0.854552 0.622513
0.755674 0.890029 0.627981
0.922616 0.920104 0.661347
0.264469 0.000000 0.635060
0.269500 0.000000 0.632478
0.304900 0.000000 0.631692
0.349866 0.000000 0.619579
0.516962 0.000016 0.642319
0.675121 0.030544 0.606973
0.788235 0.000001 0.580392
0.898039 0.035295 0.588235
0.127011 0.005457 0.633289
0.166621 0.004243 0.631406
0.217896 0.000545 0.629010
0.320475 0.000000 0.612959
0.499773 0.003096 0.629113
0.662745 0.050981 0.588235
0.796078 0.121569 0.611765
0.913694 0.099038 0.571738
0.032930 0.090875 0.608119
0.058721 0.101608 0.618484
0.143236 0.123981 0.633401
0.342429 0.147938 0.627979
0.512739 0.174642 0.614812
0.666667 0.215686 0.603922
0.807843 0.200000 0.611765
0.929085 0.154376 0.568529
0.055579 0.343852 0.667978
0.064535 0.323113 0.648159
0.105882 0.329412 0.639216
0.332508 0.335319 0.639933
0.525582 0.355328 0.644489
0.677291 0.367890 0.623069
0.794242 0.367873 0.631139
0.975931 0.350311 0.610531
0.158171 0.480765 0.644196
0.160584 0.482367 0.647226
0.173525 0.493517 0.662463
0.329412 0.509804 0.658824
0.533333 0.537255 0.666667
0.686274 0.529412 0.658824
0.807843 0.533333 0.662745
0.937856 0.485088 0.639574
0.108993 0.704981 0.732970
0.120809 0.702040 0.729472
0.264978 0.688675 0.711417
0.359284 0.671959 0.701706
0.529412 0.690196 0.725490
0.690196 0.690196 0.694118
0.827451 0.682353 0.690196
0.980392 0.615686 0.658824
0.121716 0.797887 0.731146
0.131036 0.801824 0.734694
0.192357 0.823213 0.751941
0.292532 0.843402 0.769749
0.392157 0.827451 0.752941
0.658824 0.835294 0.737255
0.831373 0.823530 0.717647
0.980392 0.800000 0.717647
0.096349 0.814988 0.702978
0.103444 0.819406 0.702244
0.123260 0.830969 0.702212
0.186598 0.853505 0.705183
0.299307 0.889892 0.731194
0.511895 0.929012 0.762285
0.778888 0.963247 0.782832
0.967236 0.965134 0.771554
0.328436 0.000000 0.690585
0.330693 0.000000 0.692277
0.339584 0.000000 0.694023
0.395042 0.000000 0.701589
0.495508 0.000000 0.707059
0.704780 0.028089 0.706832
0.835040 0.052820 0.728861
0.888635 0.068583 0.715329
0.267897 0.000859 0.686435
0.292541 0.000000 0.682790
0.317785 0.000000 0.692809
0.365881 0.000000 0.702719
0.478794 0.000000 0.713821
0.691060 0.029479 0.713928
0.816247 0.068560 0.731323
0.909632 0.090720 0.709413
0.027598 0.035711 0.729139
0.033325 0.034693 0.731390
0.052633 0.030598 0.727670
0.278746 0.006644 0.708609
0.454902 0.000000 0.760784
0.686275 0.109804 0.745098
0.801999 0.210480 0.732615
0.934630 0.229662 0.726573
0.012931 0.333956 0.771771
0.019682 0.329714 0.772699
0.091090 0.309910 0.769399
0.274855 0.288620 0.779941
0.507561 0.300140 0.767488
0.674510 0.341177 0.752941
0.800000 0.388235 0.752941
0.984314 0.392157 0.741176
0.081865 0.441217 0.724153
0.083653 0.445647 0.730361
0.115588 0.477035 0.761988
0.199907 0.500814 0.806678
0.498039 0.486275 0.800000
0.692151 0.523886 0.800681
0.812361 0.540670 0.773493
0.949918 0.533093 0.767634
0.269922 0.584686 0.719977
0.269647 0.584825 0.720420
0.270433 0.586565 0.724001
0.289894 0.592567 0.741302
0.469181 0.666906 0.806348
0.678431 0.674510 0.807843
0.823529 0.690196 0.800000
0.976471 0.678431 0.800000
0.086802 0.752723 0.785174
0.084301 0.754499 0.787819
0.113124 0.770787 0.804909
0.219218 0.810691 0.851677
0.399134 0.823695 0.865313
0.661319 0.826592 0.850331
0.831373 0.831373 0.831373
0.984314 0.815686 0.831373
0.181836 0.836498 0.759856
0.183401 0.837411 0.760667
0.228973 0.864288 0.784477
0.276077 0.888644 0.809733
0.357691 0.927489 0.846392
0.490687 0.942650 0.861849
0.750800 0.972303 0.877987
0.983749 0.967609 0.854056
0.349258 0.000000 0.706037
0.367484 0.000000 0.709171
0.385183 0.000000 0.711888
0.415075 0.000000 0.718742
0.515260 0.000000 0.733324
0.708779 0.034780 0.739994
0.839659 0.060890 0.751474
0.884153 0.072366 0.752242
0.344877 0.000000 0.707522
0.345014 0.000000 0.707543
0.357781 0.000000 0.711173
0.405790 0.000000 0.719235
0.468335 0.000000 0.731796
0.668908 0.017388 0.747272
0.832569 0.071505 0.757827
0.885745 0.075380 0.757681
0.161037 0.019860 0.721110
0.201488 0.013697 0.718783
0.299718 0.000860 0.714236
0.367564 0.000000 0.724841
0.471402 0.000285 0.752837
0.633272 0.014955 0.768755
0.801863 0.070403 0.777481
0.879826 0.093359 0.774257
0.049799 0.091586 0.812892
0.058321 0.087003 0.819727
0.059264 0.082408 0.824344
0.073088 0.081076 0.832866
0.459000 0.090647 0.816322
0.655105 0.091773 0.858327
0.781571 0.172671 0.830024
0.885996 0.291085 0.820008
0.018779 0.393488 0.802930
0.027289 0.396380 0.806209
0.062595 0.395716 0.818301
0.203600 0.400111 0.892283
0.327763 0.364045 0.917567
0.657924 0.355062 0.901315
0.832849 0.453253 0.902936
0.915497 0.483665 0.867019
0.175717 0.549516 0.791500
0.185955 0.554842 0.795619
0.201777 0.560959 0.810587
0.246413 0.580870 0.849406
0.322333 0.585606 0.883580
0.572549 0.576471 0.960784
0.850981 0.650981 0.952941
0.980392 0.698039 0.933333
0.221886 0.786359 0.881415
0.229780 0.784549 0.884661
0.304163 0.782481 0.897007
0.326860 0.764172 0.901958
0.304469 0.739956 0.919436
0.496134 0.740220 0.930979
0.800000 0.788235 0.968627
0.971492 0.836027 0.953639
0.192748 0.793602 0.818706
0.195253 0.794875 0.819931
0.220118 0.819127 0.844622
0.250823 0.847342 0.876078
0.340604 0.881716 0.901880
0.532205 0.928710 0.943893
0.754132 0.961147 0.973139
0.988235 0.992157 0.992157
