backend/3dlut-creator/demo/ricoh_positive.cube
TITLE "3D LUT from Image Pairs"
LUT_3D_SIZE 4
0.007843 0.007843 0.007843
0.386421 0.033491 0.019358
0.761195 0.007368 0.013174
0.920947 0.011250 0.015519
0.012426 0.327673 0.133836
0.349020 0.290196 0.062745
0.712623 0.203863 0.027508
0.919293 0.068751 0.028112
0.080717 0.678223 0.436251
0.419438 0.679897 0.361275
0.698411 0.660476 0.164332
0.933718 0.573233 0.024266
0.063851 0.788801 0.568639
0.198155 0.782884 0.547635
0.597254 0.751631 0.382467
0.819831 0.793660 0.361564
0.000000 0.000940 0.264667
0.302144 0.027498 0.234279
0.654902 0.015687 0.211765
0.929412 0.000002 0.180392
0.058823 0.294118 0.325490
0.282353 0.282353 0.282353
0.674510 0.239216 0.254902
0.941177 0.117648 0.168627
0.025839 0.661880 0.468664
0.214679 0.650260 0.432214
0.674510 0.643137 0.360784
0.925490 0.643137 0.388235
0.059813 0.787226 0.568530
0.087282 0.800446 0.580107
0.552211 0.789177 0.484878
0.831914 0.808782 0.394759
0.219637 0.000000 0.591849
0.280642 0.000000 0.589285
0.640777 0.015987 0.557615
0.933333 0.007845 0.525490
0.028686 0.203154 0.594208
0.228674 0.217451 0.595135
0.627451 0.262745 0.564706
1.000000 0.098040 0.537255
0.153175 0.673241 0.696533
0.305504 0.631431 0.663429
0.643137 0.643137 0.643137
0.968627 0.509804 0.572549
0.014838 0.812978 0.636530
0.078173 0.841584 0.666089
0.425624 0.905223 0.724473
0.959665 0.951869 0.737113
0.349258 0.000000 0.706037
0.395696 0.000000 0.715497
0.642838 0.008266 0.746744
0.884153 0.072366 0.752242
0.044047 0.059160 0.773886
0.113727 0.049338 0.771162
0.575940 0.015100 0.785655
0.866267 0.105732 0.793336
0.137181 0.502695 0.795755
0.165129 0.508578 0.822326
0.533333 0.525490 0.933333
0.946497 0.630876 0.893695
0.192748 0.793602 0.818706
0.230864 0.827320 0.854280
0.421447 0.899446 0.925276
0.988235 0.992157 0.992157
