backend/3dlut-creator/demo/ricoh_positive.cube
TITLE "3D LUT from Image Pairs"
LUT_3D_SIZE 64
0.007843 0.007843 0.007843
0.019608 0.007843 0.007843
0.027451 0.011765 0.007843
0.039216 0.011765 0.007843
0.050980 0.011765 0.007843
0.062745 0.011765 0.007843
0.082353 0.015686 0.003922
0.098039 0.015686 0.003922
0.117647 0.019608 0.007843
0.129796 0.021072 0.010555
0.156863 0.023529 0.007843
0.176471 0.023529 0.007843
0.190481 0.025961 0.013037
0.215199 0.026955 0.014350
0.234203 0.026486 0.015134
0.252451 0.025835 0.015961
0.271049 0.027063 0.016983
0.288138 0.030140 0.016725
0.314953 0.034467 0.018621
0.340624 0.035698 0.018872
0.359491 0.032871 0.017926
0.386421 0.033491 0.019358
0.413396 0.037327 0.023916
0.437624 0.040667 0.025615
0.471428 0.035486 0.022788
0.494753 0.031820 0.021531
0.525450 0.022160 0.016879
0.538185 0.017360 0.014233
0.561187 0.018058 0.015802
0.570307 0.019883 0.013765
0.580673 0.026049 0.014145
0.598005 0.027530 0.015826
0.608358 0.031360 0.018402
0.621825 0.028712 0.019247
0.652522 0.021567 0.018024
0.673222 0.016073 0.015298
0.691841 0.010019 0.012437
0.704021 0.009196 0.012522
0.716055 0.008465 0.012700
0.725292 0.007186 0.012467
0.740440 0.006335 0.012483
0.750877 0.006339 0.012939
0.761195 0.007368 0.013174
0.769681 0.006249 0.012255
0.792164 0.006521 0.011888
0.807958 0.006367 0.011820
0.815894 0.006745 0.011787
0.823005 0.006831 0.011369
0.830765 0.006304 0.010500
0.837552 0.006390 0.010308
0.845865 0.006754 0.010727
0.854643 0.007732 0.011247
0.863429 0.007765 0.011495
0.875374 0.009885 0.012946
0.881009 0.010919 0.012970
0.887664 0.011899 0.013433
0.893572 0.011327 0.012535
0.895961 0.012017 0.013449
0.907441 0.011622 0.013220
0.910774 0.011803 0.013434
0.913341 0.011545 0.013661
0.913527 0.011535 0.013674
0.918508 0.011042 0.015052
0.920947 0.011250 0.015519
0.011765 0.015686 0.007843
0.015686 0.011765 0.007843
0.027451 0.015686 0.007843
0.039216 0.019608 0.011765
0.050980 0.019608 0.011765
0.066667 0.023529 0.011765
0.078431 0.023529 0.007843
0.094118 0.019608 0.007843
0.113725 0.023529 0.007843
0.133333 0.027451 0.007843
0.152941 0.027451 0.011765
0.176471 0.027451 0.011765
0.196078 0.031373 0.007843
0.215686 0.027451 0.011765
0.235294 0.027451 0.007843
0.258824 0.027451 0.007843
0.278431 0.027451 0.011765
0.292740 0.033384 0.014595
0.315753 0.035034 0.016713
0.339077 0.036307 0.017451
0.361553 0.035694 0.017297
0.384519 0.035759 0.019045
0.414262 0.038290 0.023023
0.436301 0.042738 0.027040
0.456339 0.043621 0.027391
0.487298 0.036747 0.022564
0.509218 0.033363 0.021410
0.528923 0.031445 0.020894
0.553529 0.030581 0.019101
0.567602 0.031276 0.016235
0.577117 0.033950 0.014460
0.587250 0.037530 0.016937
0.603362 0.035843 0.018933
0.616668 0.033172 0.020400
0.643785 0.027502 0.020698
0.666676 0.021150 0.017530
0.691078 0.012411 0.013595
0.702816 0.010123 0.012996
0.715920 0.008494 0.012718
0.725178 0.007203 0.012472
0.740339 0.006335 0.012486
0.750125 0.006329 0.012719
0.761121 0.007371 0.013186
0.769559 0.006259 0.012269
0.789311 0.006547 0.011920
0.807869 0.006368 0.011830
0.814368 0.006539 0.011999
0.822959 0.006811 0.011370
0.830712 0.006291 0.010493
0.835899 0.005423 0.009830
0.845833 0.006738 0.010715
0.854606 0.007716 0.011236
0.863399 0.007744 0.011485
0.875358 0.009870 0.012941
0.881001 0.010911 0.012966
0.887661 0.011893 0.013431
0.893580 0.011319 0.012529
0.893905 0.011320 0.012517
0.907450 0.011617 0.013216
0.910782 0.011796 0.013430
0.913345 0.011539 0.013656
0.913533 0.011530 0.013669
0.918507 0.011036 0.015044
0.920947 0.011247 0.015511
0.019608 0.027451 0.011765
0.023529 0.027451 0.011765
0.027451 0.023529 0.011765
0.035294 0.023529 0.007843
0.050980 0.027451 0.011765
0.066667 0.031373 0.011765
0.082353 0.031373 0.015686
0.098039 0.031373 0.011765
0.113725 0.031373 0.007843
0.133333 0.035294 0.007843
0.152941 0.035294 0.011765
0.172549 0.035294 0.011765
0.192157 0.035294 0.011765
0.211765 0.035294 0.011765
0.235294 0.035294 0.011765
0.254902 0.031373 0.011765
0.274510 0.031373 0.011765
0.301961 0.031373 0.011765
0.321569 0.031373 0.011765
0.338358 0.035909 0.015953
0.361294 0.037688 0.016608
0.388216 0.037921 0.018564
0.415855 0.041671 0.023008
0.438283 0.042914 0.025730
0.459927 0.043916 0.025757
0.482276 0.043637 0.024039
0.500153 0.042540 0.021861
0.523593 0.039371 0.021362
0.546942 0.038709 0.020403
0.567446 0.037033 0.017092
0.576395 0.037769 0.015220
0.584891 0.037743 0.016121
0.597765 0.036773 0.017689
0.609800 0.035509 0.019657
0.630202 0.034188 0.021553
0.657590 0.027652 0.019710
0.686547 0.017343 0.015483
0.702695 0.010189 0.013050
0.716244 0.008964 0.012956
0.723714 0.008107 0.012699
0.740240 0.006335 0.012489
0.750040 0.006318 0.012723
0.759747 0.007566 0.013611
0.769436 0.006268 0.012283
0.789121 0.006569 0.011936
0.807780 0.006370 0.011841
0.814318 0.006532 0.012008
0.822923 0.006158 0.011372
0.828834 0.006048 0.010721
0.835877 0.005415 0.009825
0.844187 0.006053 0.010487
0.854113 0.007259 0.011225
0.863369 0.007725 0.011474
0.875341 0.009856 0.012936
0.880994 0.010903 0.012963
0.887659 0.011887 0.013428
0.893587 0.011312 0.012523
0.893916 0.011313 0.012511
0.907459 0.011609 0.013212
0.910790 0.011789 0.013425
0.913349 0.011532 0.013651
0.913538 0.011524 0.013664
0.918506 0.011032 0.015037
0.920947 0.011242 0.015504
0.023529 0.031373 0.011765
0.031373 0.039216 0.015686
0.035294 0.035294 0.015686
0.039216 0.035294 0.015686
0.050980 0.035294 0.011765
0.066667 0.039216 0.015686
0.082353 0.039216 0.015686
0.098039 0.043137 0.015686
0.113725 0.043137 0.015686
0.133333 0.043137 0.011765
0.156863 0.043137 0.011765
0.172549 0.043137 0.015686
0.192157 0.043137 0.011765
0.211765 0.043137 0.011765
0.231373 0.039216 0.011765
0.254902 0.039216 0.011765
0.278431 0.039216 0.011765
0.298039 0.035294 0.011765
0.321569 0.035294 0.011765
0.341176 0.035294 0.011765
0.356863 0.035294 0.011765
0.389215 0.041009 0.017729
0.415233 0.041994 0.020092
0.437023 0.042872 0.023114
0.460205 0.043958 0.024521
0.481291 0.044552 0.023230
0.497519 0.044333 0.021199
0.520802 0.042888 0.020015
0.542085 0.040161 0.016927
0.565086 0.037423 0.015571
0.575743 0.037822 0.014380
0.579697 0.038579 0.014756
0.592885 0.037305 0.016997
0.606482 0.036083 0.018669
0.626374 0.036435 0.021024
0.652134 0.033053 0.020693
0.672713 0.026438 0.016985
0.693510 0.018139 0.015104
0.711697 0.010562 0.013652
0.720638 0.008377 0.012943
0.736787 0.006590 0.012487
0.749507 0.006538 0.012950
0.759727 0.007561 0.013620
0.767541 0.006473 0.012724
0.788939 0.006382 0.012161
0.804097 0.006172 0.011855
0.811485 0.006348 0.012038
0.822902 0.006143 0.011374
0.828127 0.005352 0.010271
0.835854 0.005408 0.009818
0.844164 0.006039 0.010478
0.854086 0.007246 0.011214
0.861022 0.007498 0.011243
0.873442 0.008883 0.012201
0.878446 0.009971 0.012735
0.888121 0.011642 0.013185
0.893596 0.011303 0.012517
0.893928 0.011306 0.012506
0.907469 0.011603 0.013207
0.910798 0.011781 0.013420
0.913354 0.011526 0.013645
0.913544 0.011518 0.013659
0.918506 0.011028 0.015029
0.920947 0.011236 0.015497
0.015686 0.039216 0.011765
0.035294 0.047059 0.015686
0.039216 0.047059 0.019608
0.047059 0.047059 0.019608
0.050980 0.043137 0.015686
0.066667 0.047059 0.019608
0.082353 0.047059 0.019608
0.098039 0.050980 0.019608
0.113725 0.050980 0.015686
0.133333 0.050980 0.015686
0.152941 0.050980 0.015686
0.172549 0.050980 0.015686
0.192157 0.050980 0.015686
0.207843 0.047059 0.015686
0.231373 0.047059 0.015686
0.250980 0.043137 0.015686
0.278431 0.043137 0.015686
0.298039 0.043137 0.015686
0.317647 0.043137 0.011765
0.337255 0.039216 0.011765
0.360784 0.043137 0.011765
0.380392 0.035294 0.011765
0.412692 0.043082 0.018273
0.437721 0.043402 0.020489
0.458276 0.044386 0.020444
0.477718 0.044973 0.019747
0.495619 0.044338 0.019617
0.519281 0.043156 0.018580
0.538637 0.041035 0.016920
0.560486 0.037876 0.015026
0.574172 0.037678 0.013697
0.577527 0.037946 0.014188
0.586600 0.038374 0.015835
0.600189 0.037265 0.017748
0.625987 0.036673 0.020870
0.645885 0.039140 0.021906
0.668786 0.029411 0.018124
0.684868 0.025662 0.016732
0.699744 0.020618 0.015138
0.720498 0.008418 0.012960
0.734416 0.007068 0.012502
0.749420 0.006536 0.012964
0.759703 0.007556 0.013632
0.768831 0.006930 0.013194
0.786543 0.006395 0.012407
0.803294 0.005975 0.012085
0.811422 0.006351 0.012056
0.819798 0.005720 0.011610
0.828126 0.005332 0.010269
0.834662 0.005617 0.010041
0.841599 0.005810 0.010253
0.855447 0.007236 0.011197
0.860990 0.007476 0.011231
0.873408 0.008858 0.012190
0.878441 0.009959 0.012731
0.888113 0.011634 0.013182
0.893606 0.011292 0.012509
0.893942 0.011297 0.012498
0.905625 0.010660 0.012027
0.909421 0.010610 0.012236
0.913359 0.011517 0.013638
0.913552 0.011511 0.013653
0.918047 0.010329 0.014104
0.920947 0.011230 0.015487
0.038970 0.057413 0.023902
0.039216 0.054902 0.015686
0.039216 0.054902 0.015686
0.047059 0.058824 0.023529
0.058824 0.058824 0.023529
0.066667 0.058824 0.019608
0.078431 0.058824 0.019608
0.094118 0.058824 0.019608
0.113725 0.062745 0.019608
0.129412 0.058824 0.019608
0.149020 0.058824 0.019608
0.168627 0.058824 0.015686
0.188235 0.058824 0.015686
0.207843 0.054902 0.015686
0.231373 0.054902 0.015686
0.250980 0.050980 0.015686
0.274510 0.050980 0.015686
0.298039 0.047059 0.015686
0.317647 0.047059 0.015686
0.337255 0.047059 0.015686
0.360784 0.047059 0.011765
0.380392 0.047059 0.011765
0.403922 0.047059 0.011765
0.431276 0.044725 0.018134
0.454804 0.045533 0.018185
0.476002 0.045656 0.018326
0.493140 0.045099 0.018210
0.516094 0.044219 0.016452
0.533306 0.042638 0.015871
0.555498 0.039062 0.014194
0.571270 0.037704 0.013185
0.577067 0.037964 0.013516
0.582927 0.039466 0.014678
0.599208 0.039755 0.015972
0.620174 0.040492 0.018331
0.646888 0.040566 0.021306
0.658618 0.045215 0.020990
0.673982 0.038448 0.019058
0.690330 0.030821 0.017284
0.708921 0.020478 0.015219
0.730801 0.010201 0.013222
0.749328 0.006975 0.013414
0.757179 0.007097 0.013657
0.768736 0.006940 0.013221
0.783933 0.006635 0.012872
0.803176 0.005999 0.012109
0.811346 0.006358 0.012080
0.819778 0.005719 0.011629
0.826987 0.004868 0.010282
0.835815 0.004693 0.009807
0.841572 0.005795 0.010244
0.855158 0.006758 0.011180
0.862107 0.006507 0.010980
0.873367 0.008830 0.012176
0.878434 0.009943 0.012726
0.888103 0.011625 0.013178
0.893619 0.011279 0.012499
0.893958 0.011285 0.012490
0.905644 0.010648 0.012017
0.909433 0.010598 0.012226
0.911757 0.010800 0.012453
0.915404 0.010564 0.013414
0.917365 0.010320 0.013657
0.919328 0.011466 0.015025
0.045228 0.071105 0.033661
0.050152 0.069754 0.028935
0.047059 0.066667 0.019608
0.047059 0.066667 0.019608
0.058824 0.070588 0.027451
0.070588 0.070588 0.023529
0.078431 0.070588 0.023529
0.094118 0.070588 0.023529
0.113725 0.070588 0.023529
0.129412 0.070588 0.023529
0.149020 0.066667 0.019608
0.168627 0.070588 0.019608
0.188235 0.066667 0.019608
0.207843 0.066667 0.019608
0.231373 0.062745 0.019608
0.250980 0.062745 0.019608
0.274510 0.058824 0.019608
0.294118 0.054902 0.019608
0.317647 0.054902 0.019608
0.337255 0.054902 0.015686
0.356863 0.054902 0.015686
0.380392 0.050981 0.015686
0.403922 0.050981 0.015686
0.423529 0.047059 0.015686
0.443137 0.043138 0.011765
0.462745 0.047059 0.011765
0.482353 0.047059 0.015686
0.501961 0.043138 0.011765
0.517647 0.043138 0.011765
0.549114 0.041017 0.014014
0.567267 0.038059 0.012634
0.576664 0.039129 0.013160
0.583392 0.040608 0.013882
0.596822 0.042423 0.015057
0.619145 0.043746 0.016922
0.642836 0.045014 0.019511
0.660125 0.047857 0.020872
0.669768 0.050520 0.021404
0.680980 0.048056 0.020885
0.700388 0.034612 0.018598
0.718738 0.024130 0.016431
0.744596 0.011153 0.014157
0.755984 0.007764 0.013908
0.768630 0.006953 0.013251
0.784988 0.008444 0.013574
0.801901 0.007658 0.012820
0.812355 0.007497 0.012542
0.819758 0.005720 0.011654
0.826987 0.004850 0.010286
0.832500 0.004180 0.010030
0.841114 0.004910 0.009802
0.854635 0.005809 0.010704
0.862056 0.006471 0.010959
0.871688 0.007865 0.011917
0.878423 0.009434 0.012473
0.889508 0.011155 0.012458
0.893635 0.011264 0.012487
0.895362 0.010333 0.012006
0.905667 0.010631 0.012005
0.909447 0.010583 0.012214
0.911766 0.010785 0.012441
0.915870 0.009598 0.012676
0.917370 0.010309 0.013648
0.918639 0.011008 0.014572
0.040088 0.087103 0.052181
0.052123 0.082463 0.038780
0.060263 0.081379 0.032756
0.058824 0.078431 0.023529
0.062745 0.078431 0.027451
0.070588 0.082353 0.027451
0.082353 0.082353 0.027451
0.094118 0.078431 0.027451
0.109804 0.082353 0.027451
0.125490 0.082353 0.027451
0.145098 0.082353 0.023529
0.164706 0.082353 0.023529
0.188235 0.078431 0.023529
0.207843 0.074510 0.023529
0.227451 0.074510 0.023529
0.250980 0.070588 0.019608
0.274510 0.066667 0.019608
0.294118 0.066667 0.019608
0.313725 0.062745 0.019608
0.337255 0.062745 0.019608
0.356863 0.058824 0.019608
0.380392 0.058824 0.019608
0.400000 0.054902 0.015686
0.423529 0.054902 0.015686
0.443137 0.054902 0.015686
0.462745 0.050981 0.015686
0.482353 0.050981 0.015686
0.498039 0.050981 0.015686
0.517647 0.047059 0.011765
0.537255 0.047059 0.011765
0.562899 0.042417 0.013174
0.568627 0.043138 0.011765
0.583752 0.043554 0.013728
0.600014 0.045075 0.015212
0.626933 0.047499 0.018135
0.645861 0.048778 0.019581
0.659651 0.050125 0.020599
0.672810 0.053030 0.021872
0.676899 0.053801 0.022103
0.684899 0.054505 0.023037
0.700199 0.044515 0.020515
0.734786 0.023449 0.017154
0.755931 0.009169 0.014624
0.764622 0.007867 0.013954
0.778281 0.008955 0.014095
0.797932 0.008465 0.013573
0.813833 0.008063 0.013062
0.819739 0.005722 0.011683
0.825396 0.004629 0.010534
0.832906 0.003728 0.009810
0.841122 0.004895 0.009793
0.854357 0.005552 0.010688
0.860588 0.005509 0.011167
0.869280 0.007122 0.011423
0.877440 0.008668 0.011722
0.885970 0.009706 0.011979
0.894356 0.010300 0.011999
0.897229 0.009394 0.011531
0.908258 0.009665 0.011512
0.911086 0.009621 0.011726
0.911316 0.009617 0.011742
0.915868 0.009579 0.012658
0.917375 0.010295 0.013636
0.917493 0.010301 0.013651
0.043158 0.110018 0.068706
0.049895 0.103594 0.059536
0.059566 0.098791 0.048672
0.068931 0.095986 0.039553
0.070890 0.090896 0.032472
0.074510 0.090196 0.031373
0.082353 0.094118 0.031373
0.094118 0.090196 0.027451
0.109804 0.090196 0.027451
0.125490 0.090196 0.027451
0.145098 0.094118 0.027451
0.164706 0.094118 0.027451
0.184314 0.090196 0.023529
0.203922 0.086275 0.023529
0.223529 0.086275 0.023529
0.247059 0.082353 0.023529
0.270588 0.078431 0.023529
0.294118 0.070588 0.019608
0.317647 0.070588 0.019608
0.333333 0.070588 0.019608
0.356863 0.066667 0.019608
0.380392 0.066667 0.019608
0.400000 0.062745 0.015686
0.427451 0.062745 0.015686
0.447059 0.058824 0.015686
0.462745 0.058824 0.019608
0.482353 0.054902 0.015686
0.498039 0.054902 0.015686
0.517647 0.054902 0.015686
0.537255 0.050981 0.015686
0.552941 0.047059 0.011765
0.568627 0.047059 0.015686
0.587633 0.047598 0.014866
0.603767 0.048378 0.016096
0.624899 0.049444 0.018020
0.642933 0.049707 0.019099
0.657467 0.051107 0.019883
0.670988 0.052750 0.021653
0.676974 0.053805 0.022095
0.683692 0.056277 0.023420
0.687720 0.054817 0.023215
0.704191 0.046177 0.021484
0.745919 0.020483 0.017169
0.766475 0.011569 0.016047
0.778221 0.009040 0.014160
0.795354 0.008793 0.013872
0.813315 0.008901 0.013598
0.817024 0.008087 0.013074
0.825204 0.006627 0.011435
0.829212 0.006225 0.010726
0.841566 0.006063 0.010727
0.856157 0.005048 0.010670
0.859355 0.005485 0.010919
0.869203 0.007072 0.011395
0.876915 0.006753 0.010298
0.883369 0.007825 0.010798
0.895543 0.009315 0.011258
0.897256 0.009363 0.011512
0.908288 0.009636 0.011494
0.911100 0.009596 0.011708
0.912948 0.009113 0.011725
0.915642 0.009559 0.012421
0.917382 0.010279 0.013622
0.917501 0.010286 0.013640
0.044679 0.128819 0.077959
0.048490 0.128268 0.075687
0.058263 0.119817 0.067195
0.071225 0.109650 0.051637
0.081385 0.106122 0.042374
0.081606 0.103452 0.036730
0.082353 0.101961 0.035294
0.094118 0.101961 0.035294
0.105882 0.101961 0.031373
0.121569 0.101961 0.031373
0.141176 0.105882 0.031373
0.160784 0.105882 0.031373
0.180392 0.101961 0.027451
0.203922 0.101961 0.027451
0.223529 0.098039 0.027451
0.243137 0.094118 0.027451
0.270588 0.090196 0.027451
0.290196 0.086275 0.027451
0.313725 0.082353 0.023529
0.333333 0.082353 0.023529
0.356863 0.078432 0.019608
0.376471 0.074510 0.019608
0.403922 0.070588 0.015686
0.423529 0.070588 0.015686
0.443137 0.066667 0.019608
0.462745 0.066667 0.015686
0.482353 0.062745 0.015686
0.498039 0.062745 0.015686
0.517647 0.058824 0.015686
0.533333 0.058824 0.015686
0.556863 0.054902 0.015686
0.575465 0.053542 0.016097
0.587647 0.052207 0.016007
0.605184 0.053010 0.016701
0.622798 0.053478 0.017473
0.639059 0.052217 0.017941
0.656043 0.052665 0.019759
0.670308 0.053873 0.021284
0.677096 0.053865 0.022094
0.683903 0.056335 0.023411
0.686157 0.057946 0.023944
0.689949 0.059848 0.024833
0.724246 0.045390 0.021690
0.758018 0.025970 0.018086
0.774355 0.010645 0.014962
0.795868 0.015152 0.015939
0.813301 0.017153 0.016571
0.817724 0.010741 0.014312
0.827164 0.009300 0.012177
0.829973 0.007956 0.011697
0.842689 0.007578 0.011219
0.850322 0.006544 0.011150
0.859289 0.004777 0.010902
0.867038 0.005441 0.010462
0.878304 0.004824 0.009323
0.883390 0.007776 0.010767
0.895553 0.009272 0.011227
0.898926 0.009349 0.011002
0.907392 0.008421 0.010774
0.909969 0.009117 0.011246
0.914797 0.008839 0.011931
0.915646 0.009536 0.012402
0.915774 0.009550 0.012422
0.917510 0.010270 0.013626
0.039980 0.147590 0.080038
0.041444 0.147430 0.079582
0.048493 0.144115 0.076985
0.064494 0.135436 0.067073
0.083430 0.119224 0.050977
0.091560 0.117361 0.044990
0.092736 0.116398 0.040896
0.098039 0.117647 0.039216
0.105882 0.117647 0.039216
0.121569 0.113725 0.035294
0.137255 0.113725 0.035294
0.156863 0.113725 0.035294
0.176471 0.113725 0.031373
0.200000 0.113726 0.031373
0.219608 0.109804 0.031373
0.243137 0.105882 0.031373
0.266667 0.101961 0.031373
0.286275 0.098039 0.031373
0.309804 0.094118 0.027451
0.333333 0.094118 0.023529
0.352941 0.090196 0.023529
0.380392 0.086275 0.019608
0.400000 0.082353 0.019608
0.423529 0.078432 0.019608
0.443137 0.074510 0.019608
0.462745 0.074510 0.015686
0.478431 0.070589 0.015686
0.501961 0.070589 0.015686
0.517647 0.066667 0.019608
0.533333 0.062745 0.015686
0.552941 0.058824 0.015686
0.568627 0.054903 0.015686
0.580392 0.058824 0.015686
0.604307 0.058365 0.017499
0.622664 0.059764 0.017586
0.638442 0.060159 0.018097
0.652280 0.058708 0.019432
0.665161 0.055486 0.020554
0.677466 0.056261 0.022267
0.683745 0.057318 0.023426
0.686539 0.058118 0.023982
0.689823 0.059970 0.024860
0.705682 0.064255 0.025681
0.741372 0.056123 0.023243
0.769319 0.046262 0.022493
0.800342 0.029392 0.019202
0.815415 0.024040 0.018663
0.818248 0.020504 0.017149
0.822598 0.014398 0.015050
0.831420 0.010279 0.012730
0.841674 0.012410 0.012685
0.850757 0.009693 0.011657
0.860824 0.006021 0.011614
0.865125 0.003821 0.010455
0.878269 0.004770 0.009286
0.880799 0.005802 0.009536
0.897220 0.008287 0.010722
0.901985 0.008382 0.010281
0.906250 0.007899 0.010268
0.910690 0.008128 0.010987
0.914800 0.008814 0.011911
0.914959 0.008827 0.011932
0.915780 0.009526 0.012404
0.919357 0.009543 0.012642
0.037293 0.159910 0.080186
0.039115 0.159468 0.078452
0.041246 0.157345 0.077518
0.049245 0.153676 0.074354
0.074674 0.143318 0.063397
0.096115 0.135046 0.052416
0.105065 0.132387 0.050063
0.098039 0.129412 0.039216
0.109804 0.129412 0.043137
0.121569 0.129412 0.039216
0.137255 0.129412 0.039216
0.152941 0.129412 0.035294
0.172549 0.129412 0.035294
0.192157 0.129412 0.035294
0.215686 0.125490 0.031373
0.239216 0.121569 0.031373
0.262745 0.117647 0.035294
0.286275 0.113726 0.031373
0.305882 0.109804 0.031373
0.329412 0.105882 0.031372
0.352941 0.101961 0.027451
0.376471 0.101961 0.023529
0.400000 0.094118 0.023529
0.423529 0.090196 0.019608
0.443137 0.086275 0.019608
0.462745 0.082353 0.019608
0.482353 0.082353 0.019608
0.498039 0.082353 0.015686
0.517647 0.078431 0.015686
0.537255 0.074510 0.015686
0.552941 0.070589 0.019608
0.571971 0.068408 0.021162
0.587671 0.067010 0.020566
0.606012 0.065309 0.019788
0.622531 0.063768 0.018658
0.638613 0.064505 0.018429
0.649680 0.065018 0.019363
0.659087 0.064868 0.020716
0.673032 0.061787 0.021947
0.682849 0.059490 0.023252
0.685524 0.059811 0.023840
0.692480 0.061376 0.025469
0.698054 0.064281 0.026100
0.724540 0.076824 0.027735
0.751847 0.078256 0.029454
0.794535 0.067524 0.028212
0.810825 0.040198 0.021839
0.817609 0.025664 0.019045
0.823578 0.028720 0.018678
0.833581 0.026832 0.015582
0.841192 0.016203 0.013714
0.851369 0.012867 0.012435
0.859773 0.008378 0.011685
0.864356 0.005567 0.010937
0.876351 0.003352 0.009273
0.882188 0.004358 0.009273
0.896036 0.007251 0.010687
0.904356 0.007830 0.009993
0.907893 0.007364 0.010232
0.910683 0.007134 0.010476
0.914804 0.008784 0.011887
0.914964 0.008800 0.011912
0.915093 0.008814 0.011932
0.917513 0.009764 0.012408
0.028297 0.175403 0.078683
0.033872 0.174636 0.079773
0.039164 0.172313 0.079021
0.044199 0.172297 0.078470
0.060438 0.168547 0.073095
0.091416 0.158925 0.062831
0.107802 0.147011 0.053578
0.115599 0.146258 0.052455
0.109804 0.141176 0.047059
0.121569 0.145098 0.047059
0.137255 0.141176 0.043137
0.152941 0.141176 0.039216
0.168627 0.141176 0.039216
0.188235 0.141176 0.039216
0.211765 0.141176 0.039216
0.235294 0.137255 0.035294
0.258824 0.133333 0.035294
0.282353 0.129412 0.035294
0.305882 0.125490 0.035294
0.325490 0.121569 0.035294
0.349020 0.117647 0.031373
0.372549 0.113726 0.031373
0.396078 0.109804 0.027451
0.419608 0.105882 0.027451
0.443137 0.101961 0.023529
0.462745 0.098039 0.019608
0.482353 0.094118 0.019608
0.498039 0.090196 0.019608
0.517647 0.086275 0.019608
0.537255 0.086275 0.015686
0.552941 0.078432 0.019608
0.568627 0.078431 0.019608
0.587449 0.078398 0.021810
0.604081 0.077468 0.022377
0.616507 0.074679 0.021754
0.636261 0.067970 0.019720
0.649838 0.067263 0.020019
0.659659 0.068881 0.021319
0.665958 0.069196 0.022274
0.678310 0.065692 0.023355
0.687029 0.064864 0.024515
0.689407 0.063191 0.024996
0.694520 0.063545 0.026146
0.716399 0.078615 0.028800
0.740714 0.097302 0.030974
0.774751 0.095383 0.033852
0.796355 0.082041 0.031434
0.821348 0.054592 0.025191
0.826587 0.040021 0.020575
0.828663 0.040849 0.020934
0.839010 0.029929 0.016373
0.848455 0.028193 0.015034
0.858292 0.014380 0.012218
0.863580 0.009084 0.011449
0.871855 0.006560 0.010696
0.883141 0.005741 0.009698
0.895089 0.008139 0.011111
0.906003 0.011908 0.011090
0.907894 0.007314 0.010198
0.910664 0.007091 0.010444
0.912505 0.007824 0.010939
0.914969 0.008771 0.011889
0.917415 0.010865 0.012136
0.919120 0.011098 0.012378
0.015945 0.191957 0.078568
0.021466 0.191210 0.077982
0.034194 0.191962 0.077488
0.045541 0.193892 0.075889
0.057996 0.192220 0.074517
0.076503 0.190135 0.071218
0.101218 0.176163 0.061505
0.121448 0.161350 0.051943
0.109804 0.156863 0.039216
0.125490 0.156863 0.047059
0.137255 0.156863 0.047059
0.149020 0.156863 0.047059
0.168627 0.156863 0.043137
0.184314 0.156863 0.039216
0.207843 0.152941 0.043137
0.231373 0.152941 0.039216
0.254902 0.149020 0.039216
0.278431 0.145098 0.039216
0.301961 0.141177 0.039216
0.325490 0.137255 0.035294
0.349020 0.133333 0.035294
0.372549 0.133333 0.031373
0.396078 0.129412 0.031373
0.419608 0.121569 0.031372
0.439216 0.117647 0.027451
0.458823 0.117647 0.027451
0.478431 0.109804 0.023529
0.498039 0.109804 0.019608
0.517647 0.101961 0.019608
0.537255 0.098039 0.019608
0.556863 0.094118 0.019608
0.568628 0.094118 0.019608
0.584314 0.090196 0.019608
0.600000 0.086275 0.023529
0.616505 0.086534 0.023885
0.630101 0.084920 0.023728
0.645874 0.075002 0.021551
0.658416 0.073194 0.022564
0.664455 0.070462 0.022502
0.672847 0.071197 0.023863
0.685656 0.068647 0.024984
0.687429 0.066999 0.024885
0.697352 0.069335 0.027344
0.713838 0.085083 0.031518
0.741409 0.104036 0.032790
0.761077 0.118871 0.035047
0.790910 0.107967 0.036291
0.800511 0.097017 0.036441
0.825374 0.067722 0.029161
0.828091 0.051547 0.023304
0.834256 0.044284 0.020923
0.849827 0.037524 0.017012
0.854301 0.035062 0.016206
0.864267 0.022613 0.014282
0.870333 0.011745 0.012147
