backend/3dlut-creator/demo/ricoh_negative.cube
TITLE "3D LUT from Image Pairs"
LUT_3D_SIZE 8
0.015686 0.011765 0.011765
0.215017 0.037472 0.020190
0.435666 0.078531 0.035171
0.633304 0.098735 0.028319
0.764652 0.163077 0.029496
0.858672 0.223843 0.040780
0.915645 0.281444 0.066032
0.945658 0.322455 0.085022
0.070805 0.180939 0.112276
0.156863 0.160784 0.054902
0.407843 0.160784 0.043137
0.596078 0.168628 0.031372
0.728788 0.216120 0.046778
0.846866 0.240689 0.055713
0.911252 0.289341 0.066517
0.942177 0.323598 0.082270
0.002595 0.326581 0.163556
0.135988 0.330407 0.158858
0.317647 0.321569 0.121569
0.556863 0.329412 0.078431
0.694118 0.325490 0.047059
0.803074 0.390817 0.118187
0.893380 0.406846 0.156907
0.941956 0.356456 0.101073
0.006524 0.507328 0.312410
0.093623 0.505815 0.303781
0.315674 0.497366 0.254019
0.474510 0.482353 0.180392
0.662745 0.486274 0.125490
0.780392 0.482353 0.090196
0.865057 0.546318 0.122863
0.897584 0.569675 0.225404
0.018774 0.617564 0.414780
0.097845 0.621324 0.413955
0.307411 0.613402 0.378218
0.385501 0.602405 0.344785
0.599384 0.611752 0.262045
0.760784 0.619608 0.200000
0.854902 0.611765 0.145098
0.920140 0.630918 0.142737
0.001519 0.711899 0.516855
0.008508 0.713175 0.517456
0.232052 0.728847 0.522373
0.424012 0.725176 0.493012
0.499979 0.718222 0.422784
0.709182 0.735899 0.405004
0.868902 0.742631 0.346415
0.927647 0.718949 0.205739
0.000587 0.774058 0.587456
0.000635 0.777159 0.590336
0.162455 0.776159 0.581901
0.370610 0.746392 0.524142
0.494611 0.749670 0.504566
0.633606 0.774209 0.506428
0.784875 0.805767 0.528932
0.955103 0.792656 0.344362
0.000782 0.787622 0.602570
0.076586 0.783797 0.595707
0.080135 0.785271 0.597045
0.213404 0.780914 0.584153
0.499152 0.758661 0.520292
0.552188 0.766986 0.514701
0.775180 0.809593 0.548722
0.789550 0.815830 0.550738
0.039216 0.015686 0.133333
0.226009 0.058453 0.154459
0.422581 0.087961 0.146340
0.586260 0.122328 0.138299
0.721569 0.133334 0.086274
0.819444 0.159533 0.053417
0.902553 0.229402 0.072815
0.950086 0.301194 0.092785
0.065491 0.155286 0.164522
0.168627 0.168627 0.168627
0.372549 0.180392 0.164706
0.560865 0.204326 0.157400
0.701961 0.231373 0.156863
0.810604 0.210442 0.070353
0.896166 0.259325 0.056027
0.948121 0.324202 0.087543
0.031372 0.305882 0.200000
0.090196 0.309804 0.200000
0.325490 0.333333 0.207843
0.533333 0.349020 0.203922
0.662745 0.372549 0.207843
0.776471 0.364706 0.125490
0.892037 0.369553 0.139522
0.944745 0.354619 0.099258
0.003174 0.482482 0.298651
0.079562 0.466134 0.281220
0.243137 0.470588 0.274510
0.482353 0.486275 0.266667
0.650980 0.505882 0.274510
0.768628 0.509804 0.258824
0.851871 0.523728 0.190172
0.913789 0.540400 0.267042
0.000385 0.604161 0.402053
0.009045 0.595224 0.393335
0.227682 0.608015 0.392267
0.398401 0.593042 0.357397
0.603921 0.611765 0.349020
0.749020 0.627451 0.337255
0.856545 0.617423 0.237224
0.904778 0.607418 0.141103
0.001958 0.710042 0.514825
0.002057 0.712246 0.517034
0.031496 0.733663 0.539803
0.385393 0.715429 0.493556
0.511787 0.717025 0.463953
0.698039 0.725490 0.415686
0.831372 0.752941 0.376470
0.937255 0.721569 0.235294
0.000587 0.773913 0.587276
0.000637 0.777054 0.590193
0.000504 0.781649 0.595529
0.299411 0.766808 0.560635
0.465801 0.748938 0.513065
0.599207 0.771093 0.510847
0.787103 0.813263 0.545120
0.953388 0.800914 0.375926
0.000783 0.787629 0.602575
0.000778 0.787725 0.602681
0.077535 0.789121 0.601737
0.168345 0.784172 0.591106
0.448480 0.759790 0.533321
0.553032 0.769611 0.520394
0.771325 0.812282 0.555579
0.790435 0.817414 0.554370
0.097869 0.042117 0.294373
0.221778 0.072960 0.287141
0.433192 0.111682 0.290433
0.570796 0.159141 0.290804
0.708644 0.197181 0.286470
0.796078 0.274510 0.313725
0.890196 0.258824 0.258823
0.941935 0.333009 0.269689
0.111541 0.161090 0.287878
0.195729 0.172155 0.297890
0.392157 0.188235 0.301961
0.570971 0.219180 0.299917
0.691878 0.267335 0.308325
0.789831 0.306641 0.311059
0.886169 0.359325 0.309873
0.952571 0.316344 0.175834
0.043755 0.306550 0.318574
0.120304 0.320103 0.331502
0.345098 0.349020 0.349020
0.541176 0.356863 0.337255
0.678431 0.376471 0.337255
0.788235 0.400000 0.337255
0.878431 0.431373 0.337255
0.988235 0.352941 0.117647
0.000000 0.474510 0.392157
0.104443 0.464867 0.363821
0.239216 0.486274 0.380392
0.490196 0.498039 0.380392
0.650980 0.509804 0.380392
0.756863 0.533333 0.388235
0.855966 0.555153 0.390371
0.945098 0.517647 0.274510
0.000001 0.592157 0.443137
0.059173 0.585574 0.428009
0.141177 0.596078 0.431373
0.407843 0.603922 0.439216
0.607843 0.619608 0.439216
0.749020 0.639216 0.447059
0.843137 0.662745 0.454902
0.912779 0.660450 0.398831
0.000934 0.708259 0.517672
0.001337 0.705875 0.514839
0.016885 0.731524 0.542402
0.257449 0.709836 0.514058
0.536633 0.714333 0.496780
0.705882 0.729412 0.505882
0.850980 0.760784 0.537255
0.931634 0.736699 0.439757
0.000687 0.773278 0.587889
0.000635 0.777444 0.592654
0.000555 0.783979 0.598186
0.000361 0.789983 0.604391
0.412933 0.768511 0.555026
0.638658 0.799198 0.562949
0.785787 0.824455 0.585043
0.953746 0.822854 0.456130
0.000785 0.787721 0.602679
0.000783 0.787864 0.602838
0.000744 0.792582 0.608061
0.000512 0.798222 0.614445
0.278948 0.786428 0.586236
0.540366 0.776229 0.542857
0.754557 0.819249 0.575014
0.798074 0.825591 0.567565
0.250780 0.128127 0.480485
0.305672 0.126019 0.471343
0.428091 0.119999 0.445699
0.613402 0.199456 0.466802
0.729412 0.203922 0.454902
0.803921 0.266667 0.450980
0.890196 0.301961 0.439216
0.968627 0.376471 0.419608
0.182929 0.168484 0.432780
0.247105 0.191710 0.440967
0.400497 0.212268 0.437104
0.573928 0.243311 0.444932
0.666667 0.274510 0.450980
0.798226 0.336926 0.455459
0.886275 0.384314 0.458824
0.996078 0.482353 0.478431
0.076598 0.326068 0.474661
0.185068 0.333405 0.472652
0.359565 0.344655 0.473583
0.552941 0.356863 0.470588
0.685271 0.388713 0.468577
0.796266 0.424447 0.475131
0.882353 0.466667 0.466667
0.980392 0.529412 0.509804
0.167081 0.453602 0.457952
0.216650 0.457882 0.467898
0.292703 0.494214 0.502234
0.513726 0.513726 0.513726
0.654902 0.525490 0.505882
0.780626 0.533570 0.502160
0.878896 0.558904 0.508126
0.988235 0.462745 0.286274
0.068007 0.612658 0.544035
0.108235 0.608028 0.543606
0.206580 0.612310 0.542239
0.415686 0.611765 0.533333
0.619608 0.627451 0.541176
0.752941 0.647059 0.549020
0.843137 0.666667 0.556863
0.952941 0.658824 0.509804
0.001167 0.711820 0.566516
0.001176 0.712187 0.574122
0.041478 0.713421 0.583430
0.278431 0.725490 0.580392
0.528053 0.725660 0.586115
0.717647 0.737255 0.592157
0.850980 0.768628 0.607843
0.937255 0.776471 0.615686
0.000954 0.761691 0.588505
0.000898 0.769091 0.595024
0.000324 0.799363 0.621686
0.000105 0.816110 0.637787
0.328912 0.823739 0.646935
0.630373 0.836089 0.652057
0.819608 0.854902 0.674510
0.972549 0.843137 0.596078
0.000884 0.783692 0.602514
0.000817 0.787966 0.605174
0.000555 0.797370 0.614645
0.000422 0.806273 0.624325
0.058582 0.810021 0.627474
0.469695 0.819343 0.622660
0.709400 0.844793 0.636880
0.830612 0.854803 0.633677
0.466989 0.226314 0.614302
0.495566 0.221187 0.607492
0.520664 0.214737 0.595226
0.576418 0.224294 0.583254
0.728053 0.279649 0.590039
0.811334 0.326111 0.575998
0.890196 0.384314 0.576471
0.980392 0.419608 0.556863
0.266989 0.196195 0.555282
0.327912 0.206516 0.560715
0.431373 0.219608 0.556863
0.597888 0.273492 0.576004
0.721569 0.317647 0.588235
0.809734 0.364791 0.582057
0.890196 0.423530 0.588235
0.972926 0.452141 0.556776
0.226116 0.355941 0.583845
0.253681 0.356849 0.581665
0.398233 0.360866 0.565718
0.548450 0.387064 0.582317
0.705882 0.415686 0.592157
0.803716 0.451849 0.596242
0.873388 0.483468 0.589800
0.987382 0.529891 0.585176
0.207255 0.448622 0.538435
0.233675 0.471480 0.565621
0.342227 0.499723 0.609906
0.517647 0.509804 0.607843
0.666667 0.537255 0.615686
0.800000 0.552941 0.611765
0.881510 0.583827 0.624616
0.988235 0.635294 0.639216
0.176269 0.597701 0.596381
0.225408 0.603294 0.608914
0.280741 0.606313 0.618169
0.470588 0.631373 0.643137
0.639216 0.643137 0.643137
0.768627 0.650981 0.639216
0.886275 0.666667 0.639216
0.984314 0.584314 0.478431
0.019663 0.716478 0.655785
0.018024 0.712992 0.652001
0.174299 0.726002 0.655628
0.340787 0.730775 0.661885
0.545098 0.733333 0.654902
0.741177 0.749020 0.674510
0.847059 0.764706 0.686275
0.972549 0.764706 0.658824
0.003534 0.791574 0.656090
0.002766 0.798593 0.659709
0.018873 0.811972 0.675978
0.135042 0.831135 0.702497
0.266667 0.839216 0.709804
0.619608 0.843137 0.713725
0.835294 0.858824 0.729412
0.964706 0.870588 0.741177
0.000558 0.797401 0.627938
0.000267 0.807881 0.638361
0.000247 0.821508 0.651338
0.000322 0.834572 0.663936
0.004164 0.844774 0.678991
0.321752 0.846204 0.676430
0.709639 0.883667 0.714125
0.891365 0.922572 0.764629
0.593576 0.295908 0.706434
0.596127 0.293671 0.704608
0.619281 0.296864 0.706431
0.643095 0.296698 0.699883
0.738504 0.357753 0.722649
0.830197 0.399479 0.707828
0.890196 0.427451 0.678431
0.956863 0.478432 0.678431
0.472284 0.295567 0.697908
0.517551 0.295090 0.698941
0.561307 0.297464 0.699784
0.627007 0.290193 0.695140
0.722641 0.354020 0.709217
0.823529 0.384314 0.694118
0.898039 0.474510 0.705882
0.967427 0.490235 0.672314
0.339777 0.369049 0.671817
0.362507 0.375386 0.676906
0.447617 0.394465 0.691403
0.591539 0.425690 0.699723
0.708487 0.459396 0.703292
0.807843 0.482353 0.698039
0.901961 0.525490 0.709804
0.968200 0.540028 0.673845
0.329783 0.542465 0.729365
0.337758 0.525810 0.713374
0.388235 0.533333 0.709804
0.555346 0.543711 0.712865
0.694175 0.557950 0.719458
0.805701 0.575876 0.715484
0.883508 0.604695 0.719061
0.992706 0.635347 0.709820
0.305941 0.607353 0.704578
0.310716 0.609246 0.707352
0.333767 0.620591 0.721415
0.486275 0.635294 0.729412
0.666667 0.666667 0.741177
0.796078 0.658824 0.741176
0.898039 0.698039 0.756863
0.971559 0.697083 0.729548
0.082470 0.757730 0.759249
0.096657 0.755076 0.756330
0.273247 0.742041 0.741471
0.401963 0.734722 0.742556
0.580392 0.749020 0.768627
0.760784 0.760784 0.760784
0.878431 0.772549 0.764706
0.988235 0.780392 0.749020
0.013662 0.813139 0.741187
0.015632 0.816186 0.744632
0.079424 0.833837 0.761306
0.180497 0.853989 0.783642
0.294118 0.839216 0.772549
0.654902 0.850981 0.780392
0.847059 0.858824 0.792157
0.980392 0.870588 0.796078
0.006421 0.820559 0.714565
0.008503 0.823503 0.714077
0.028130 0.831237 0.714598
0.104610 0.847623 0.718958
0.218073 0.875619 0.743852
0.276518 0.911033 0.788438
0.737729 0.940283 0.829034
0.939107 0.960220 0.849837
0.649781 0.346713 0.756292
0.652027 0.349374 0.758225
0.657751 0.351362 0.760215
0.690313 0.365000 0.768287
0.744621 0.389224 0.774890
0.864689 0.473172 0.788086
0.938220 0.532329 0.808090
0.965253 0.544295 0.794233
0.605100 0.339112 0.750640
0.626653 0.336793 0.748224
0.645139 0.348229 0.757782
0.675542 0.363295 0.768438
0.736590 0.387796 0.778038
0.856406 0.480691 0.791275
0.929019 0.529169 0.810833
0.975843 0.552719 0.791733
0.455128 0.393878 0.782088
0.463077 0.394668 0.784377
0.476429 0.389867 0.782614
0.627316 0.377297 0.770742
0.745098 0.447059 0.823529
0.854902 0.533333 0.811765
0.922627 0.578998 0.817313
0.987737 0.614019 0.804713
0.441385 0.591174 0.819114
0.453672 0.590111 0.819785
0.483582 0.582898 0.818607
0.589335 0.560933 0.823984
0.739753 0.595531 0.836612
0.839216 0.600000 0.827451
0.913725 0.647059 0.827451
1.000000 0.670588 0.807843
0.349963 0.611958 0.774780
0.365209 0.617164 0.780767
0.422027 0.645244 0.807685
0.528012 0.679362 0.850612
0.694118 0.682353 0.847059
0.828423 0.696004 0.850925
0.912749 0.714713 0.841462
0.984613 0.744126 0.832960
0.411934 0.690289 0.768544
0.412203 0.690536 0.768974
0.417947 0.693781 0.773465
0.451437 0.701964 0.789208
0.623542 0.764905 0.847069
0.792157 0.780392 0.862745
0.901961 0.796079 0.858824
0.992157 0.819608 0.854902
0.043898 0.799335 0.804763
0.043253 0.800984 0.807204
0.082821 0.814743 0.821987
0.200302 0.849315 0.861656
0.400342 0.859956 0.873017
0.709874 0.867147 0.875758
0.878431 0.878432 0.878431
0.988235 0.886275 0.878431
0.047953 0.843927 0.766146
0.049128 0.844684 0.766902
0.080080 0.866911 0.789498
0.112222 0.888102 0.813052
0.176511 0.922261 0.849171
0.373508 0.934486 0.866296
0.705005 0.955980 0.892183
0.971727 0.970472 0.903183
0.668047 0.364198 0.771248
0.678653 0.368759 0.773669
0.689148 0.374801 0.776383
0.706363 0.384196 0.782036
0.762656 0.418106 0.796586
0.872681 0.496482 0.813658
0.947211 0.548845 0.829176
0.966491 0.565242 0.825951
0.666221 0.366081 0.772466
0.666303 0.366110 0.772488
0.674610 0.370244 0.775652
0.702126 0.384141 0.782294
0.737258 0.402981 0.793284
0.850625 0.485406 0.815269
0.944880 0.550569 0.834317
0.968033 0.569285 0.830477
0.531224 0.380226 0.778884
0.563521 0.378777 0.778741
0.633285 0.373716 0.777382
0.684993 0.388754 0.788531
0.746089 0.427247 0.810677
0.835034 0.484623 0.829759
0.932700 0.555213 0.848555
0.970683 0.583012 0.847417
0.536603 0.510438 0.858602
0.547539 0.511902 0.864291
0.555978 0.514434 0.868539
0.572501 0.521570 0.874855
0.751415 0.558494 0.871881
0.863614 0.574671 0.897416
0.929500 0.617302 0.889340
0.982022 0.667686 0.891101
0.449793 0.634324 0.847036
0.457050 0.637587 0.850556
0.489215 0.645938 0.863146
0.639976 0.689406 0.918264
0.708037 0.696890 0.944816
0.862393 0.703774 0.939380
0.956269 0.743433 0.942603
0.991710 0.749236 0.923711
0.460034 0.694852 0.836314
0.468778 0.699027 0.839546
0.496194 0.708275 0.852187
0.568379 0.736300 0.886398
0.650238 0.763460 0.922255
0.815686 0.800000 0.976471
0.952941 0.835294 0.972549
1.000000 0.854902 0.964706
0.273430 0.844954 0.890660
0.287009 0.844723 0.893545
0.367062 0.847822 0.906167
0.419076 0.840921 0.913434
0.448110 0.836787 0.933464
0.676098 0.848329 0.954445
0.905882 0.898039 0.984314
0.997347 0.917582 0.974061
0.150288 0.832587 0.833217
0.152799 0.833659 0.834288
0.173226 0.853485 0.854883
0.207456 0.877526 0.881412
0.290769 0.903682 0.902402
0.492794 0.940119 0.938963
0.751547 0.969516 0.971878
0.992157 0.996079 0.996079
