backend/3dlut-creator/demo/ricoh_negative.cube
TITLE "3D LUT from Image Pairs"
LUT_3D_SIZE 4
0.015686 0.011765 0.011765
0.500361 0.097112 0.041968
0.821369 0.199403 0.036793
0.945658 0.322455 0.085022
0.008282 0.376666 0.194495
0.376471 0.376471 0.145098
0.758937 0.386969 0.077969
0.942026 0.388081 0.131392
0.023314 0.687271 0.487967
0.344701 0.694112 0.471581
0.674163 0.698766 0.360582
0.927020 0.687770 0.176266
0.000782 0.787622 0.602570
0.129407 0.782539 0.591594
0.533350 0.762280 0.513201
0.789550 0.815830 0.550738
0.161027 0.069627 0.347608
0.488231 0.147697 0.355548
0.741177 0.250981 0.345098
0.960784 0.349020 0.337255
0.070588 0.360784 0.376471
0.403922 0.407843 0.407843
0.749020 0.439216 0.396078
0.956863 0.474510 0.329412
0.014119 0.678363 0.514422
0.123141 0.672308 0.505939
0.682353 0.694118 0.513726
0.925490 0.745098 0.545098
0.000789 0.786444 0.602120
0.000531 0.798449 0.614910
0.461167 0.791788 0.580914
0.800298 0.828939 0.575468
0.548066 0.264943 0.667120
0.590269 0.264195 0.669033
0.801640 0.347977 0.665887
0.976471 0.462745 0.635294
0.271311 0.426807 0.663841
0.478868 0.452906 0.670277
0.768627 0.494118 0.662745
1.000000 0.580392 0.650980
0.136409 0.728746 0.727656
0.347791 0.700419 0.708803
0.721569 0.721569 0.721569
0.984314 0.725490 0.686274
0.002253 0.810563 0.658260
0.011538 0.834461 0.684634
0.190354 0.888079 0.750323
0.929551 0.949763 0.823522
0.668047 0.364198 0.771248
0.695463 0.378921 0.779050
0.836342 0.471282 0.813493
0.966491 0.565242 0.825951
0.501618 0.450346 0.824496
0.536063 0.444877 0.823017
0.804761 0.474341 0.836919
0.971975 0.599654 0.867345
0.471450 0.673508 0.839653
0.518656 0.690897 0.864782
0.792157 0.768627 0.956863
0.995522 0.813028 0.937724
0.150288 0.832587 0.833217
0.184663 0.860667 0.863019
0.385098 0.919182 0.922553
0.992157 0.996079 0.996079
