backend/3dlut-creator/demo/ricoh_negative.cube
TITLE "3D LUT from Image Pairs"
LUT_3D_SIZE 64
0.015686 0.011765 0.011765
0.031373 0.015686 0.015686
0.047059 0.019608 0.015686
0.062745 0.019608 0.015686
0.082353 0.019608 0.011765
0.109804 0.019608 0.011765
0.133333 0.023529 0.007843
0.164706 0.027451 0.011765
0.196078 0.031373 0.011765
0.215017 0.037472 0.020190
0.258824 0.039216 0.011765
0.282353 0.039216 0.011765
0.301588 0.047887 0.023248
0.330622 0.051915 0.025030
0.351338 0.054910 0.026944
0.370551 0.060381 0.032077
0.389428 0.066078 0.034859
0.406906 0.069772 0.032703
0.435666 0.078531 0.035171
0.461464 0.082846 0.035346
0.477698 0.086718 0.037385
0.500361 0.097112 0.041968
0.524974 0.106533 0.048935
0.548187 0.111946 0.049500
0.579599 0.111509 0.044490
0.599587 0.113179 0.042009
0.623866 0.104035 0.033589
0.633304 0.098735 0.028319
0.650878 0.113145 0.033183
0.657378 0.119840 0.028741
0.666756 0.133187 0.028705
0.682499 0.146301 0.034141
0.691715 0.157780 0.039677
0.703671 0.161581 0.042819
0.730405 0.165120 0.042046
0.748492 0.164577 0.035489
0.764652 0.163077 0.029496
0.774537 0.167875 0.029632
0.784602 0.173818 0.031087
0.791989 0.178019 0.031455
0.803701 0.186097 0.032954
0.812890 0.191972 0.034585
0.821369 0.199403 0.036793
0.828294 0.202115 0.035694
0.846594 0.214355 0.038187
0.858672 0.223843 0.040780
0.864902 0.228289 0.041895
0.870456 0.232421 0.042877
0.876788 0.235658 0.043083
0.881527 0.242522 0.045731
0.887793 0.248987 0.049160
0.894793 0.257098 0.053140
0.901406 0.267073 0.058198
0.910988 0.277324 0.064502
0.915645 0.281444 0.066032
0.920828 0.287983 0.068990
0.925263 0.296081 0.071375
0.927097 0.297151 0.072190
0.935233 0.310292 0.076254
0.937765 0.313817 0.078043
0.939792 0.316122 0.079586
0.939927 0.316315 0.079671
0.943709 0.320266 0.083517
0.945658 0.322455 0.085022
0.015686 0.023529 0.011765
0.023529 0.023529 0.011765
0.043137 0.027451 0.015686
0.058824 0.031373 0.019608
0.082353 0.035294 0.019608
0.105882 0.035294 0.019608
0.129412 0.035294 0.015686
0.156863 0.035294 0.011765
0.184314 0.039216 0.011765
0.215686 0.043137 0.015686
0.247059 0.050981 0.019608
0.278431 0.050980 0.019608
0.301961 0.050981 0.015686
0.325490 0.050980 0.019608
0.352941 0.050981 0.015686
0.376471 0.054902 0.015686
0.396078 0.058824 0.019608
0.411093 0.070784 0.027958
0.435915 0.078959 0.031413
0.459637 0.083395 0.032254
0.479641 0.088427 0.034776
0.498826 0.097215 0.040719
0.524822 0.106610 0.046784
0.546087 0.116082 0.051680
0.565927 0.123102 0.052822
0.593887 0.119723 0.044573
0.611656 0.121998 0.043634
0.626381 0.127579 0.043765
0.644494 0.131876 0.039901
0.654641 0.137127 0.033359
0.663219 0.142742 0.029890
0.673070 0.153028 0.034221
0.687705 0.160167 0.039941
0.699433 0.166033 0.044842
0.722467 0.170789 0.046718
0.742745 0.171416 0.040980
0.763704 0.168307 0.032571
0.773569 0.170077 0.031016
0.784486 0.173848 0.031103
0.791888 0.178021 0.031471
0.803603 0.186098 0.032972
0.811902 0.192192 0.034597
0.821294 0.199413 0.036815
0.828186 0.202095 0.035708
0.843995 0.212033 0.037545
0.858593 0.223865 0.040812
0.863377 0.229307 0.042621
0.870402 0.232440 0.042880
0.876738 0.235640 0.043065
0.879876 0.241179 0.044305
0.887758 0.248984 0.049143
0.894754 0.257092 0.053124
0.901374 0.267076 0.058187
0.910971 0.277323 0.064493
0.915637 0.281441 0.066026
0.920824 0.287983 0.068987
0.925266 0.296099 0.071377
0.925492 0.296478 0.071494
0.935237 0.310307 0.076252
0.937769 0.313832 0.078040
0.939792 0.316134 0.079580
0.939929 0.316328 0.079667
0.943705 0.320276 0.083506
0.945655 0.322463 0.085011
0.027451 0.039216 0.015686
0.035294 0.043137 0.019608
0.039216 0.039216 0.019608
0.054902 0.039216 0.019608
0.078431 0.047059 0.023529
0.101961 0.050980 0.023529
0.125490 0.054902 0.023529
0.152941 0.054902 0.019608
0.180392 0.054902 0.015686
0.211765 0.054902 0.015686
0.243137 0.058824 0.019608
0.274510 0.058824 0.019608
0.298039 0.058824 0.019608
0.321569 0.058824 0.019608
0.345098 0.062745 0.019608
0.368627 0.062745 0.019608
0.392157 0.062745 0.019608
0.419608 0.066667 0.019608
0.443137 0.070588 0.019608
0.458815 0.082003 0.028806
0.480314 0.087101 0.031366
0.502492 0.096365 0.037655
0.526345 0.107558 0.044924
0.547169 0.115965 0.049486
0.568605 0.123039 0.049711
0.589670 0.129144 0.047711
0.603780 0.132741 0.044818
0.621937 0.137426 0.045591
0.639434 0.141497 0.042534
0.654350 0.144870 0.034468
0.662455 0.146917 0.030747
0.670778 0.151517 0.032407
0.682622 0.157791 0.036658
0.693465 0.163743 0.042372
0.710895 0.174296 0.047864
0.734470 0.178359 0.045032
0.759900 0.173565 0.035543
0.773460 0.170216 0.031128
0.784601 0.175711 0.031770
0.790659 0.177820 0.031934
0.803507 0.186100 0.032990
0.811807 0.192196 0.034608
0.819918 0.200369 0.038127
0.828078 0.202075 0.035722
0.843841 0.211993 0.037567
0.858513 0.223889 0.040846
0.863317 0.229384 0.042667
0.869926 0.234358 0.043588
0.874855 0.235438 0.043323
0.879852 0.241190 0.044304
0.886112 0.249518 0.049137
0.894260 0.257582 0.053355
0.901340 0.267080 0.058175
0.910953 0.277322 0.064484
0.915629 0.281437 0.066020
0.920820 0.287984 0.068984
0.925270 0.296117 0.071379
0.925498 0.296499 0.071497
0.935242 0.310324 0.076251
0.937772 0.313846 0.078037
0.939792 0.316146 0.079573
0.939930 0.316341 0.079662
0.943701 0.320286 0.083494
0.945652 0.322473 0.085001
0.031373 0.050980 0.015686
0.043137 0.054902 0.027451
0.047059 0.058824 0.027451
0.058824 0.058824 0.027451
0.074510 0.058824 0.023529
0.098039 0.062745 0.027451
0.125490 0.066667 0.027451
0.149020 0.066667 0.027451
0.176471 0.066667 0.023529
0.203922 0.070588 0.023529
0.239216 0.070588 0.019608
0.266667 0.070588 0.023529
0.290196 0.070588 0.023529
0.313726 0.070588 0.023529
0.341176 0.070588 0.023529
0.364706 0.070588 0.023529
0.392157 0.074510 0.023529
0.415686 0.074510 0.023529
0.439216 0.078431 0.019608
0.458823 0.078432 0.019608
0.474510 0.082353 0.023529
0.502802 0.098065 0.034666
0.524370 0.106520 0.039631
0.544360 0.114498 0.044594
0.568400 0.122483 0.046994
0.588647 0.129407 0.045758
0.601663 0.133665 0.042654
0.618922 0.139616 0.040688
0.634117 0.141139 0.033998
0.651945 0.143940 0.031013
0.661625 0.146424 0.028823
0.665801 0.149351 0.029811
0.678100 0.155340 0.034550
0.690283 0.162234 0.039941
0.707511 0.176464 0.047281
0.729309 0.185131 0.047580
0.747079 0.183397 0.038400
0.765637 0.179333 0.034575
0.780510 0.177433 0.033866
0.788046 0.177643 0.031961
0.800739 0.184127 0.032304
0.811039 0.192727 0.035350
0.819881 0.200411 0.038151
0.826191 0.203038 0.036857
0.843255 0.213401 0.038492
0.855294 0.222575 0.040181
0.860905 0.228194 0.042517
0.869891 0.234416 0.043613
0.873460 0.238689 0.044296
0.879828 0.241203 0.044302
0.886083 0.249546 0.049138
0.894230 0.257585 0.053342
0.899454 0.265238 0.056986
0.909051 0.276619 0.063036
0.913538 0.280272 0.065555
0.921045 0.289113 0.069216
0.925274 0.296136 0.071381
0.925505 0.296521 0.071500
0.935247 0.310341 0.076249
0.937776 0.313862 0.078033
0.939792 0.316159 0.079567
0.939932 0.316355 0.079656
0.943697 0.320296 0.083482
0.945649 0.322482 0.084990
0.023529 0.062745 0.023529
0.047059 0.066667 0.023529
0.054902 0.070588 0.031373
0.062745 0.074510 0.035294
0.074510 0.074510 0.031373
0.094118 0.078431 0.031373
0.117647 0.078431 0.031373
0.145098 0.082353 0.031373
0.172549 0.082353 0.031373
0.200000 0.082353 0.031373
0.231373 0.082353 0.027451
0.258824 0.082353 0.027451
0.286274 0.082353 0.027451
0.309804 0.082353 0.027451
0.333333 0.082353 0.027451
0.360784 0.082353 0.027451
0.384314 0.086275 0.023529
0.411765 0.086275 0.023529
0.435294 0.086275 0.023529
0.454902 0.090196 0.023529
0.474510 0.090196 0.023529
0.490196 0.094118 0.023529
0.521083 0.107929 0.035714
0.544190 0.114770 0.038819
0.565182 0.120439 0.038420
0.583960 0.126894 0.037923
0.599885 0.132299 0.039023
0.617815 0.138983 0.037683
0.631088 0.141428 0.033967
0.647661 0.142364 0.029701
0.660029 0.145108 0.027571
0.663459 0.147178 0.028359
0.672323 0.153199 0.031971
0.684752 0.159828 0.037211
0.707152 0.176604 0.046967
0.723424 0.192959 0.050575
0.743244 0.187604 0.041511
0.757519 0.187838 0.038392
0.770674 0.186881 0.036104
0.787915 0.177693 0.031996
0.798826 0.183701 0.032573
0.810937 0.192771 0.035392
0.819837 0.200465 0.038183
0.827023 0.205335 0.038335
0.840882 0.214100 0.039463
0.854298 0.224539 0.041411
0.860835 0.228298 0.042591
0.866774 0.235721 0.044634
0.873437 0.238762 0.044325
0.879102 0.242037 0.045317
0.883973 0.248425 0.048183
0.894881 0.260990 0.054940
0.899418 0.265250 0.056977
0.909015 0.276619 0.063022
0.913530 0.280282 0.065553
0.921036 0.289110 0.069210
0.925278 0.296160 0.071383
0.925512 0.296547 0.071504
0.933627 0.310149 0.075039
0.936393 0.313660 0.076832
0.939792 0.316175 0.079558
0.939934 0.316372 0.079650
0.942777 0.321927 0.082270
0.945645 0.322493 0.084976
0.057840 0.086973 0.042568
0.050980 0.082353 0.027451
0.050980 0.082353 0.027451
0.066667 0.086275 0.039216
0.074510 0.090196 0.039216
0.090196 0.090196 0.035294
0.113725 0.094118 0.035294
0.137255 0.094118 0.035294
0.164706 0.098039 0.035294
0.192157 0.098039 0.035294
0.223529 0.098039 0.031373
0.250980 0.098039 0.031373
0.278431 0.098039 0.031373
0.301961 0.098039 0.031373
0.329412 0.094118 0.027451
0.356863 0.098039 0.027451
0.380392 0.098039 0.031373
0.403922 0.098039 0.031373
0.427451 0.101961 0.027451
0.450980 0.101961 0.027451
0.470588 0.101961 0.023529
0.490196 0.105882 0.023529
0.509804 0.105882 0.023529
0.536907 0.116463 0.034516
0.560118 0.122361 0.033992
0.581409 0.127678 0.034929
0.597426 0.133121 0.035749
0.615005 0.138268 0.033156
0.627045 0.140934 0.031701
0.642818 0.141661 0.028113
0.657018 0.143772 0.026332
0.662850 0.146546 0.027339
0.668679 0.152531 0.029990
0.683294 0.163507 0.033954
0.701726 0.177849 0.040524
0.724076 0.195423 0.049571
0.733238 0.208178 0.049853
0.746902 0.204676 0.045191
0.762271 0.198736 0.040454
0.777608 0.192891 0.037403
0.795707 0.188510 0.034725
0.810387 0.195008 0.036612
0.817288 0.199857 0.038010
0.826924 0.205381 0.038393
0.838734 0.214344 0.040427
0.854189 0.224630 0.041494
0.860752 0.228428 0.042686
0.866731 0.235883 0.044730
0.872048 0.238850 0.044133
0.879313 0.243296 0.045098
0.883939 0.248476 0.048197
0.894592 0.261760 0.055173
0.899837 0.268314 0.058149
0.908971 0.276620 0.063006
0.913520 0.280294 0.065551
0.921026 0.289106 0.069204
0.925284 0.296190 0.071387
0.925521 0.296580 0.071508
0.933638 0.310185 0.075043
0.936398 0.313689 0.076830
0.938183 0.316434 0.078363
0.940851 0.320022 0.080554
0.942094 0.323362 0.082241
0.944254 0.322037 0.083757
0.066864 0.105173 0.057137
0.071421 0.102931 0.050518
0.062745 0.094118 0.035294
0.062745 0.094118 0.035294
0.078431 0.101961 0.043137
0.090196 0.105882 0.043137
0.105882 0.105882 0.039216
0.129412 0.109804 0.039216
0.156863 0.109804 0.039216
0.184314 0.113726 0.039216
0.215686 0.109804 0.035294
0.243137 0.113725 0.035294
0.270588 0.109804 0.035294
0.298039 0.113726 0.035294
0.321569 0.113726 0.035294
0.349020 0.109804 0.031373
0.376471 0.113726 0.031373
0.400000 0.113726 0.031373
0.427451 0.113726 0.031373
0.447059 0.113726 0.031372
0.470588 0.117647 0.031373
0.490196 0.117647 0.027451
0.509804 0.117647 0.027451
0.525490 0.117647 0.027451
0.549020 0.113726 0.019608
0.564706 0.121569 0.023529
0.584314 0.129412 0.023529
0.603922 0.129412 0.023529
0.615686 0.133334 0.023529
0.637454 0.143059 0.027756
0.652384 0.142818 0.024331
0.662404 0.147985 0.026535
0.668753 0.154369 0.028671
0.680973 0.166448 0.032415
0.700171 0.182507 0.038071
0.719931 0.199140 0.045575
0.733617 0.212670 0.049356
0.741564 0.221218 0.051001
0.751773 0.222474 0.049993
0.768853 0.212015 0.045007
0.784769 0.205611 0.041640
0.805905 0.199740 0.038884
0.816290 0.200254 0.038614
0.826812 0.205438 0.038463
0.839339 0.219374 0.043592
0.852707 0.228482 0.044421
0.861102 0.232384 0.044849
0.866682 0.236084 0.044849
0.872020 0.238964 0.044187
0.876215 0.242646 0.045179
0.883247 0.250077 0.048470
0.893832 0.263533 0.055664
0.899781 0.268352 0.058146
0.907290 0.276661 0.062995
0.913267 0.280984 0.065556
0.921963 0.291535 0.069661
0.925292 0.296227 0.071391
0.926219 0.299122 0.072207
0.933650 0.310229 0.075046
0.936403 0.313723 0.076828
0.938186 0.316460 0.078356
0.940844 0.321629 0.080775
0.942092 0.323387 0.082233
0.943564 0.322787 0.083485
0.064832 0.129475 0.080286
0.075326 0.122001 0.063154
0.081753 0.119559 0.053624
0.070588 0.109804 0.031373
0.082353 0.117647 0.047059
0.094118 0.121569 0.047059
0.105882 0.125490 0.047059
0.125490 0.125490 0.047059
0.149020 0.125490 0.047059
0.176471 0.129412 0.047059
0.203922 0.129412 0.047059
0.235294 0.129412 0.043137
0.262745 0.129412 0.039216
0.290196 0.129412 0.043137
0.317647 0.129412 0.039216
0.341176 0.125490 0.035294
0.368627 0.125490 0.035294
0.392157 0.125490 0.035294
0.419608 0.129412 0.035294
0.443137 0.129412 0.035294
0.466667 0.129412 0.035294
0.486274 0.129412 0.031373
0.501961 0.129412 0.031373
0.525490 0.133334 0.031372
0.545098 0.133334 0.031372
0.568627 0.137255 0.027451
0.584314 0.141177 0.023529
0.600000 0.141177 0.027451
0.615686 0.141177 0.023529
0.627451 0.145098 0.023529
0.647957 0.149551 0.026309
0.654902 0.149020 0.023529
0.668428 0.159364 0.028166
0.683096 0.172584 0.032821
0.706240 0.193413 0.040916
0.721652 0.206182 0.045377
0.733135 0.215675 0.048716
0.743873 0.226388 0.052193
0.747648 0.229553 0.052832
0.754887 0.234319 0.054767
0.767476 0.226198 0.050564
0.797060 0.215249 0.045683
0.815751 0.203979 0.040816
0.823256 0.205896 0.039986
0.833749 0.218017 0.044507
0.849642 0.229959 0.046736
0.861208 0.237657 0.047962
0.866630 0.236321 0.044992
0.870397 0.240173 0.045054
0.876148 0.243205 0.044990
0.883236 0.250212 0.048531
0.893545 0.264785 0.056176
0.898307 0.270271 0.059342
0.905113 0.275520 0.062043
0.912044 0.281669 0.065085
0.919120 0.289650 0.068210
0.925534 0.297689 0.071140
0.927157 0.302252 0.072184
0.935060 0.314210 0.075753
0.937101 0.316999 0.077290
0.937264 0.317231 0.077378
0.940833 0.321655 0.080757
0.942088 0.323416 0.082222
0.942181 0.323529 0.082290
0.070846 0.159726 0.100216
0.078242 0.152050 0.089354
0.086832 0.145572 0.077283
0.094169 0.141820 0.064859
0.093168 0.135138 0.051782
0.094118 0.133333 0.050980
0.105882 0.137255 0.050980
0.121569 0.141176 0.050980
0.141176 0.141176 0.050980
0.168627 0.145098 0.050980
0.196078 0.145098 0.050980
0.227451 0.145098 0.047059
0.254902 0.145098 0.047059
0.278431 0.145098 0.047059
0.305882 0.145098 0.047059
0.333333 0.145098 0.043137
0.360784 0.145098 0.039216
0.388235 0.145098 0.039216
0.415686 0.141177 0.035294
0.435294 0.145098 0.035294
0.458824 0.145098 0.035294
0.482353 0.145098 0.035294
0.501961 0.141177 0.031372
0.525490 0.141177 0.023529
0.545098 0.145098 0.035294
0.560784 0.149020 0.035294
0.580392 0.152941 0.031373
0.596078 0.152941 0.027451
0.611765 0.156863 0.027451
0.627451 0.156863 0.027451
0.639216 0.160785 0.027451
0.650980 0.160784 0.027451
0.670903 0.170432 0.030305
0.685727 0.181142 0.034284
0.703982 0.194273 0.040523
0.718829 0.204932 0.044084
0.730831 0.215137 0.047214
0.742265 0.225054 0.051510
0.747704 0.229594 0.052826
0.753459 0.236434 0.055888
0.757027 0.236261 0.055724
0.771188 0.231415 0.053309
0.806562 0.217522 0.047304
0.823918 0.216949 0.047612
0.833660 0.218278 0.044718
0.846806 0.230111 0.047962
0.860437 0.241579 0.050503
0.863901 0.241617 0.049053
0.870183 0.245351 0.048410
0.873141 0.247332 0.048141
0.882749 0.256628 0.052031
0.894641 0.267146 0.057147
0.897301 0.269656 0.058663
0.905033 0.275552 0.062032
0.911051 0.284632 0.064785
0.916513 0.290030 0.068233
0.926007 0.301268 0.072581
0.927166 0.302325 0.072194
0.935072 0.314279 0.075759
0.937102 0.317049 0.077286
0.938413 0.320417 0.078766
0.940375 0.323555 0.080970
0.942084 0.323451 0.082211
0.942179 0.323561 0.082280
0.070805 0.180939 0.112276
0.076485 0.180729 0.109421
0.086961 0.171297 0.097864
0.100184 0.161462 0.080072
0.108401 0.157701 0.068741
0.105784 0.153113 0.059214
0.109804 0.152941 0.054902
0.121569 0.156863 0.058824
0.137255 0.156863 0.058824
0.156863 0.160784 0.054902
0.184314 0.160784 0.054902
0.215686 0.164706 0.054902
0.243137 0.164706 0.054902
0.270588 0.164706 0.050980
0.294118 0.164706 0.050980
0.321569 0.160784 0.050980
0.352941 0.160784 0.047059
0.380392 0.164706 0.047059
0.407843 0.160784 0.043137
0.431373 0.160784 0.043137
0.454902 0.160784 0.035294
0.474510 0.160784 0.035294
0.498039 0.156863 0.027451
0.517647 0.156863 0.027451
0.537255 0.160784 0.035294
0.556863 0.160784 0.031372
0.580392 0.164706 0.031372
0.596078 0.168628 0.031372
0.607843 0.168628 0.031372
0.619608 0.168628 0.031372
0.639216 0.172549 0.031372
0.657381 0.178071 0.032204
0.669367 0.180375 0.032115
0.685592 0.189983 0.035633
0.700812 0.199082 0.039588
0.714761 0.205590 0.042222
0.728788 0.216120 0.046778
0.741567 0.225531 0.050574
0.747779 0.229721 0.052856
0.753641 0.236609 0.055914
0.755788 0.239722 0.057088
0.758744 0.244079 0.059644
0.787203 0.238864 0.055621
0.815798 0.231944 0.052961
0.829771 0.220690 0.046858
0.846866 0.240689 0.055713
0.859764 0.257514 0.062004
0.863652 0.253275 0.056225
0.870953 0.256293 0.054972
0.873169 0.254478 0.053654
0.883157 0.261861 0.055442
0.889523 0.269335 0.058628
0.896775 0.272132 0.059658
0.902868 0.277864 0.062549
0.911252 0.289341 0.066517
0.916511 0.290155 0.068271
0.926000 0.301358 0.072606
0.928102 0.306557 0.074309
0.934149 0.315696 0.076009
0.936187 0.317355 0.076792
0.939562 0.323684 0.080406
0.940369 0.323594 0.080960
0.940467 0.323712 0.081022
0.942177 0.323598 0.082270
0.066673 0.203826 0.117980
0.068906 0.203780 0.117735
0.077459 0.200446 0.114429
0.094365 0.190967 0.100371
0.114081 0.175029 0.080420
0.121017 0.173918 0.073660
0.119458 0.171840 0.067180
0.125490 0.172549 0.062745
0.137255 0.176471 0.062745
0.152941 0.176471 0.062745
0.176471 0.176471 0.062745
0.203922 0.180392 0.062745
0.231373 0.180392 0.058824
0.258823 0.180392 0.058823
0.286275 0.180392 0.058824
0.313725 0.180392 0.058823
0.341176 0.180392 0.054902
0.368627 0.180392 0.054902
0.396078 0.180392 0.054902
0.427451 0.180392 0.047059
0.447059 0.180392 0.043137
0.470588 0.176471 0.039216
0.490196 0.176471 0.039216
0.513725 0.176471 0.039216
0.533333 0.176471 0.035294
0.556863 0.176471 0.035294
0.576471 0.180392 0.031372
0.596078 0.180392 0.031372
0.607843 0.180392 0.035294
0.619608 0.184314 0.035294
0.635294 0.184314 0.035294
0.647059 0.184314 0.035294
0.662745 0.188235 0.031372
0.682902 0.199307 0.035909
0.698717 0.208468 0.039347
0.711861 0.216106 0.042993
0.724192 0.221225 0.046266
0.736622 0.224627 0.049081
0.747882 0.232415 0.053046
0.753600 0.237449 0.055809
0.756112 0.240124 0.057217
0.758783 0.244142 0.059274
0.770947 0.256484 0.064384
0.800534 0.260674 0.063834
0.822981 0.261274 0.068719
0.848312 0.264561 0.067227
0.860925 0.271345 0.070807
0.863487 0.268104 0.067188
0.867033 0.263801 0.062811
0.873631 0.263989 0.059445
0.881924 0.274230 0.065121
0.889515 0.276052 0.063996
0.897382 0.280376 0.064337
0.900482 0.281601 0.064571
0.911202 0.289454 0.066552
0.913663 0.291413 0.067865
0.926706 0.304822 0.073104
0.929974 0.310920 0.074801
0.932987 0.315564 0.076037
0.936419 0.319409 0.077493
0.939556 0.323734 0.080402
0.939674 0.323874 0.080466
0.940463 0.323753 0.081013
0.943310 0.327455 0.083397
0.061705 0.219871 0.121242
0.064848 0.219867 0.120024
0.069031 0.217966 0.119424
0.079529 0.214351 0.115953
0.106368 0.203904 0.100005
0.127749 0.196293 0.085648
0.136576 0.194478 0.081906
0.125490 0.188235 0.066667
0.137255 0.192157 0.070588
0.152941 0.192157 0.070588
0.168627 0.196078 0.070588
0.192157 0.196078 0.066667
0.219608 0.196078 0.066667
0.247059 0.196078 0.066667
0.274510 0.196078 0.062745
0.301961 0.196078 0.062745
0.329412 0.200000 0.062745
0.360784 0.200000 0.058824
0.388235 0.200000 0.062745
0.415686 0.200000 0.058823
0.443137 0.196078 0.050980
0.462745 0.196079 0.047059
0.486274 0.192157 0.043137
0.505882 0.196079 0.039216
0.529412 0.192157 0.039216
0.549020 0.192157 0.035294
0.572549 0.196079 0.035294
0.588235 0.196078 0.031372
0.603922 0.200000 0.035294
0.619608 0.200000 0.035294
0.631373 0.200000 0.039216
0.650086 0.206599 0.043482
0.665915 0.207906 0.042198
0.683321 0.210785 0.040570
0.697602 0.214884 0.041032
0.710713 0.222471 0.043213
0.720229 0.228060 0.046172
0.729144 0.232505 0.049232
0.742702 0.236051 0.052316
0.752444 0.239130 0.055248
0.755047 0.241185 0.056576
0.760817 0.247121 0.061266
0.765067 0.253386 0.063534
0.785542 0.279249 0.071610
0.807973 0.292439 0.081383
0.842541 0.299495 0.088943
0.856854 0.281356 0.077776
0.862815 0.275650 0.072527
0.867545 0.283377 0.076079
0.875351 0.286809 0.076417
0.880959 0.285953 0.073452
0.889213 0.285346 0.070326
0.895903 0.289530 0.070788
0.899473 0.286864 0.067612
0.909034 0.292226 0.068092
0.913630 0.296602 0.069848
0.925499 0.304943 0.073140
0.931606 0.314486 0.076021
0.934134 0.318828 0.077466
0.935936 0.321293 0.078443
0.939548 0.323791 0.080398
0.939669 0.323926 0.080463
0.939766 0.324035 0.080517
0.941690 0.326579 0.082432
0.045796 0.234972 0.122598
0.052950 0.234608 0.123816
0.060971 0.233022 0.123454
0.067431 0.233510 0.123965
0.085151 0.229945 0.115231
0.118923 0.221364 0.100671
0.137262 0.210479 0.088043
0.145077 0.210368 0.086416
0.137255 0.203922 0.074510
0.149020 0.207843 0.078431
0.164706 0.207843 0.078431
0.184314 0.211765 0.074510
0.207843 0.211765 0.074510
0.235294 0.211765 0.074510
0.266667 0.215686 0.074510
0.294118 0.215686 0.070588
0.321569 0.215686 0.070588
0.349020 0.219608 0.066667
0.380392 0.219608 0.066667
0.407843 0.219608 0.062745
0.435294 0.215686 0.062745
0.454902 0.215686 0.058823
0.478431 0.211765 0.054902
0.501961 0.211765 0.054902
0.521569 0.211765 0.047059
0.545098 0.211765 0.043137
0.564706 0.211765 0.039216
0.584314 0.211765 0.035294
0.600000 0.211765 0.035294
0.615686 0.211765 0.035294
0.627451 0.215686 0.039216
0.643137 0.215686 0.043137
0.662617 0.223868 0.046728
0.678749 0.228169 0.046962
0.690789 0.228129 0.046274
0.708384 0.226614 0.045018
0.720193 0.231173 0.047112
0.728923 0.238306 0.050443
0.734645 0.241509 0.052625
0.747175 0.244019 0.055656
0.755486 0.247852 0.058222
0.758076 0.247445 0.059376
0.762318 0.251024 0.062848
0.778909 0.277581 0.072399
0.796915 0.309326 0.080835
0.825172 0.320914 0.095316
0.843326 0.317485 0.096202
0.865711 0.301647 0.092286
0.869862 0.296959 0.085817
0.871356 0.299954 0.087981
0.879551 0.297464 0.083415
0.887080 0.302217 0.083456
0.894482 0.296575 0.076400
0.898505 0.294884 0.073581
0.904777 0.300341 0.074044
0.913862 0.304048 0.074235
0.924079 0.310425 0.077234
0.932095 0.324347 0.082792
0.934117 0.318916 0.077484
0.935908 0.321353 0.078450
0.937470 0.323863 0.079929
0.939663 0.323984 0.080460
0.941403 0.330201 0.084109
0.942855 0.331614 0.085097
0.021994 0.250188 0.125448
0.029971 0.249949 0.125498
0.047155 0.251874 0.127656
0.059536 0.254768 0.128240
0.074304 0.253876 0.125913
0.094444 0.252310 0.120720
0.122721 0.239154 0.103056
0.145671 0.225497 0.086814
0.125490 0.215686 0.058823
0.149020 0.219608 0.082353
0.164706 0.223529 0.086274
0.180392 0.227451 0.086274
0.200000 0.227451 0.082353
0.223529 0.227451 0.078431
0.250980 0.231373 0.082353
0.282353 0.231373 0.082353
0.309804 0.231373 0.078431
0.341176 0.235294 0.078431
0.368627 0.235294 0.074510
0.396078 0.235294 0.070588
0.427451 0.235294 0.066667
0.447059 0.235294 0.066667
0.470588 0.231373 0.062745
0.494118 0.231373 0.062745
0.517647 0.231373 0.058823
0.537255 0.231373 0.054902
0.560784 0.231373 0.043137
0.580392 0.231373 0.043137
0.600000 0.231373 0.039216
0.611765 0.231373 0.043137
0.627451 0.227451 0.039216
0.639216 0.235294 0.043137
0.654902 0.235294 0.043137
0.670588 0.239216 0.047059
0.688263 0.244141 0.051094
0.700270 0.246566 0.051793
0.715542 0.238997 0.049650
0.727223 0.242765 0.052119
0.733117 0.242687 0.053022
0.740828 0.247727 0.055978
0.753836 0.251753 0.059249
0.755637 0.250651 0.059135
0.764157 0.258088 0.065751
0.776481 0.283093 0.077183
0.796592 0.316244 0.084722
0.810805 0.342055 0.092647
0.837194 0.340297 0.103518
0.846522 0.332146 0.106607
0.869643 0.320147 0.104813
0.871124 0.306327 0.092880
0.876254 0.308403 0.092276
0.888745 0.314168 0.091818
0.891988 0.313718 0.090227
0.899236 0.314824 0.087468
0.903752 0.309013 0.081628
