backend/3dlut-creator/demo/VV2.cube
TITLE "3D LUT from Image Pairs"
LUT_3D_SIZE 4
0.019608 0.023529 0.023529
0.521569 0.003922 0.003921
0.897008 0.085758 0.000000
0.996207 0.082203 0.000000
0.070700 0.619293 0.089793
0.427451 0.435294 0.000000
0.839883 0.381253 0.000000
0.954246 0.302324 0.000000
0.389650 0.957365 0.439566
0.498421 0.922166 0.355986
0.755618 0.777380 0.000000
0.932610 0.774504 0.045440
0.513394 0.965632 0.411298
0.550744 0.964307 0.410296
0.666651 0.958145 0.376323
0.895052 0.915637 0.100733
0.022741 0.094256 0.682510
0.501869 0.111863 0.461689
0.832894 0.153331 0.394235
0.998507 0.198627 0.259428
0.003626 0.511351 0.553652
0.447059 0.447059 0.447059
0.802863 0.386997 0.373239
1.000000 0.285611 0.162706
0.222060 0.911149 0.444958
0.346341 0.885535 0.443673
0.745098 0.756863 0.278431
0.970482 0.756398 0.280610
0.452661 0.974716 0.444105
0.499405 0.969180 0.417651
0.616128 0.968635 0.416369
0.914267 0.928736 0.169147
0.083537 0.371771 0.968297
0.079709 0.361044 0.965396
0.687788 0.461807 0.782950
0.920717 0.338903 0.490914
0.207843 0.450980 0.913726
0.533448 0.488477 0.874757
0.730445 0.480721 0.785787
0.934330 0.438391 0.558729
0.267675 0.857855 0.837416
0.388235 0.819608 0.827451
0.760784 0.760784 0.760784
0.959073 0.731195 0.714980
0.421767 0.981869 0.603894
0.453733 0.985582 0.633258
0.606095 0.997287 0.686973
0.948942 0.950041 0.657202
0.201531 0.512138 0.997715
0.201543 0.512165 0.997719
0.201509 0.512117 0.997712
0.601250 0.531244 0.890763
0.253307 0.567558 1.000000
0.241287 0.553399 1.000000
0.232239 0.547255 1.000000
0.714187 0.530494 0.831895
0.334855 0.804439 0.998004
0.458483 0.800978 1.000000
0.682564 0.815248 0.999756
0.868864 0.672624 0.837572
0.345966 0.973282 0.991158
0.365256 0.983337 0.995518
0.584716 0.998344 0.998975
0.988235 0.988236 0.988235
