backend/3dlut-creator/demo/VV2.cube
TITLE "3D LUT from Image Pairs"
LUT_3D_SIZE 64
0.019608 0.023529 0.023529
0.043137 0.019608 0.019608
0.062745 0.019608 0.015686
0.078431 0.019608 0.015686
0.094118 0.015686 0.015686
0.113725 0.015686 0.011765
0.137255 0.011765 0.007843
0.156863 0.011765 0.007843
0.180392 0.011765 0.007843
0.207843 0.011765 0.007843
0.235294 0.011765 0.007843
0.258824 0.015686 0.007843
0.278431 0.011765 0.003922
0.305882 0.011765 0.003922
0.337255 0.011765 0.003922
0.360784 0.011765 0.003922
0.384314 0.007843 0.003922
0.407843 0.007843 0.003922
0.439216 0.003922 0.003922
0.462745 0.003922 0.003922
0.490196 0.003922 0.000000
0.521569 0.003922 0.003921
0.541176 0.000001 0.000000
0.568627 0.000000 0.000000
0.600000 0.000000 0.000000
0.630473 0.003887 0.000129
0.658264 0.008658 0.000071
0.679729 0.012091 0.000060
0.696401 0.014599 0.000067
0.718050 0.017652 0.000072
0.736179 0.018554 0.000013
0.754407 0.021870 0.000000
0.774213 0.026371 0.000000
0.793063 0.027664 0.000000
0.806853 0.029853 0.000000
0.818251 0.031055 0.000000
0.831345 0.034831 0.000000
0.846882 0.045923 0.000000
0.858310 0.055341 0.000000
0.871054 0.062060 0.000000
0.878021 0.067985 0.000000
0.887281 0.075810 0.000000
0.897008 0.085758 0.000000
0.905003 0.091534 0.000000
0.912759 0.097487 0.000000
0.916609 0.102941 0.000000
0.916938 0.103257 0.000000
0.925757 0.098060 0.000000
0.932495 0.093176 0.000199
0.946325 0.075593 0.000203
0.958413 0.064034 0.000214
0.965345 0.052466 0.000226
0.980514 0.053211 0.000000
0.984675 0.055986 0.000000
0.986311 0.059411 0.000000
0.989029 0.065850 0.000000
0.992418 0.071968 0.000000
0.994567 0.076085 0.000000
0.994640 0.076289 0.000000
0.994702 0.076463 0.000000
0.996116 0.081878 0.000000
0.996150 0.081996 0.000000
0.996179 0.082096 0.000000
0.996207 0.082203 0.000000
0.023529 0.047059 0.023529
0.047059 0.047059 0.023529
0.062745 0.043137 0.023529
0.074510 0.031373 0.015686
0.094118 0.031373 0.019608
0.113725 0.031373 0.019608
0.133333 0.031373 0.015686
0.153874 0.031024 0.021867
0.175831 0.028635 0.020045
0.200894 0.027965 0.019908
0.227451 0.019608 0.007843
0.250980 0.027451 0.011765
0.280871 0.019142 0.008873
0.301961 0.027451 0.007843
0.329928 0.018109 0.007587
0.356863 0.019608 0.007843
0.380392 0.019608 0.003921
0.411765 0.015686 0.003922
0.435294 0.007843 0.000000
0.458823 0.000000 0.000000
0.488315 0.013879 0.000866
0.521569 0.015687 0.003922
0.553739 0.006411 0.000357
0.583588 0.003658 0.000076
0.600000 0.007844 0.000000
0.631395 0.006662 0.000100
0.652172 0.012122 0.000052
0.674644 0.013884 0.000063
0.697771 0.018073 0.000074
0.716483 0.019692 0.000060
0.734774 0.022422 0.000017
0.749957 0.024641 0.000001
0.771926 0.030567 0.000000
0.788220 0.030770 0.000000
0.808175 0.032198 0.000000
0.821098 0.035373 0.000000
0.831997 0.037123 0.000000
0.846882 0.046049 0.000000
0.858277 0.055422 0.000000
0.872286 0.063942 0.000000
0.877994 0.068025 0.000000
0.886376 0.075347 0.000000
0.896558 0.086034 0.000000
0.904083 0.091818 0.000000
0.911365 0.097244 0.000000
0.916581 0.102935 0.000000
0.917370 0.103641 0.000000
0.923897 0.095074 0.000000
0.932471 0.093273 0.000198
0.946286 0.075727 0.000203
0.958396 0.064122 0.000214
0.965349 0.052496 0.000225
0.980515 0.053211 0.000000
0.984669 0.055984 0.000000
0.986308 0.059415 0.000000
0.989024 0.065849 0.000000
0.992416 0.071969 0.000000
0.994567 0.076088 0.000000
0.994641 0.076293 0.000000
0.994704 0.076469 0.000000
0.996117 0.081882 0.000000
0.996151 0.082001 0.000000
0.996180 0.082102 0.000000
0.996209 0.082208 0.000000
0.031373 0.066667 0.027451
0.039216 0.062745 0.023529
0.058824 0.058824 0.023529
0.078431 0.058824 0.023529
0.094118 0.043137 0.019608
0.109804 0.039216 0.015686
0.133333 0.039216 0.019608
0.152941 0.039216 0.019608
0.176471 0.035294 0.019608
0.203922 0.043137 0.023529
0.227451 0.043137 0.019608
0.251538 0.036668 0.015790
0.270588 0.035294 0.007843
0.305882 0.039216 0.011765
0.321569 0.039216 0.007843
0.356863 0.035294 0.007843
0.380392 0.015686 0.000000
0.407101 0.018489 0.002671
0.431373 0.000000 0.000000
0.462745 0.003922 0.000000
0.486274 0.000001 0.000000
0.527536 0.014606 0.000602
0.545098 0.000001 0.000000
0.572549 0.000000 0.000000
0.603350 0.007071 0.000121
0.628591 0.016063 0.000094
0.647995 0.018296 0.000053
0.669540 0.018937 0.000102
0.695210 0.020789 0.000074
0.713263 0.021488 0.000078
0.731023 0.022931 0.000033
0.748847 0.027755 0.000006
0.768286 0.031810 0.000000
0.786420 0.033209 0.000000
0.802063 0.033839 0.000000
0.817351 0.036893 0.000000
0.830423 0.038784 0.000000
0.846889 0.046196 0.000000
0.858249 0.055522 0.000000
0.870077 0.063304 0.000000
0.877969 0.068068 0.000000
0.886594 0.075639 0.000000
0.896544 0.086053 0.000000
0.904057 0.091825 0.000000
0.911326 0.097227 0.000000
0.916553 0.102928 0.000000
0.918243 0.106119 0.000000
0.923861 0.095166 0.000000
0.932447 0.093371 0.000196
0.943961 0.082948 0.000192
0.958378 0.064214 0.000213
0.965352 0.052528 0.000225
0.980516 0.053213 0.000000
0.984662 0.055983 0.000000
0.986306 0.059417 0.000000
0.989020 0.065847 0.000000
0.992415 0.071971 0.000000
0.994567 0.076090 0.000000
0.994642 0.076297 0.000000
0.994705 0.076474 0.000000
0.996118 0.081888 0.000000
0.996153 0.082006 0.000000
0.996181 0.082108 0.000000
0.996210 0.082214 0.000000
0.027451 0.078431 0.019608
0.039216 0.074510 0.023529
0.050980 0.074510 0.023529
0.070588 0.070588 0.015686
0.090196 0.066667 0.011765
0.109804 0.066667 0.015686
0.128574 0.058480 0.023382
0.149020 0.043137 0.011765
0.168627 0.039216 0.007843
0.196078 0.047059 0.015686
0.223220 0.054516 0.028697
0.248410 0.050549 0.024420
0.271388 0.048031 0.021020
0.297967 0.046067 0.016722
0.321569 0.047059 0.011765
0.349020 0.039216 0.003922
0.376471 0.035294 0.003922
0.400000 0.031373 0.003922
0.423529 0.023530 0.000000
0.454902 0.015687 0.000000
0.479324 0.019102 0.000162
0.525866 0.019006 0.000507
0.545098 0.000001 0.000000
0.573690 0.007852 0.000111
0.599629 0.009669 0.000137
0.631040 0.025234 0.000101
0.639216 0.015687 0.000000
0.664064 0.025003 0.000125
0.692319 0.025642 0.000072
0.711716 0.023711 0.000080
0.729638 0.023855 0.000038
0.746450 0.028254 0.000008
0.764236 0.034335 0.000000
0.780150 0.034953 0.000000
0.802311 0.038959 0.000000
0.816238 0.039686 0.000000
0.833561 0.044380 0.000000
0.846050 0.048159 0.000000
0.858227 0.055639 0.000000
0.868284 0.064216 0.000000
0.875540 0.066487 0.000000
0.886597 0.076467 0.000000
0.894588 0.084289 0.000000
0.904029 0.091833 0.000000
0.911737 0.098275 0.000000
0.916524 0.102921 0.000000
0.918222 0.106110 0.000000
0.923822 0.095261 0.000000
0.932421 0.093474 0.000195
0.943934 0.083083 0.000191
0.958360 0.064310 0.000213
0.965356 0.052561 0.000224
0.983226 0.054518 0.000000
0.984655 0.055982 0.000000
0.986304 0.059421 0.000000
0.989015 0.065846 0.000000
0.992413 0.071972 0.000000
0.994567 0.076093 0.000000
0.994643 0.076302 0.000000
0.994706 0.076480 0.000000
0.996119 0.081893 0.000000
0.996154 0.082011 0.000000
0.996183 0.082114 0.000000
0.996212 0.082220 0.000000
0.034313 0.107944 0.031072
0.035294 0.094118 0.023529
0.050980 0.090196 0.023529
0.062745 0.086275 0.019608
0.082353 0.086275 0.011765
0.113725 0.082353 0.007843
0.125056 0.085266 0.023559
0.153272 0.076435 0.022540
0.170207 0.064433 0.015921
0.192157 0.050980 0.007843
0.218902 0.060627 0.020201
0.246995 0.061663 0.026371
0.273448 0.063889 0.028001
0.294755 0.063032 0.023361
0.309804 0.066667 0.015686
0.341176 0.043137 0.007843
0.372549 0.039216 0.003922
0.400000 0.031373 0.000000
0.423529 0.027451 0.000000
0.450980 0.023530 0.000000
0.477785 0.029424 0.000436
0.522903 0.029007 0.000773
0.550240 0.021257 0.000593
0.570601 0.015977 0.000134
0.596208 0.021874 0.000491
0.627871 0.034763 0.000138
0.643964 0.036074 0.000058
0.660193 0.032047 0.000159
0.683493 0.029357 0.000145
0.706341 0.026325 0.000105
0.725548 0.023516 0.000064
0.745274 0.029774 0.000009
0.763611 0.036536 0.000000
0.778086 0.039061 0.000000
0.800245 0.040925 0.000000
0.815184 0.042251 0.000000
0.834446 0.048404 0.000000
0.846767 0.052085 0.000000
0.858209 0.055792 0.000000
0.868216 0.064300 0.000000
0.875516 0.066555 0.000000
0.886600 0.076540 0.000000
0.894571 0.084322 0.000000
0.903994 0.092530 0.000000
0.908800 0.096400 0.000000
0.916488 0.102914 0.000000
0.918196 0.106101 0.000000
0.921272 0.102948 0.000000
0.930296 0.096247 0.000000
0.941799 0.078719 0.000199
0.957422 0.063208 0.000211
0.968131 0.053171 0.000225
0.983216 0.054518 0.000000
0.984647 0.055981 0.000000
0.987432 0.061430 0.000000
0.989009 0.065845 0.000000
0.992411 0.071974 0.000000
0.994567 0.076098 0.000000
0.994644 0.076308 0.000000
0.994708 0.076489 0.000000
0.996120 0.081899 0.000000
0.996155 0.082019 0.000000
0.996184 0.082121 0.000000
0.996214 0.082228 0.000000
0.040733 0.121396 0.034360
0.027451 0.109804 0.015686
0.039216 0.098039 0.011765
0.058823 0.105882 0.015686
0.074510 0.105882 0.015686
0.098039 0.101961 0.007843
0.117647 0.098039 0.003922
0.145098 0.094118 0.003922
0.168395 0.092912 0.021653
0.194542 0.082694 0.022268
0.223529 0.074510 0.003922
0.239286 0.069579 0.017647
0.264230 0.072449 0.025258
0.298354 0.075857 0.026616
0.313725 0.078431 0.019608
0.337255 0.074510 0.015686
0.363958 0.070803 0.015067
0.388235 0.047059 0.000000
0.423529 0.031373 0.000000
0.454902 0.031373 0.000000
0.470588 0.023530 0.000000
0.512378 0.047198 0.002673
0.543084 0.042703 0.001980
0.566968 0.034745 0.000748
0.592697 0.041768 0.000796
0.626228 0.053673 0.000622
0.643518 0.050805 0.000087
0.657084 0.042414 0.000172
0.681508 0.039289 0.000214
0.702310 0.032417 0.000099
0.720505 0.027861 0.000085
0.743899 0.030727 0.000012
0.763305 0.036857 0.000000
0.778082 0.043642 0.000000
0.796494 0.045153 0.000000
0.814976 0.043769 0.000000
0.831490 0.049201 0.000000
0.844178 0.053321 0.000000
0.855225 0.056850 0.000000
0.867725 0.065214 0.000000
0.873915 0.065852 0.000000
0.886602 0.076624 0.000000
0.894126 0.084657 0.000000
0.903946 0.092549 0.000000
0.908755 0.096405 0.000000
0.917742 0.105694 0.000000
0.918164 0.106090 0.000000
0.921233 0.102967 0.000000
0.930249 0.096371 0.000000
0.939482 0.096294 0.000105
0.957185 0.061072 0.000208
0.968131 0.053205 0.000224
0.983206 0.054519 0.000000
0.984637 0.055981 0.000000
0.987417 0.061417 0.000000
0.989002 0.065843 0.000000
0.990105 0.069326 0.000000
0.994567 0.076104 0.000000
0.994645 0.076316 0.000000
0.994710 0.076498 0.000000
0.996121 0.081908 0.000000
0.996157 0.082027 0.000000
0.996186 0.082130 0.000000
0.996216 0.082238 0.000000
0.040786 0.154776 0.038341
0.046273 0.146731 0.030821
0.031373 0.133333 0.007843
0.054902 0.133333 0.019608
0.074510 0.121569 0.011765
0.090196 0.121569 0.007843
0.113725 0.117647 0.003922
0.133333 0.121569 0.003922
0.167215 0.121532 0.019011
0.197258 0.116597 0.022476
0.222831 0.105887 0.018210
0.247059 0.094118 0.000000
0.262203 0.093407 0.020273
0.292675 0.094942 0.027524
0.318355 0.091662 0.024123
0.333333 0.090196 0.019608
0.360784 0.090196 0.015686
0.384314 0.086275 0.011765
0.416610 0.071865 0.008144
0.451069 0.068723 0.006776
0.478993 0.063896 0.005696
0.510846 0.063499 0.003977
0.541098 0.070485 0.003842
0.567032 0.067832 0.002716
0.587441 0.063821 0.001839
0.619222 0.070472 0.000990
0.644789 0.072951 0.000705
0.659644 0.060289 0.000578
0.677111 0.045957 0.000215
0.699990 0.037905 0.000130
0.715980 0.033634 0.000101
0.744043 0.036090 0.000011
0.754022 0.037682 0.000004
0.774897 0.043997 0.000000
0.790574 0.049096 0.000000
0.809311 0.049486 0.000000
0.826303 0.051269 0.000000
0.843859 0.053881 0.000000
0.855558 0.060571 0.000000
0.866188 0.065726 0.000000
0.872030 0.068616 0.000000
0.883953 0.076590 0.000000
0.894110 0.084722 0.000000
0.901449 0.090497 0.000000
0.909581 0.099169 0.000000
0.917690 0.105675 0.000000
0.918124 0.106079 0.000000
0.922865 0.114918 0.000000
0.930736 0.112515 0.000000
0.936891 0.101125 0.000105
0.954625 0.084461 0.000095
0.967467 0.082711 0.000000
0.983194 0.054523 0.000000
0.984626 0.055981 0.000000
0.987399 0.061401 0.000000
0.988994 0.065843 0.000000
0.990101 0.069331 0.000000
0.994567 0.076111 0.000000
0.994646 0.076326 0.000000
0.994712 0.076509 0.000000
0.996123 0.081917 0.000000
0.996159 0.082038 0.000000
0.996188 0.082141 0.000000
0.996218 0.082248 0.000000
0.038022 0.173638 0.037130
0.042218 0.166013 0.027850
0.039216 0.156863 0.019608
0.050980 0.156863 0.019608
0.062745 0.145098 0.007843
0.086275 0.141176 0.007843
0.101961 0.137255 0.003922
0.125490 0.133333 0.003922
0.155012 0.141024 0.011716
0.190910 0.146801 0.014506
0.220416 0.140280 0.010502
0.235294 0.133333 0.000000
0.263681 0.118893 0.015167
0.290128 0.113397 0.020211
0.315261 0.109495 0.023715
0.339389 0.109136 0.024898
0.356863 0.105882 0.023529
0.384314 0.094118 0.011765
0.407843 0.101961 0.011765
0.442862 0.101703 0.010964
0.479136 0.086210 0.006474
0.506630 0.080680 0.003448
0.536465 0.083980 0.001396
0.564303 0.087272 0.002901
0.586799 0.087853 0.003554
0.607161 0.091042 0.003688
0.643568 0.095342 0.005044
0.666146 0.092720 0.004026
0.680143 0.075678 0.001811
0.702908 0.059559 0.000857
0.715378 0.041699 0.000284
0.736992 0.044123 0.000031
0.756360 0.053204 0.000000
0.773006 0.055648 0.000000
0.788719 0.057749 0.000000
0.804713 0.055925 0.000000
0.823586 0.053601 0.000000
0.840971 0.055457 0.000000
0.852319 0.059737 0.000000
0.866859 0.068201 0.000000
0.873333 0.071018 0.000000
0.883472 0.076935 0.000000
0.893641 0.085517 0.000000
0.901405 0.090537 0.000000
0.907720 0.098044 0.000000
0.918192 0.115720 0.000000
0.918709 0.116828 0.000000
0.920239 0.119071 0.000000
0.930515 0.118688 0.000000
0.937099 0.108379 0.000000
0.956161 0.090306 0.000000
0.967332 0.083950 0.000000
0.980867 0.077436 0.000000
0.984612 0.055983 0.000000
0.987377 0.061384 0.000000
0.988984 0.065843 0.000000
0.990096 0.069336 0.000000
0.994568 0.076121 0.000000
0.994648 0.076338 0.000000
0.994715 0.076522 0.000000
0.996125 0.081930 0.000000
0.996161 0.082051 0.000000
0.996191 0.082154 0.000000
0.996221 0.082262 0.000000
0.034036 0.216145 0.052006
0.041752 0.204020 0.042923
0.052278 0.190258 0.031980
0.053595 0.182295 0.026292
0.054902 0.176471 0.015686
0.078431 0.160784 0.007843
0.101961 0.160784 0.007843
0.121569 0.152941 0.003922
0.146697 0.155583 0.007366
0.171862 0.159037 0.007218
0.208419 0.164956 0.007757
0.235101 0.159203 0.005916
0.262865 0.150132 0.010628
0.294964 0.141278 0.015773
0.319015 0.131594 0.017951
0.342980 0.126902 0.018914
0.363472 0.125966 0.024002
0.382684 0.126568 0.025277
0.403922 0.121569 0.015686
0.434176 0.118473 0.013968
0.468550 0.113143 0.012559
0.508105 0.099373 0.004817
0.531120 0.093663 0.001249
0.557628 0.099075 0.001177
0.583076 0.096793 0.001879
0.599351 0.099359 0.003777
0.627290 0.107648 0.008212
0.662601 0.111503 0.009785
0.683487 0.108571 0.008411
0.707289 0.110070 0.009037
0.720566 0.107790 0.008213
0.735141 0.090168 0.005083
0.753432 0.056466 0.000000
0.768246 0.062672 0.000000
0.782601 0.063436 0.000000
0.799127 0.064844 0.000000
0.818909 0.063070 0.000000
0.829279 0.060994 0.000000
0.849226 0.060276 0.000000
0.861819 0.066885 0.000000
0.871873 0.070479 0.000000
0.882712 0.078793 0.000000
0.893596 0.085612 0.000000
0.902090 0.102727 0.000000
0.910343 0.111552 0.000000
0.918374 0.117494 0.000000
0.918883 0.118530 0.000000
0.920398 0.120630 0.000000
0.930403 0.133113 0.000000
0.935776 0.132242 0.000000
0.954938 0.118926 0.000000
0.967159 0.085563 0.000000
0.979547 0.078222 0.000000
0.983659 0.084172 0.000000
0.987353 0.061365 0.000000
0.988972 0.065843 0.000000
0.990090 0.069344 0.000000
0.994569 0.076134 0.000000
0.994650 0.076352 0.000000
0.994718 0.076538 0.000000
0.996127 0.081945 0.000000
0.996164 0.082066 0.000000
0.996194 0.082170 0.000000
0.996224 0.082276 0.000000
0.013461 0.272511 0.055872
0.029110 0.252183 0.046266
0.042802 0.234060 0.039259
0.054413 0.216898 0.030212
0.054902 0.196078 0.007843
0.069609 0.199608 0.020013
0.090196 0.184314 0.003922
0.113725 0.176471 0.003922
0.137255 0.172549 0.003922
0.164706 0.172549 0.000000
0.192192 0.177973 0.004319
0.219608 0.168627 0.003922
0.252784 0.180012 0.002959
0.288528 0.178358 0.005248
0.313403 0.167587 0.010035
0.343998 0.150505 0.013205
0.370431 0.146099 0.013612
0.389661 0.146723 0.014780
0.413564 0.144009 0.022512
0.439216 0.129412 0.011765
0.461687 0.141840 0.019871
0.504415 0.134903 0.013834
0.529906 0.123080 0.006852
0.556381 0.111172 0.002268
0.580725 0.108466 0.000754
0.601698 0.110452 0.001369
0.628580 0.121991 0.006924
0.659811 0.126100 0.010397
0.685336 0.132616 0.015309
0.708944 0.129696 0.012333
0.723216 0.132960 0.014077
0.737815 0.132829 0.013207
0.747666 0.125236 0.011424
0.761553 0.088771 0.003185
0.777853 0.070833 0.000000
0.794861 0.069515 0.000000
0.809517 0.069512 0.000000
0.822636 0.066810 0.000000
0.844751 0.068152 0.000000
0.862127 0.068701 0.000000
0.870183 0.070920 0.000000
0.881872 0.079840 0.000000
0.895243 0.100277 0.000000
0.901049 0.105029 0.000000
0.909416 0.113620 0.000000
0.916573 0.132886 0.000000
0.920877 0.136579 0.000000
0.921295 0.137683 0.000000
0.928864 0.153375 0.000000
0.933424 0.152919 0.000000
0.953762 0.123574 0.000000
0.966021 0.112915 0.000000
0.977590 0.104001 0.000000
0.983459 0.085492 0.000000
0.983896 0.080950 0.000000
0.989876 0.070745 0.000000
0.990082 0.069353 0.000000
0.994570 0.076150 0.000000
0.994652 0.076369 0.000000
0.994721 0.076557 0.000000
0.996130 0.081962 0.000000
0.996167 0.082084 0.000000
0.996197 0.082187 0.000000
0.996228 0.082294 0.000000
0.008626 0.293032 0.057983
0.019766 0.280909 0.048210
0.036085 0.259529 0.036290
0.055607 0.240182 0.026059
0.065841 0.230131 0.018711
0.071533 0.225334 0.016989
0.086274 0.211765 0.003922
0.109804 0.203922 0.000000
0.133333 0.196078 0.003922
0.156863 0.192157 0.000000
0.180392 0.188235 0.000000
0.212023 0.194786 0.001252
0.235871 0.201450 0.001408
0.274256 0.203198 0.001689
0.307704 0.198103 0.004124
0.339009 0.185639 0.008416
0.376761 0.170960 0.009736
0.397219 0.164427 0.006942
0.416853 0.165167 0.009259
0.439497 0.165572 0.016194
0.461794 0.166845 0.022317
0.500531 0.162820 0.020104
0.521569 0.149020 0.000000
0.544355 0.144204 0.008685
0.584451 0.126867 0.003082
0.610502 0.124697 0.001479
0.628655 0.127514 0.003108
0.652949 0.133888 0.003513
0.686709 0.144248 0.009199
0.715170 0.146259 0.010311
0.724099 0.145201 0.012377
0.737055 0.143692 0.014083
0.747645 0.143076 0.014965
0.756567 0.140869 0.012512
0.769828 0.137952 0.012107
0.797431 0.107856 0.005173
0.805280 0.082978 0.000933
0.815849 0.071268 0.000000
0.842544 0.073444 0.000000
0.853601 0.075931 0.000000
0.866180 0.072078 0.000000
0.884399 0.096178 0.000000
0.896135 0.104739 0.000000
0.905479 0.127719 0.000000
0.914013 0.149511 0.000000
0.916728 0.153271 0.000000
0.923104 0.171207 0.000000
0.926965 0.174543 0.000000
0.929794 0.172922 0.000000
0.933478 0.171203 0.000000
0.951287 0.163573 0.000000
0.964445 0.136709 0.000000
0.977997 0.112302 0.000000
0.979827 0.107127 0.000000
0.983687 0.085720 0.000000
0.986434 0.087684 0.000000
0.990076 0.071089 0.000000
0.994574 0.078063 0.000000
0.994654 0.076390 0.000000
0.996087 0.081843 0.000000
0.996132 0.081984 0.000000
0.996170 0.082104 0.000000
0.996201 0.082208 0.000000
0.996231 0.082314 0.000000
0.017446 0.308130 0.048717
0.028619 0.297054 0.039606
0.043392 0.286563 0.029949
0.061584 0.269722 0.019204
0.070370 0.258347 0.015290
0.071203 0.250456 0.011575
0.074510 0.239216 0.003922
0.098211 0.236625 0.006148
0.125847 0.225179 0.004259
0.145098 0.211765 0.000000
0.172549 0.211765 0.000000
0.202144 0.211693 0.000389
0.227451 0.207843 0.000000
0.260213 0.221113 0.000184
0.290431 0.220835 0.000707
0.322067 0.222517 0.001865
0.366979 0.215817 0.003251
0.400577 0.198160 0.003918
0.418702 0.190252 0.004034
0.442958 0.190035 0.007110
0.464605 0.192059 0.011229
0.493765 0.192921 0.018008
0.520109 0.185105 0.017416
0.542945 0.181514 0.011737
0.576098 0.170585 0.008819
0.605195 0.143990 0.003047
0.626899 0.137415 0.002963
0.651385 0.145396 0.003364
0.672532 0.150089 0.003473
0.699437 0.162304 0.004566
0.717919 0.152757 0.004600
0.731632 0.149048 0.009451
0.743129 0.154385 0.016518
0.754779 0.156772 0.018205
0.767165 0.147681 0.011038
0.792953 0.160177 0.013015
0.813375 0.145447 0.010809
0.820757 0.135845 0.008998
0.837760 0.119485 0.006195
0.850043 0.098726 0.001480
0.863006 0.093961 0.000000
0.888473 0.117866 0.000000
0.905087 0.160363 0.000000
0.913142 0.168286 0.000000
0.916645 0.175216 0.000000
0.919630 0.178221 0.000000
0.924038 0.181138 0.000000
0.926465 0.182989 0.000000
0.931028 0.182247 0.000000
0.936276 0.178356 0.000000
0.952663 0.170032 0.000000
0.960739 0.161625 0.000000
0.970301 0.155520 0.000000
0.975477 0.133551 0.000000
0.980932 0.111004 0.000000
0.986221 0.089014 0.000000
0.990072 0.071150 0.000000
0.994579 0.078125 0.000000
0.994657 0.076414 0.000000
0.996090 0.081868 0.000000
0.996135 0.082009 0.000000
0.996173 0.082129 0.000000
0.996204 0.082231 0.000000
0.996235 0.082336 0.000000
0.027909 0.341539 0.049423
0.044389 0.315600 0.031141
0.058515 0.304101 0.021361
0.061673 0.298342 0.017013
0.065013 0.292453 0.013668
0.066764 0.280580 0.011541
0.072278 0.273960 0.008551
0.086274 0.262745 0.000000
0.121569 0.243137 0.000000
0.145098 0.235294 0.000000
0.164706 0.235294 0.000000
0.192157 0.231373 0.000000
0.219608 0.231373 0.000000
0.235294 0.235294 0.000000
0.273491 0.234946 0.000455
0.308791 0.237401 0.001265
0.356610 0.245547 0.001286
0.385625 0.239250 0.001304
0.419463 0.225604 0.001744
0.445567 0.219701 0.002080
0.467678 0.217074 0.003294
0.488437 0.212977 0.006229
0.516022 0.214589 0.011035
0.548185 0.205481 0.011456
0.570623 0.205584 0.008651
0.594182 0.184558 0.005587
0.618722 0.148548 0.001936
0.643480 0.157137 0.002692
0.666653 0.164049 0.003142
0.696502 0.175574 0.003558
0.716368 0.179563 0.002408
0.729028 0.184756 0.001973
0.741490 0.181848 0.000985
0.761197 0.186062 0.011840
0.773889 0.182712 0.012384
0.789316 0.178225 0.007807
0.809122 0.181738 0.012569
0.815123 0.190442 0.013706
0.827031 0.168412 0.012260
0.837684 0.162376 0.009914
0.870499 0.161728 0.001354
0.892815 0.170414 0.000000
0.909533 0.189737 0.000000
0.916475 0.197179 0.000000
0.920811 0.202192 0.000000
0.922072 0.205998 0.000000
0.926210 0.220148 0.000000
0.928198 0.221181 0.000000
0.931705 0.206853 0.000000
0.937556 0.203700 0.000000
0.949122 0.196433 0.000000
0.958537 0.187870 0.000000
0.967393 0.162518 0.000000
0.971379 0.158148 0.000000
0.976476 0.134930 0.000000
0.981087 0.111515 0.000000
0.988759 0.092897 0.000000
0.991167 0.095326 0.000000
0.996044 0.082735 0.000000
0.996092 0.081898 0.000000
0.996138 0.082037 0.000000
0.996177 0.082156 0.000000
0.996208 0.082257 0.000000
0.996239 0.082360 0.000000
0.037960 0.367232 0.050169
0.054308 0.342087 0.029219
0.062271 0.320523 0.015848
0.064875 0.315452 0.013158
0.068282 0.310526 0.009887
0.068920 0.305900 0.007842
0.069982 0.300250 0.005759
0.086274 0.286275 0.000000
0.101920 0.288534 0.002626
0.136413 0.274462 0.001249
0.156863 0.266667 0.000000
0.180392 0.254902 0.000000
0.207843 0.250980 0.000000
0.241897 0.254532 0.000230
0.266830 0.256258 0.000269
0.298635 0.268552 0.000475
0.328894 0.276013 0.000593
0.363626 0.271317 0.000634
0.412694 0.260069 0.000371
0.441941 0.247596 0.000545
0.467716 0.234772 0.000676
0.490571 0.237255 0.000841
0.512439 0.238907 0.002247
0.545297 0.239007 0.005831
0.581837 0.229317 0.006294
0.591843 0.223504 0.004994
0.613269 0.200583 0.002600
0.639504 0.180236 0.001138
0.660483 0.176928 0.001943
0.685010 0.187241 0.002508
0.708740 0.199905 0.002483
0.732028 0.209304 0.002154
0.743567 0.210524 0.001500
0.754544 0.209553 0.001596
0.772844 0.204583 0.003251
0.784626 0.210079 0.006257
0.800919 0.214925 0.006299
0.817091 0.210364 0.012307
0.820100 0.214431 0.011866
0.839338 0.217483 0.012880
0.872848 0.239741 0.008855
0.904546 0.263287 0.004558
0.922010 0.278200 0.002336
0.927759 0.285324 0.001846
0.929948 0.295197 0.000000
0.931813 0.304870 0.000000
0.933649 0.305568 0.000000
0.933155 0.296236 0.000000
0.933618 0.296997 0.000000
0.937413 0.291572 0.000000
0.943057 0.284896 0.000000
0.950441 0.244265 0.000000
0.963264 0.190299 0.000000
0.970109 0.166730 0.000000
0.972050 0.159830 0.000000
