backend/3dlut-creator/demo/VV2.cube
TITLE "3D LUT from Image Pairs"
LUT_3D_SIZE 8
0.019608 0.023529 0.023529
0.207843 0.011765 0.007843
0.439216 0.003922 0.003922
0.679729 0.012091 0.000060
0.831345 0.034831 0.000000
0.916609 0.102941 0.000000
0.986311 0.059411 0.000000
0.996207 0.082203 0.000000
0.013461 0.272511 0.055872
0.164706 0.172549 0.000000
0.413564 0.144009 0.022512
0.659811 0.126100 0.010397
0.809517 0.069512 0.000000
0.916573 0.132886 0.000000
0.983896 0.080950 0.000000
0.996228 0.082294 0.000000
0.003100 0.565095 0.080181
0.126126 0.440258 0.000000
0.360784 0.368627 0.000000
0.619994 0.360435 0.000000
0.784314 0.290196 0.000000
0.928793 0.367746 0.000000
0.933040 0.352224 0.000000
0.998107 0.097818 0.000000
0.148871 0.720135 0.159528
0.226655 0.688819 0.110725
0.330428 0.608760 0.007100
0.547646 0.572348 0.000000
0.727451 0.592248 0.000000
0.870273 0.534593 0.000000
0.924700 0.486131 0.000000
0.947479 0.421485 0.000000
0.249653 0.904099 0.404368
0.240224 0.889506 0.388037
0.501693 0.720101 0.047862
0.540978 0.712986 0.000057
0.677881 0.709629 0.000000
0.819537 0.724112 0.000000
0.910564 0.708489 0.000000
0.928529 0.641836 0.000000
0.418588 0.960427 0.430198
0.451314 0.960350 0.412841
0.486112 0.961067 0.407447
0.551672 0.932850 0.369251
0.704241 0.804918 0.013425
0.798005 0.813361 0.000000
0.900013 0.818357 0.000000
0.943199 0.813129 0.067157
0.500612 0.966412 0.414208
0.508859 0.965863 0.410968
0.513545 0.965909 0.410100
0.553205 0.965100 0.407898
0.606271 0.963917 0.410554
0.835432 0.880907 0.029386
0.873906 0.894345 0.024055
0.906194 0.881309 0.092506
0.513394 0.965632 0.411298
0.514117 0.965651 0.411185
0.536510 0.963598 0.408512
0.567277 0.963175 0.408680
0.606350 0.963213 0.414091
0.703784 0.947219 0.338838
0.872150 0.907344 0.086821
0.895052 0.915637 0.100733
0.074510 0.023529 0.250980
0.266798 0.073538 0.273349
0.432096 0.064934 0.184841
0.623529 0.043138 0.145098
0.793004 0.065057 0.085064
0.905313 0.079096 0.014350
0.972575 0.048867 0.031566
0.996952 0.089560 0.000989
0.016071 0.201353 0.225066
0.180392 0.176471 0.180392
0.392157 0.149020 0.145098
0.606744 0.132705 0.115721
0.772549 0.164706 0.109804
0.901961 0.074511 0.000000
0.976880 0.044822 0.000207
0.996362 0.082353 0.000000
0.000000 0.498039 0.172549
0.108287 0.446677 0.133110
0.352941 0.360784 0.066667
0.592157 0.337255 0.078431
0.764706 0.262745 0.050980
0.890478 0.274504 0.079048
0.967010 0.240770 0.018131
0.998182 0.101684 0.000740
0.012701 0.744606 0.198174
0.101460 0.678783 0.131997
0.288898 0.617634 0.039770
0.545098 0.560784 0.000000
0.725490 0.545098 0.000000
0.843031 0.528825 0.006021
0.925378 0.466261 0.000000
0.953182 0.419682 0.000000
0.206763 0.886708 0.396921
0.201659 0.868432 0.374580
0.381319 0.744570 0.180424
0.515222 0.713079 0.025772
0.674510 0.686275 0.000000
0.819608 0.690196 0.000000
0.915077 0.692626 0.000000
0.975561 0.636860 0.014099
0.365153 0.960390 0.451070
0.371616 0.961293 0.450199
0.423251 0.955901 0.416761
0.513943 0.948786 0.400181
0.670741 0.792436 0.042846
0.784314 0.800000 0.000000
0.905882 0.815686 0.000000
0.956172 0.821388 0.085393
0.468862 0.970968 0.427241
0.485613 0.968963 0.420216
0.508694 0.966136 0.410604
0.539063 0.965104 0.406146
0.601976 0.965597 0.407858
0.817030 0.879937 0.092155
0.878152 0.896969 0.025232
0.915544 0.886162 0.138358
0.512177 0.965761 0.411477
0.512940 0.965785 0.411358
0.515268 0.965858 0.411000
0.552445 0.964660 0.409989
0.605299 0.963644 0.413767
0.685327 0.955204 0.361958
0.874667 0.909537 0.090787
0.895313 0.916056 0.101933
0.027131 0.053186 0.560210
0.138341 0.062298 0.553465
0.462926 0.094787 0.421639
0.635206 0.101075 0.373278
0.775693 0.138900 0.366088
0.865856 0.132903 0.253300
0.948885 0.154993 0.240532
0.999201 0.181611 0.233447
0.019608 0.141176 0.454902
0.225111 0.154076 0.431418
0.382276 0.120112 0.409802
0.621167 0.125382 0.378046
0.764262 0.153554 0.337285
0.864045 0.190435 0.261279
0.945098 0.180393 0.223529
0.999938 0.184539 0.220134
0.016639 0.412612 0.455735
0.074510 0.419608 0.443137
0.376471 0.376471 0.376471
0.588235 0.337255 0.337255
0.741177 0.313726 0.305882
0.847059 0.305883 0.274510
0.943282 0.317445 0.235923
1.000000 0.146433 0.029876
0.013918 0.719372 0.360525
0.089780 0.698861 0.357226
0.290196 0.635294 0.305882
0.549020 0.556863 0.258823
0.705882 0.552941 0.262745
0.822040 0.538690 0.275784
0.933333 0.482353 0.156863
0.996186 0.431754 0.121750
0.131795 0.845963 0.376914
0.137397 0.840686 0.376777
0.247662 0.827868 0.397629
0.491923 0.722587 0.265012
0.674510 0.686275 0.200000
0.803921 0.686275 0.168627
0.901961 0.666667 0.184314
0.993020 0.652852 0.029105
0.286192 0.942582 0.468561
0.289296 0.944100 0.468457
0.316751 0.938222 0.459047
0.437971 0.924934 0.457415
0.650585 0.815477 0.254588
0.776471 0.796079 0.219608
0.894117 0.803922 0.180392
0.957392 0.802295 0.148619
0.409403 0.972055 0.458982
0.415841 0.972857 0.454880
0.436776 0.971637 0.442491
0.494950 0.966505 0.416335
0.562177 0.965265 0.400783
0.742902 0.919052 0.343974
0.882287 0.897694 0.213619
0.950974 0.880785 0.222527
0.475198 0.971122 0.431529
0.488996 0.969279 0.421478
0.500727 0.968901 0.417141
0.535183 0.965192 0.411169
0.601630 0.964983 0.413064
0.633050 0.967991 0.422996
0.858453 0.916810 0.159677
0.907027 0.924728 0.140637
0.009368 0.165309 0.838745
0.005517 0.148490 0.817555
0.074772 0.144799 0.803222
0.609910 0.188352 0.507123
0.735540 0.140143 0.428770
0.813064 0.166525 0.425993
0.925150 0.302132 0.438029
0.972726 0.283666 0.378505
0.000000 0.101961 0.729412
0.072905 0.127669 0.712854
0.306246 0.182159 0.625743
0.568805 0.222748 0.566683
0.710926 0.147259 0.439533
0.824629 0.192746 0.458111
0.927958 0.326621 0.450420
0.972717 0.286029 0.380468
0.047060 0.309804 0.674510
0.126332 0.335141 0.671457
0.400000 0.352941 0.635294
0.567379 0.329540 0.600265
0.713085 0.344430 0.552608
0.823771 0.405853 0.532643
0.925613 0.355075 0.457338
0.982115 0.327842 0.399190
0.078934 0.668816 0.671599
0.070588 0.650981 0.654902
0.305882 0.611765 0.615686
0.564706 0.564706 0.568628
0.701961 0.537255 0.533333
0.817210 0.517518 0.502544
0.905882 0.505882 0.490196
0.995138 0.484638 0.429124
0.234357 0.813384 0.546312
0.247549 0.811135 0.562158
0.323791 0.792324 0.562664
0.501961 0.741177 0.533333
0.678431 0.682353 0.490196
0.792157 0.678432 0.490196
0.883834 0.676989 0.489629
0.996078 0.592157 0.243137
0.276281 0.911755 0.505551
0.295330 0.912442 0.518442
0.344759 0.908481 0.545002
0.462869 0.879706 0.528358
0.629669 0.821140 0.493433
0.776471 0.788235 0.450980
0.878431 0.792157 0.443137
0.952941 0.803922 0.470588
0.351525 0.970816 0.517964
0.351735 0.971198 0.517861
0.365029 0.975618 0.524374
0.415665 0.980608 0.540703
0.551593 0.969111 0.555123
0.753809 0.900736 0.466901
0.878431 0.890196 0.423529
0.968627 0.898039 0.400000
0.434315 0.975805 0.453851
0.440847 0.976500 0.454716
0.443031 0.976539 0.453859
0.466940 0.973010 0.440278
0.556132 0.968720 0.421834
0.640654 0.968417 0.431665
0.773316 0.960276 0.448085
0.940207 0.949864 0.341587
0.044573 0.262971 0.921157
0.044456 0.262495 0.920920
0.040506 0.246571 0.911863
0.146233 0.230696 0.889306
0.685288 0.436883 0.756280
0.779491 0.295059 0.565295
0.913337 0.335673 0.495486
0.936035 0.336988 0.464543
0.029697 0.230855 0.902241
0.029790 0.230477 0.901798
0.027313 0.218504 0.893846
0.310833 0.253520 0.858806
0.684861 0.453939 0.769829
0.784116 0.329851 0.599679
0.912233 0.344098 0.503897
0.938545 0.345492 0.461647
0.152941 0.360784 0.843137
0.265834 0.374766 0.806649
0.390326 0.388229 0.788152
0.607078 0.451271 0.800183
0.704113 0.456654 0.766610
0.790856 0.463798 0.700022
0.910348 0.392324 0.545825
0.938605 0.374554 0.490643
0.000001 0.596078 0.862745
0.172549 0.572549 0.800000
0.345333 0.537623 0.771558
0.584314 0.533333 0.745098
0.700785 0.537508 0.761985
0.822486 0.536675 0.723946
0.904286 0.534375 0.643433
0.951055 0.475855 0.564391
0.165374 0.798434 0.776086
0.189342 0.788643 0.774118
0.298039 0.756863 0.772549
0.505882 0.721569 0.729412
0.690196 0.690196 0.690196
0.796078 0.678431 0.674510
0.901961 0.650981 0.635294
0.972549 0.650981 0.635294
0.347651 0.880534 0.647464
0.355623 0.879657 0.657974
0.404813 0.883478 0.685447
0.505882 0.858824 0.690196
0.641696 0.834833 0.669350
0.784314 0.788235 0.647059
0.878432 0.792157 0.647059
0.980392 0.768628 0.596078
0.407677 0.966901 0.625136
0.408014 0.966988 0.625690
0.423915 0.968982 0.639049
0.470377 0.974987 0.669677
0.577904 0.965982 0.673746
0.742244 0.920874 0.649756
0.874510 0.886275 0.615686
0.956863 0.894118 0.588235
0.387244 0.979166 0.547796
0.387427 0.979178 0.548000
0.394243 0.980823 0.551070
0.438180 0.982844 0.578056
0.503244 0.988881 0.610831
0.636427 0.985367 0.598535
0.790154 0.963363 0.542068
0.940353 0.943109 0.526629
0.096504 0.393925 0.977223
0.096451 0.393834 0.977204
0.096328 0.393567 0.977139
0.083782 0.372914 0.968678
0.170187 0.369226 0.956636
0.690542 0.477402 0.797781
0.797084 0.375152 0.633413
0.918592 0.354173 0.509003
0.095995 0.394225 0.977426
0.095917 0.394009 0.977371
0.095787 0.393467 0.977212
0.084023 0.386031 0.975545
0.232717 0.393745 0.961289
0.691222 0.477537 0.797632
0.801610 0.411896 0.663068
0.918753 0.355183 0.509673
0.015688 0.376471 0.992157
0.071242 0.384366 0.974924
0.076519 0.381881 0.972874
0.344850 0.413847 0.943288
0.637124 0.518286 0.848471
0.718063 0.478147 0.787051
0.799523 0.455397 0.700952
0.923468 0.395229 0.539717
0.214041 0.567296 0.935796
0.282353 0.564706 0.929412
0.415686 0.568628 0.901961
0.612748 0.577591 0.889702
0.715159 0.548925 0.854818
0.771694 0.516152 0.794978
0.814388 0.521481 0.742543
0.939371 0.503127 0.610753
0.011766 0.760784 0.952941
0.208274 0.739250 0.923823
0.339361 0.710874 0.893632
0.527052 0.677409 0.858536
0.703469 0.699350 0.834544
0.807843 0.674510 0.839216
0.888650 0.673701 0.812418
0.939259 0.624374 0.714788
0.316985 0.872547 0.854097
0.323682 0.873940 0.856648
0.365726 0.869269 0.863070
0.509804 0.839216 0.850980
0.650980 0.819608 0.831373
0.792157 0.792157 0.796078
0.890196 0.788235 0.784314
0.957515 0.762892 0.746267
0.462453 0.925394 0.701367
0.476049 0.926228 0.709914
0.483702 0.929162 0.718367
0.560310 0.946599 0.764195
0.611765 0.956863 0.803922
0.749020 0.925490 0.780392
0.882353 0.886275 0.760784
0.964706 0.878431 0.729412
0.446208 0.977780 0.655018
0.452950 0.979051 0.660103
0.474385 0.985190 0.668126
0.511565 0.990296 0.687697
0.550384 0.994024 0.705299
0.660615 0.993204 0.723538
0.819162 0.991724 0.678922
0.959586 0.964459 0.737650
0.181594 0.495086 0.995738
0.181559 0.495065 0.995738
0.162750 0.477362 0.992669
0.162669 0.477277 0.992657
0.151490 0.457427 0.990293
0.151409 0.457120 0.990220
0.706209 0.497302 0.811218
0.837539 0.428302 0.653996
0.181547 0.495257 0.995790
0.181500 0.495223 0.995789
0.181400 0.495136 0.995782
0.181308 0.495011 0.995762
0.162669 0.477331 0.992672
0.266881 0.497276 0.991022
0.706000 0.516401 0.828510
0.837368 0.428936 0.654642
0.199127 0.511763 0.997870
0.198895 0.511517 0.997855
0.187061 0.506435 0.997754
0.186892 0.505959 0.997684
0.237387 0.510799 0.996123
0.559995 0.540401 0.920958
0.715174 0.507523 0.814236
0.839124 0.451175 0.671010
0.384314 0.643137 1.000000
0.439216 0.623529 1.000000
0.498320 0.664107 0.998627
0.569675 0.628635 0.965918
0.631586 0.621329 0.940332
0.698047 0.565145 0.870215
0.752703 0.519554 0.804662
0.842916 0.552741 0.751111
0.027452 0.764706 0.988235
0.247362 0.761071 0.989697
0.424243 0.734084 0.985681
0.592157 0.733333 0.972549
0.727577 0.688052 0.916803
0.762730 0.661525 0.896005
0.822542 0.608865 0.823946
0.897360 0.648325 0.788476
0.047060 0.874510 0.992157
0.235294 0.870588 0.996078
0.258824 0.866667 0.960784
0.482353 0.847059 0.956863
0.670643 0.804501 0.937974
0.793574 0.798937 0.913561
0.891659 0.785402 0.912195
0.940850 0.723773 0.812157
0.307914 0.939632 0.973415
0.328923 0.942648 0.969001
0.365350 0.940532 0.958681
0.498635 0.923729 0.923323
0.621538 0.921525 0.924283
0.756863 0.909804 0.917647
0.886275 0.890196 0.890196
0.964706 0.882353 0.878431
0.548033 0.970555 0.747874
0.552644 0.971084 0.753420
0.561947 0.971837 0.760465
0.580963 0.973763 0.775033
0.624711 0.975366 0.797906
0.724572 0.981083 0.827105
0.831431 0.973827 0.853886
0.964294 0.974212 0.879912
0.201531 0.512138 0.997715
0.201535 0.512146 0.997716
0.201541 0.512160 0.997718
0.201543 0.512169 0.997719
0.201529 0.512151 0.997717
0.201496 0.512095 0.997709
0.253889 0.523454 0.997076
0.601250 0.531244 0.890763
0.216743 0.523793 0.998725
0.216737 0.523791 0.998725
0.216722 0.523784 0.998725
0.216693 0.523758 0.998724
0.216657 0.523704 0.998720
0.216627 0.523624 0.998713
0.297837 0.535525 0.994909
0.661596 0.530971 0.862276
0.232330 0.547294 1.000000
0.232283 0.547256 1.000000
0.232161 0.547159 1.000000
0.231970 0.547009 1.000000
0.231777 0.546860 1.000000
0.231638 0.546757 1.000000
0.444190 0.570851 0.976820
0.713961 0.530490 0.832034
0.333641 0.624870 1.000000
0.333514 0.624573 1.000000
0.317326 0.614214 1.000000
0.324416 0.612764 1.000000
0.368710 0.610311 0.998588
0.462055 0.608084 0.983744
0.666931 0.606529 0.913993
0.740168 0.556009 0.837507
0.386670 0.767211 1.000000
0.400003 0.770978 1.000000
0.443921 0.780266 1.000000
0.511660 0.779205 1.000000
0.579066 0.745855 0.995886
0.661256 0.654391 0.946268
0.719348 0.625765 0.903236
0.792679 0.582389 0.825070
0.273121 0.840343 0.999618
0.332662 0.835054 0.999552
0.450255 0.828937 0.999520
0.534171 0.830396 1.000000
0.659001 0.838984 1.000000
0.734391 0.830652 0.994892
0.830402 0.744394 0.920341
0.873546 0.696119 0.853611
0.120038 0.958187 0.999735
0.119154 0.958979 0.999725
0.152745 0.969978 0.999505
0.290196 0.984314 1.000000
0.476701 0.938101 0.996626
0.750978 0.910204 0.998256
0.897315 0.890598 0.978221
0.929893 0.855026 0.940815
0.345966 0.973282 0.991158
0.346896 0.973551 0.991257
0.353319 0.976927 0.992522
0.377662 0.986260 0.995424
0.486864 0.994196 0.997542
0.635327 0.999105 0.999441
0.817237 0.994632 0.995136
0.988235 0.988236 0.988235
