backend/lut_outputs/DSC04635.xmp
<?xpacket begin="" id="W5M0MpCehiHzreSzNTczkc9d"?>
<x:xmpmeta xmlns:x="adobe:ns:meta/" x:xmptk="Photo Manager XMP Generator">
 <rdf:RDF xmlns:rdf="http://www.w3.org/1999/02/22-rdf-syntax-ns#">
  <rdf:Description rdf:about=""
   xmlns:crs="http://ns.adobe.com/camera-raw-settings/1.0/"
   crs:Version="15.0"
   crs:ProcessVersion="15.4"
   crs:Temperature="5516"
   crs:Tint="0"
   crs:Exposure2012="0.25"
   crs:Contrast2012="-3"
   crs:Highlights2012="0"
   crs:Shadows2012="4"
   crs:Whites2012="0"
   crs:Blacks2012="0"
   crs:Texture="0"
   crs:Clarity="-1"
   crs:Dehaze="0"
   crs:Vibrance="4"
   crs:Saturation="7"
    crs:HueAdjustmentRed="0"
    crs:SaturationAdjustmentRed="7"
    crs:LuminanceAdjustmentRed="14"
    crs:HueAdjustmentOrange="0"
    crs:SaturationAdjustmentOrange="14"
    crs:LuminanceAdjustmentOrange="12"
    crs:HueAdjustmentYellow="0"
    crs:SaturationAdjustmentYellow="9"
    crs:LuminanceAdjustmentYellow="8"
    crs:HueAdjustmentGreen="1"
    crs:SaturationAdjustmentGreen="3"
    crs:LuminanceAdjustmentGreen="6"
    crs:HueAdjustmentAqua="0"
    crs:SaturationAdjustmentAqua="0"
    crs:LuminanceAdjustmentAqua="8"
    crs:HueAdjustmentBlue="0"
    crs:SaturationAdjustmentBlue="0"
    crs:LuminanceAdjustmentBlue="13"
    crs:HueAdjustmentPurple="0"
    crs:SaturationAdjustmentPurple="0"
    crs:LuminanceAdjustmentPurple="0"
    crs:HueAdjustmentMagenta="0"
    crs:SaturationAdjustmentMagenta="0"
    crs:LuminanceAdjustmentMagenta="0"
   crs:ColorGradeShadowsHue="6"
   crs:ColorGradeShadowsSat="-9"
   crs:ColorGradeMidtonesHue="0"
   crs:ColorGradeMidtonesSat="2"
   crs:ColorGradeHighlightsHue="0"
   crs:ColorGradeHighlightsSat="0"
   crs:RedPrimaryHue="7"
   crs:RedPrimarySat="5"
   crs:GreenPrimaryHue="0"
   crs:GreenPrimarySat="5"
   crs:BluePrimaryHue="0"
   crs:BluePrimarySat="5">
    <crs:ToneCurvePV2012>
     <rdf:Seq>
      <rdf:li>0.000000 0.000000</rdf:li>
      <rdf:li>0.043137 0.101961</rdf:li>
      <rdf:li>0.082353 0.188235</rdf:li>
      <rdf:li>0.227451 0.388235</rdf:li>
      <rdf:li>0.513726 0.654902</rdf:li>
      <rdf:li>0.839216 0.831373</rdf:li>
      <rdf:li>1.000000 1.000000</rdf:li>
     </rdf:Seq>
    </crs:ToneCurvePV2012>
  </rdf:Description>
 </rdf:RDF>
</x:xmpmeta>
<?xpacket end="w"?>