backend/lut_outputs/lut_76e4688c.cube
TITLE "Generated LUT"
LUT_3D_SIZE 5
DOMAIN_MIN 0.0 0.0 0.0
DOMAIN_MAX 1.0 1.0 1.0
0.122797 0.115053 0.104064
0.177528 0.148094 0.143556
0.152482 0.140505 0.160290
0.132508 0.154180 0.169659
0.579471 0.248730 0.256743
0.241216 0.285075 0.173259
0.264442 0.298327 0.150890
0.153069 0.126242 0.102529
0.100553 0.074108 0.062645
0.603486 0.247495 0.254030
0.064314 0.042876 0.029542
0.166516 0.222026 0.100465
0.219608 0.290196 0.123529
0.167507 0.108123 0.064986
0.135276 0.101254 0.078873
0.063399 0.042266 0.028105
0.086275 0.113725 0.072549
0.054902 0.062745 0.054902
0.750000 0.750000 0.000000
0.447059 0.249020 0.121569
0.000000 1.000000 0.000000
0.250000 1.000000 0.000000
0.500000 1.000000 0.000000
0.750000 1.000000 0.000000
1.000000 1.000000 0.000000
0.499085 0.459608 0.439739
0.262745 0.207843 0.172549
0.202941 0.198039 0.188235
0.135294 0.145425 0.155882
0.090196 0.082353 0.086275
0.676403 0.706018 0.706558
0.171288 0.167041 0.146950
0.161127 0.143775 0.141495
0.066667 0.109804 0.039216
0.682353 0.194118 0.143137
0.213725 0.252941 0.156863
0.136936 0.187693 0.090985
0.265179 0.302907 0.139419
0.232985 0.219477 0.198039
0.302696 0.199510 0.210662
0.078431 0.047059 0.035294
0.039216 0.058824 0.019608
0.187843 0.274510 0.102745
0.217647 0.307843 0.021569
0.186727 0.203620 0.218100
0.000000 1.000000 0.250000
0.250000 1.000000 0.250000
0.500000 1.000000 0.250000
0.750000 1.000000 0.250000
1.000000 1.000000 0.250000
0.047059 0.040523 0.040523
0.466667 0.466667 0.466667
0.023529 0.023529 0.023529
0.109804 0.078431 0.070588
0.070588 0.047059 0.035294
0.619505 0.627038 0.632921
0.198284 0.222304 0.187010
0.352941 0.407843 0.196078
0.278431 0.286275 0.254902
0.301961 0.364706 0.125490
0.224837 0.209150 0.179085
0.201136 0.259158 0.247193
0.281988 0.257940 0.227304
0.143850 0.175758 0.177718
0.293137 0.293137 0.296078
0.282353 0.391176 0.319608
0.082353 0.117647 0.098039
0.174524 0.236439 0.110720
0.368627 0.371569 0.219608
0.291877 0.246499 0.211485
0.000000 1.000000 0.500000
0.250000 1.000000 0.500000
0.500000 1.000000 0.500000
0.309804 0.407843 0.184314
0.470588 0.247059 0.101961
0.045752 0.043137 0.041830
0.250000 0.000000 0.750000
0.023529 0.023529 0.023529
0.750000 0.000000 0.750000
1.000000 0.000000 0.750000
0.041830 0.037908 0.033987
0.058824 0.125490 0.035294
0.019608 0.015686 0.011765
0.027451 0.023529 0.019608
0.109804 0.105882 0.098039
0.311826 0.348346 0.381556
0.658824 0.670588 0.673529
0.202941 0.182353 0.196078
0.321569 0.325490 0.341176
0.287582 0.290196 0.292810
0.239216 0.290196 0.262745
0.070588 0.078431 0.066667
0.269480 0.292924 0.269054
0.542839 0.541384 0.510541
1.000000 0.988235 0.976471
0.223529 0.172549 0.149020
0.250000 1.000000 0.750000
0.082353 0.125490 0.058824
0.074510 0.109804 0.031373
0.371242 0.267320 0.198366
0.000000 0.000000 1.000000
0.250000 0.000000 1.000000
0.500000 0.000000 1.000000
0.750000 0.000000 1.000000
1.000000 0.000000 1.000000
0.027332 0.022698 0.024955
0.019608 0.019608 0.019608
0.015686 0.015686 0.015686
0.023529 0.015686 0.019608
1.000000 0.250000 1.000000
0.023440 0.019251 0.020232
0.015686 0.019608 0.019608
0.027451 0.027451 0.027451
0.027451 0.019608 0.023529
1.000000 0.500000 1.000000
0.266667 0.270588 0.283660
0.266667 0.278431 0.288889
0.025490 0.019608 0.019608
0.521569 0.517647 0.580392
0.178431 0.196078 0.254902
0.000000 1.000000 1.000000
0.250000 1.000000 1.000000
0.054902 0.043137 0.019608
0.218627 0.214706 0.152941
0.302823 0.226452 0.190776
