backend/lut_outputs/lut_df49e895.cube
TITLE "Generated LUT"
LUT_3D_SIZE 9
DOMAIN_MIN 0.0 0.0 0.0
DOMAIN_MAX 1.0 1.0 1.0
0.071917 0.073932 0.059662
0.293333 0.258375 0.216583
0.123529 0.127451 0.149020
1.000000 0.384314 0.184314
1.000000 0.270588 0.023529
1.000000 0.435294 0.227451
1.000000 0.392157 0.200000
0.692157 0.000000 0.013725
0.996078 0.474510 0.254902
0.184314 0.201207 0.109804
0.233132 0.317781 0.100695
0.172483 0.173612 0.061216
0.218100 0.126998 0.065762
0.142484 0.139869 0.154248
0.000000 0.007843 0.003922
1.000000 0.470588 0.298039
0.203922 0.203922 0.196078
1.000000 0.035294 0.054902
0.152549 0.089020 0.061569
0.258955 0.387396 0.146412
0.350980 0.301961 0.241176
0.211765 0.160784 0.137255
0.029412 0.017892 0.007108
0.137255 0.133333 0.152941
0.000000 0.000000 0.000000
0.054902 0.054902 0.062745
1.000000 0.250000 0.000000
0.154902 0.088235 0.060784
0.298039 0.349020 0.074510
0.303209 0.445169 0.187558
0.139216 0.270588 0.062745
0.172549 0.133333 0.090196
0.000000 0.000000 0.000000
0.003922 0.000000 0.007843
0.054902 0.054902 0.062745
1.000000 0.375000 0.000000
0.000000 0.500000 0.000000
0.125000 0.500000 0.000000
0.222222 0.309804 0.001307
0.366013 0.469281 0.108497
0.154902 0.245098 0.121569
0.092157 0.082353 0.090196
0.058824 0.062745 0.078431
0.003922 0.000000 0.000000
1.000000 0.500000 0.000000
0.000000 0.625000 0.000000
0.125000 0.625000 0.000000
0.250000 0.625000 0.000000
0.375000 0.625000 0.000000
0.500000 0.625000 0.000000
0.625000 0.625000 0.000000
0.501961 0.345098 0.243137
0.498039 0.341176 0.239216
1.000000 0.625000 0.000000
0.000000 0.750000 0.000000
0.125000 0.750000 0.000000
0.250000 0.750000 0.000000
0.375000 0.750000 0.000000
0.500000 0.750000 0.000000
0.625000 0.750000 0.000000
0.750000 0.750000 0.000000
0.875000 0.750000 0.000000
1.000000 0.750000 0.000000
0.000000 0.875000 0.000000
0.125000 0.875000 0.000000
0.250000 0.875000 0.000000
0.375000 0.875000 0.000000
0.500000 0.875000 0.000000
0.625000 0.875000 0.000000
0.750000 0.875000 0.000000
0.875000 0.875000 0.000000
1.000000 0.875000 0.000000
0.000000 1.000000 0.000000
0.125000 1.000000 0.000000
0.250000 1.000000 0.000000
0.375000 1.000000 0.000000
0.500000 1.000000 0.000000
0.625000 1.000000 0.000000
0.750000 1.000000 0.000000
0.875000 1.000000 0.000000
1.000000 1.000000 0.000000
0.555147 0.646078 0.708946
0.678431 0.831373 0.760784
0.423529 0.000000 0.133333
0.045938 0.087395 0.148459
1.000000 0.329412 0.141176
0.996078 0.100654 0.095425
1.000000 0.272549 0.072549
0.996078 0.313726 0.105882
0.996078 1.000000 0.992157
0.436863 0.472157 0.472157
0.232628 0.239464 0.237285
0.300410 0.224322 0.165431
0.349020 0.193277 0.087955
1.000000 0.082353 0.101961
1.000000 0.329412 0.117647
1.000000 0.560784 0.341176
1.000000 0.282353 0.109804
1.000000 0.403922 0.160784
0.151634 0.087582 0.060131
0.266125 0.416914 0.201929
0.296758 0.338302 0.197261
0.280210 0.191974 0.123347
0.504953 0.374611 0.260441
0.105882 0.058824 0.027451
0.215686 0.239216 0.200000
1.000000 1.000000 1.000000
0.729412 0.027451 0.002941
0.156863 0.090196 0.062745
0.243137 0.416247 0.205042
0.261621 0.408511 0.143011
0.335113 0.396803 0.168234
0.201961 0.180392 0.194118
0.350327 0.249150 0.156078
0.027797 0.011765 0.006344
0.078431 0.086275 0.108235
1.000000 0.996078 0.988235
0.000000 0.500000 0.125000
0.125000 0.500000 0.125000
0.239216 0.423529 0.062745
0.257283 0.379692 0.120868
0.325490 0.305882 0.227451
0.388235 0.393464 0.416993
0.839216 0.666667 0.427451
0.090196 0.090196 0.118954
0.132680 0.164706 0.206536
0.000000 0.625000 0.125000
0.125000 0.625000 0.125000
0.250000 0.625000 0.125000
0.195098 0.270588 0.016667
0.137255 0.266667 0.000000
0.121569 0.134641 0.139869
0.243137 0.225490 0.200000
0.003922 0.003922 0.011765
0.000000 0.000000 0.000000
0.000000 0.750000 0.125000
0.125000 0.750000 0.125000
0.250000 0.750000 0.125000
0.375000 0.750000 0.125000
0.500000 0.750000 0.125000
0.625000 0.750000 0.125000
0.750000 0.750000 0.125000
0.000000 0.000000 0.000000
0.000000 0.000000 0.000000
0.000000 0.875000 0.125000
0.125000 0.875000 0.125000
0.250000 0.875000 0.125000
0.375000 0.875000 0.125000
0.500000 0.875000 0.125000
0.625000 0.875000 0.125000
0.750000 0.875000 0.125000
0.875000 0.875000 0.125000
1.000000 0.875000 0.125000
0.000000 1.000000 0.125000
0.125000 1.000000 0.125000
0.250000 1.000000 0.125000
0.375000 1.000000 0.125000
0.500000 1.000000 0.125000
0.625000 1.000000 0.125000
0.750000 1.000000 0.125000
0.875000 1.000000 0.125000
1.000000 1.000000 0.125000
0.182353 0.150980 0.131373
0.439216 0.445098 0.454902
0.000000 0.003922 0.000000
0.471569 0.153922 0.252941
0.886275 0.000000 0.384314
0.215686 0.129412 0.137255
1.000000 0.376471 0.164706
0.223529 0.227451 0.247059
0.609804 0.611765 0.615686
0.149020 0.113725 0.094118
0.365621 0.464052 0.558039
0.322794 0.238480 0.266258
0.186275 0.253431 0.330882
0.535143 0.141478 0.304374
0.286275 0.247059 0.282353
0.996078 0.000000 0.007843
0.203922 0.121569 0.141176
0.211765 0.215686 0.235294
0.060392 0.033725 0.054902
0.295523 0.369071 0.366852
0.320608 0.334253 0.342791
0.380561 0.290185 0.298377
0.222926 0.258824 0.294118
0.250980 0.266667 0.307843
0.996078 0.996078 0.996078
1.000000 0.529412 0.423529
0.821418 0.432278 0.343288
0.266667 0.141176 0.184314
0.000000 0.588235 0.411765
0.271635 0.403272 0.189789
0.359979 0.391404 0.269195
0.594253 0.460054 0.338107
0.265938 0.224594 0.191317
0.212478 0.241310 0.281417
0.431373 0.460131 0.503268
0.996078 0.998039 0.998039
0.000000 0.500000 0.250000
0.064052 0.598693 0.457516
0.434510 0.554248 0.299346
0.221320 0.349169 0.112609
0.315444 0.375130 0.139991
0.261438 0.349020 0.149020
0.225200 0.212636 0.154248
0.212484 0.237843 0.274771
0.247059 0.262745 0.305882
0.000000 0.625000 0.250000
0.125000 0.625000 0.250000
0.250000 0.625000 0.250000
0.000000 0.000000 0.000000
0.380392 0.580392 0.168627
0.407843 0.396078 0.266667
0.086275 0.047059 0.039216
0.396078 0.270588 0.156863
0.000000 0.000000 0.000000
0.000000 0.750000 0.250000
0.125000 0.750000 0.250000
0.250000 0.750000 0.250000
0.375000 0.750000 0.250000
0.500000 0.750000 0.250000
0.625000 0.750000 0.250000
0.862745 0.745098 0.549020
0.509804 0.352941 0.250980
0.388235 0.341176 0.278431
0.000000 0.875000 0.250000
0.125000 0.875000 0.250000
0.250000 0.875000 0.250000
0.375000 0.875000 0.250000
0.500000 0.875000 0.250000
0.625000 0.875000 0.250000
0.750000 0.875000 0.250000
0.505882 0.349020 0.247059
0.272549 0.280392 0.329412
0.000000 1.000000 0.250000
0.125000 1.000000 0.250000
0.250000 1.000000 0.250000
0.375000 1.000000 0.250000
0.500000 1.000000 0.250000
0.625000 1.000000 0.250000
0.750000 1.000000 0.250000
0.875000 1.000000 0.250000
1.000000 1.000000 0.250000
0.192157 0.123529 0.115686
0.188235 0.152941 0.133333
0.000000 0.000000 0.000000
0.301961 0.308497 0.324183
0.339869 0.341176 0.346405
0.625000 0.000000 0.375000
0.750000 0.000000 0.375000
0.875000 0.000000 0.375000
1.000000 0.000000 0.375000
0.192157 0.121569 0.113725
0.078431 0.069281 0.056209
0.000000 0.000000 0.000000
0.192157 0.556863 0.725490
0.258824 0.296732 0.307190
0.278431 0.274510 0.258824
0.227451 0.227451 0.258824
0.207843 0.219608 0.247059
0.186275 0.205882 0.219608
0.168627 0.093137 0.099020
0.227451 0.105882 0.129412
0.430166 0.493715 0.581498
0.007843 0.007843 0.000000
0.160784 0.190196 0.256863
0.031373 0.011765 0.000000
1.000000 1.000000 1.000000
0.243137 0.243137 0.243137
0.233333 0.188235 0.192157
0.243137 0.156863 0.207843
0.488235 0.356209 0.379085
0.234314 0.439338 0.439216
0.354773 0.382847 0.399968
0.401324 0.297059 0.308186
0.401961 0.252941 0.166667
0.454902 0.462745 0.419608
1.000000 1.000000 1.000000
0.726203 0.361497 0.264171
0.000000 0.500000 0.375000
0.005882 0.627451 0.539216
0.215686 0.634858 0.549020
0.284220 0.449300 0.140336
0.401026 0.441231 0.329490
0.404105 0.356127 0.296875
0.408014 0.311168 0.206479
0.092157 0.036275 0.002941
0.996078 1.000000 1.000000
0.000000 0.625000 0.375000
0.125000 0.625000 0.375000
0.276471 0.662745 0.601961
0.286202 0.397967 0.179085
0.367373 0.504941 0.216314
0.249673 0.300654 0.135948
0.293333 0.232549 0.177255
0.314072 0.260842 0.218685
0.231988 0.221299 0.215225
0.000000 0.750000 0.375000
0.125000 0.750000 0.375000
0.250000 0.750000 0.375000
0.375000 0.750000 0.375000
0.211765 0.494118 0.000000
0.269608 0.350980 0.111765
0.117647 0.125490 0.174510
0.271895 0.236601 0.235294
0.177778 0.197215 0.219835
0.000000 0.875000 0.375000
0.125000 0.875000 0.375000
0.250000 0.875000 0.375000
0.375000 0.875000 0.375000
0.500000 0.875000 0.375000
0.625000 0.875000 0.375000
0.111765 0.117647 0.139216
0.149020 0.168627 0.243137
0.000000 0.000000 0.000000
0.000000 1.000000 0.375000
0.125000 1.000000 0.375000
0.250000 1.000000 0.375000
0.375000 1.000000 0.375000
0.500000 1.000000 0.375000
0.625000 1.000000 0.375000
0.750000 1.000000 0.375000
0.875000 1.000000 0.375000
0.250980 0.282353 0.333333
0.164706 0.121569 0.101961
0.172549 0.098039 0.043137
0.250000 0.000000 0.500000
0.375000 0.000000 0.500000
0.500000 0.000000 0.500000
0.625000 0.000000 0.500000
0.750000 0.000000 0.500000
0.875000 0.000000 0.500000
1.000000 0.000000 0.500000
0.000000 0.000000 0.007843
0.000000 0.000000 0.000000
0.007843 0.007843 0.007843
0.000000 0.000000 0.000000
0.184314 0.325490 0.427451
0.184314 0.325490 0.427451
0.750000 0.125000 0.500000
0.875000 0.125000 0.500000
1.000000 0.125000 0.500000
0.050980 0.015686 0.000000
0.109804 0.103922 0.096078
0.027451 0.011765 0.000000
0.015686 0.011765 0.000000
0.243137 0.352941 0.447059
0.203922 0.230065 0.309804
0.000000 0.000000 0.000000
0.227451 0.227451 0.219608
0.215686 0.227451 0.262745
0.200000 0.082353 0.090196
0.239216 0.162745 0.149020
0.529412 0.666667 0.815686
0.352661 0.347339 0.328571
0.552941 0.607843 0.731373
0.000000 0.000000 0.000000
0.273203 0.343791 0.239216
0.498039 0.000000 0.027451
1.000000 0.996078 0.998039
0.000000 0.500000 0.500000
0.252941 0.139216 0.209804
0.000000 0.650980 0.737255
0.189325 0.338780 0.321569
0.490724 0.520758 0.563776
0.274923 0.220433 0.252632
0.662745 0.286275 0.000000
1.000000 1.000000 0.964706
0.996078 1.000000 1.000000
0.000000 0.625000 0.500000
0.125000 0.625000 0.500000
0.427451 0.584314 0.552941
0.984314 1.000000 0.996078
0.327451 0.472418 0.285882
0.417793 0.476763 0.326046
0.562142 0.428959 0.304374
0.549673 0.449673 0.353595
1.000000 1.000000 1.000000
0.000000 0.750000 0.500000
0.125000 0.750000 0.500000
0.250000 0.750000 0.500000
0.375000 0.750000 0.500000
0.192157 0.309804 0.058824
0.313726 0.352941 0.349020
0.231373 0.350980 0.060784
0.419190 0.328732 0.249935
0.309930 0.238330 0.178937
0.000000 0.875000 0.500000
0.125000 0.875000 0.500000
0.250000 0.875000 0.500000
0.375000 0.875000 0.500000
0.500000 0.875000 0.500000
0.625000 0.875000 0.500000
0.462514 0.377855 0.279815
0.890196 0.717647 0.470588
0.204464 0.206216 0.217240
0.000000 1.000000 0.500000
0.125000 1.000000 0.500000
0.250000 1.000000 0.500000
0.375000 1.000000 0.500000
0.500000 1.000000 0.500000
0.625000 1.000000 0.500000
0.750000 1.000000 0.500000
0.205704 0.181462 0.146881
0.180392 0.215686 0.243137
0.000000 0.000000 0.625000
0.125000 0.000000 0.625000
0.250000 0.000000 0.625000
0.375000 0.000000 0.625000
0.500000 0.000000 0.625000
0.625000 0.000000 0.625000
0.750000 0.000000 0.625000
0.875000 0.000000 0.625000
1.000000 0.000000 0.625000
0.070588 0.035294 0.000000
0.113725 0.074510 0.027451
0.000000 0.000000 0.000000
0.001961 0.000000 0.000000
0.500000 0.125000 0.625000
0.625000 0.125000 0.625000
0.750000 0.125000 0.625000
0.875000 0.125000 0.625000
1.000000 0.125000 0.625000
0.086275 0.039216 0.039216
0.009804 0.005882 0.007843
0.000000 0.000000 0.000000
0.000000 0.000000 0.000000
0.500000 0.250000 0.625000
0.625000 0.250000 0.625000
0.750000 0.250000 0.625000
0.875000 0.250000 0.625000
1.000000 0.250000 0.625000
0.023529 0.007843 0.000000
0.007843 0.000000 0.011765
0.086928 0.058824 0.035294
0.396078 0.290196 0.172549
0.258824 0.172549 0.082353
0.000000 0.000000 0.000000
0.396078 0.431373 0.356863
0.875000 0.375000 0.625000
0.690196 0.000000 0.025490
0.000000 0.500000 0.625000
0.365826 0.207283 0.196078
0.284967 0.185621 0.171242
0.522876 0.664052 0.811765
0.543978 0.665546 0.773109
0.644706 0.749804 0.858039
0.533333 0.698039 0.886275
1.000000 0.466667 0.019608
0.996078 0.170588 0.084314
0.000000 0.625000 0.625000
0.125000 0.625000 0.625000
0.372549 0.236601 0.207843
0.001307 0.708497 0.836601
0.369363 0.568873 0.554657
0.567481 0.586429 0.620959
0.508497 0.440523 0.453595
0.420915 0.392157 0.400000
0.996078 0.996078 0.996078
0.000000 0.750000 0.625000
0.125000 0.750000 0.625000
0.250000 0.750000 0.625000
0.196078 0.192157 0.184314
0.996078 0.996078 0.988235
0.460784 0.599346 0.490196
0.382353 0.434469 0.347781
0.330719 0.320261 0.274510
1.000000 1.000000 1.000000
0.000000 0.875000 0.625000
0.125000 0.875000 0.625000
0.250000 0.875000 0.625000
0.375000 0.875000 0.625000
0.500000 0.875000 0.625000
0.113725 0.235294 0.000000
0.394118 0.460784 0.362745
0.935948 0.848366 0.695425
0.304606 0.239657 0.184135
0.000000 1.000000 0.625000
0.125000 1.000000 0.625000
0.250000 1.000000 0.625000
0.375000 1.000000 0.625000
0.500000 1.000000 0.625000
0.625000 1.000000 0.625000
0.750000 1.000000 0.625000
0.003922 0.003922 0.000000
0.270588 0.297168 0.334205
0.000000 0.000000 0.750000
0.125000 0.000000 0.750000
0.250000 0.000000 0.750000
0.375000 0.000000 0.750000
0.500000 0.000000 0.750000
0.625000 0.000000 0.750000
0.750000 0.000000 0.750000
0.875000 0.000000 0.750000
1.000000 0.000000 0.750000
0.036601 0.019608 0.000000
0.027451 0.011765 0.000000
0.101961 0.074510 0.035294
0.375000 0.125000 0.750000
0.500000 0.125000 0.750000
0.625000 0.125000 0.750000
0.750000 0.125000 0.750000
0.875000 0.125000 0.750000
1.000000 0.125000 0.750000
0.036601 0.019608 0.000000
0.041176 0.029412 0.019608
0.027451 0.007843 0.000000
0.027451 0.007843 0.000000
0.500000 0.250000 0.750000
0.625000 0.250000 0.750000
0.750000 0.250000 0.750000
0.875000 0.250000 0.750000
1.000000 0.250000 0.750000
0.003922 0.000000 0.000000
0.003922 0.000000 0.000000
0.029412 0.013725 0.000000
0.043137 0.011765 0.000000
0.137255 0.070588 0.007843
0.625000 0.375000 0.750000
0.750000 0.375000 0.750000
0.875000 0.375000 0.750000
1.000000 0.375000 0.750000
0.000000 0.000000 0.000000
0.003922 0.000000 0.000000
0.000000 0.000000 0.000000
0.141176 0.082353 0.007843
0.266667 0.215686 0.152941
0.556863 0.690196 0.796078
0.514706 0.556863 0.618627
0.875000 0.500000 0.750000
1.000000 0.500000 0.750000
0.000000 0.625000 0.750000
0.125000 0.625000 0.750000
0.301961 0.179085 0.151634
0.019608 0.003922 0.007843
0.007843 0.007843 0.007843
0.570242 0.670358 0.814072
0.513726 0.537255 0.609804
0.362745 0.303922 0.272549
1.000000 1.000000 1.000000
0.000000 0.750000 0.750000
0.125000 0.750000 0.750000
0.250000 0.750000 0.750000
0.133333 0.184314 0.155556
0.211765 0.239216 0.209804
0.501261 0.645378 0.767367
0.357251 0.422296 0.421668
0.125490 0.074510 0.050980
1.000000 1.000000 1.000000
0.000000 0.875000 0.750000
0.125000 0.875000 0.750000
0.250000 0.875000 0.750000
0.375000 0.875000 0.750000
0.500000 0.875000 0.750000
0.384874 0.531653 0.440336
0.090196 0.207843 0.011765
0.590196 0.521569 0.490196
0.213943 0.171678 0.138998
0.000000 1.000000 0.750000
0.125000 1.000000 0.750000
0.250000 1.000000 0.750000
0.375000 1.000000 0.750000
0.500000 1.000000 0.750000
0.625000 1.000000 0.750000
0.750000 1.000000 0.750000
0.290196 0.141176 0.058824
0.248960 0.253007 0.262752
0.000000 0.000000 0.875000
0.125000 0.000000 0.875000
0.250000 0.000000 0.875000
0.375000 0.000000 0.875000
0.500000 0.000000 0.875000
0.625000 0.000000 0.875000
0.750000 0.000000 0.875000
0.875000 0.000000 0.875000
1.000000 0.000000 0.875000
0.000000 0.000000 0.000000
0.027451 0.011765 0.000000
0.250000 0.125000 0.875000
0.375000 0.125000 0.875000
0.500000 0.125000 0.875000
0.625000 0.125000 0.875000
0.750000 0.125000 0.875000
0.875000 0.125000 0.875000
1.000000 0.125000 0.875000
0.000000 0.001961 0.000000
0.003922 0.003922 0.000000
0.027451 0.011765 0.000000
0.375000 0.250000 0.875000
0.500000 0.250000 0.875000
0.625000 0.250000 0.875000
0.750000 0.250000 0.875000
0.875000 0.250000 0.875000
1.000000 0.250000 0.875000
0.000000 0.000000 0.000000
0.000000 0.000000 0.000000
0.015686 0.011765 0.003922
0.023529 0.007843 0.003922
0.062745 0.035294 0.011765
0.625000 0.375000 0.875000
0.750000 0.375000 0.875000
0.875000 0.375000 0.875000
1.000000 0.375000 0.875000
0.000000 0.000000 0.000000
0.027451 0.011765 0.000000
0.027451 0.011765 0.000000
0.000000 0.000000 0.000000
0.007843 0.000000 0.003922
0.215686 0.149020 0.078431
0.750000 0.500000 0.875000
0.875000 0.500000 0.875000
1.000000 0.500000 0.875000
0.000000 0.625000 0.875000
0.125000 0.625000 0.875000
0.003922 0.003922 0.003922
0.007843 0.000000 0.003922
0.015686 0.003922 0.000000
0.105882 0.050980 0.007843
0.619608 0.705882 0.890196
0.875000 0.625000 0.875000
1.000000 0.625000 0.875000
0.000000 0.750000 0.875000
0.125000 0.750000 0.875000
0.250000 0.750000 0.875000
0.003922 0.003922 0.003922
0.003922 0.003922 0.003922
0.600000 0.705882 0.823529
0.631373 0.725490 0.913725
0.571242 0.670443 0.773275
0.176471 0.129412 0.137255
0.000000 0.875000 0.875000
0.125000 0.875000 0.875000
0.250000 0.875000 0.875000
0.375000 0.875000 0.875000
0.500000 0.875000 0.875000
0.608170 0.710131 0.829739
0.618301 0.716340 0.841830
0.736107 0.818605 0.904762
0.988235 0.498039 0.000000
0.000000 1.000000 0.875000
0.125000 1.000000 0.875000
0.250000 1.000000 0.875000
0.375000 1.000000 0.875000
0.500000 1.000000 0.875000
0.625000 1.000000 0.875000
0.749162 0.835437 0.928342
0.431373 0.290196 0.196078
0.267215 0.199148 0.150190
0.000000 0.000000 1.000000
0.125000 0.000000 1.000000
0.250000 0.000000 1.000000
0.375000 0.000000 1.000000
0.500000 0.000000 1.000000
0.625000 0.000000 1.000000
0.750000 0.000000 1.000000
0.875000 0.000000 1.000000
1.000000 0.000000 1.000000
0.000000 0.125000 1.000000
0.125000 0.125000 1.000000
0.250000 0.125000 1.000000
0.375000 0.125000 1.000000
0.500000 0.125000 1.000000
0.625000 0.125000 1.000000
0.750000 0.125000 1.000000
0.875000 0.125000 1.000000
1.000000 0.125000 1.000000
0.000000 0.250000 1.000000
0.003922 0.000000 0.000000
0.003922 0.000000 0.000000
0.375000 0.250000 1.000000
0.500000 0.250000 1.000000
0.625000 0.250000 1.000000
0.750000 0.250000 1.000000
0.875000 0.250000 1.000000
1.000000 0.250000 1.000000
0.000000 0.000000 0.000000
0.003922 0.000000 0.000000
0.003922 0.000000 0.000000
0.015686 0.011765 0.003922
0.500000 0.375000 1.000000
0.625000 0.375000 1.000000
0.750000 0.375000 1.000000
0.875000 0.375000 1.000000
1.000000 0.375000 1.000000
0.000000 0.000000 0.000000
0.000000 0.000000 0.000000
0.015686 0.000000 0.000000
0.109804 0.062745 0.015686
0.000000 0.000000 0.000000
0.625000 0.500000 1.000000
0.750000 0.500000 1.000000
0.875000 0.500000 1.000000
1.000000 0.500000 1.000000
0.000000 0.625000 1.000000
0.125000 0.625000 1.000000
0.109804 0.062745 0.015686
0.031373 0.027451 0.019608
0.000000 0.000000 0.000000
0.058824 0.031373 0.007843
0.750000 0.625000 1.000000
0.875000 0.625000 1.000000
1.000000 0.625000 1.000000
0.000000 0.750000 1.000000
0.125000 0.750000 1.000000
0.250000 0.750000 1.000000
0.375000 0.750000 1.000000
0.000000 0.000000 0.000000
0.058824 0.031373 0.007843
0.890196 0.937255 1.000000
0.582353 0.676471 0.843137
1.000000 0.750000 1.000000
0.000000 0.875000 1.000000
0.125000 0.875000 1.000000
0.250000 0.875000 1.000000
0.375000 0.875000 1.000000
0.500000 0.875000 1.000000
0.625000 0.875000 1.000000
0.850980 0.898039 0.992157
0.752861 0.841136 0.934294
0.211765 0.152381 0.121008
0.000000 1.000000 1.000000
0.125000 1.000000 1.000000
0.250000 1.000000 1.000000
0.375000 1.000000 1.000000
0.500000 1.000000 1.000000
0.625000 1.000000 1.000000
0.759220 0.844681 0.937589
0.996078 1.000000 0.992157
0.343072 0.264441 0.221146
