backend/lut_outputs/lut_dsc04635.cube
TITLE "DSC04635"
LUT_3D_SIZE 5
0.082208 0.079158 0.121672
0.388867 0.065586 0.021117
0.504338 0.121692 0.045428
0.708478 0.088513 0.062934
0.938856 0.280110 0.174181
0.281033 0.442529 0.089525
0.375981 0.409512 0.036194
0.711376 0.398912 0.059242
0.807146 0.405290 0.168512
0.959623 0.302781 0.183084
0.557069 0.677444 0.166983
0.604794 0.700132 0.187050
0.662996 0.687538 0.137484
0.868511 0.573717 0.179557
0.979754 0.623949 0.286279
0.749331 0.802195 0.454066
0.753976 0.799441 0.442385
0.811501 0.789473 0.433441
0.956635 0.757243 0.362142
0.988827 0.762729 0.317280
0.998448 0.896521 0.585851
0.998382 0.897979 0.589012
0.998190 0.901444 0.593784
0.997989 0.907157 0.617538
0.997941 0.916876 0.658134
0.001560 0.124900 0.427880
0.382194 0.128475 0.296654
0.648905 0.102585 0.229565
0.832338 0.161165 0.131144
0.955342 0.269861 0.177457
0.121164 0.403355 0.452555
0.379698 0.379379 0.376910
0.722155 0.383375 0.314560
0.969981 0.345759 0.237899
0.977627 0.328345 0.197343
0.554771 0.691737 0.333313
0.593388 0.712951 0.348487
0.678285 0.655903 0.200447
0.882420 0.591617 0.256537
0.984281 0.613263 0.307338
0.750503 0.805686 0.463247
0.752974 0.800072 0.457124
0.795588 0.794609 0.469138
0.963401 0.794014 0.432085
0.990552 0.764046 0.316501
0.998194 0.900643 0.599322
0.998268 0.901603 0.600343
0.998195 0.904598 0.606288
0.998017 0.910788 0.630735
0.998120 0.923699 0.683525
0.000564 0.254039 0.674519
0.208214 0.290283 0.735882
0.680629 0.202404 0.388235
0.891847 0.296800 0.336658
0.979395 0.298048 0.222447
0.070334 0.402958 0.756998
0.249495 0.364177 0.730595
0.796643 0.364966 0.508454
0.934626 0.391044 0.398764
0.988118 0.342366 0.243736
0.271629 0.642512 0.647374
0.289362 0.629931 0.639582
0.640970 0.638354 0.636819
0.909361 0.635036 0.487078
0.990513 0.652126 0.448191
0.683004 0.797849 0.599784
0.720664 0.797652 0.557570
0.773886 0.795988 0.536627
0.955806 0.857264 0.611830
0.985404 0.798066 0.406820
0.973003 0.901952 0.640457
0.989672 0.909118 0.648791
0.998256 0.915437 0.656821
0.998200 0.925405 0.689226
0.997914 0.933879 0.724540
0.000000 0.352958 0.850905
0.066161 0.359569 0.861395
0.378708 0.401215 0.874607
0.873219 0.443413 0.562787
0.988935 0.339024 0.251740
0.000003 0.370633 0.865490
0.050333 0.391257 0.891631
0.344193 0.461282 0.898146
0.871279 0.512944 0.620019
0.991582 0.383426 0.276446
0.239758 0.618023 0.907337
0.280372 0.634946 0.904393
0.526553 0.644606 0.894503
0.756564 0.678784 0.745135
0.941124 0.605777 0.444879
0.509303 0.795546 0.827191
0.540318 0.802339 0.827356
0.679062 0.824835 0.826223
0.812546 0.813339 0.795537
0.959178 0.721330 0.543602
0.886034 0.895357 0.796844
0.896857 0.897839 0.791242
0.973229 0.923355 0.773123
0.997074 0.943114 0.798892
0.997702 0.956114 0.841488
0.000812 0.399560 0.919186
0.000931 0.410175 0.931864
0.104294 0.449453 0.946695
0.384735 0.541590 0.938554
0.964386 0.441743 0.395277
0.000598 0.431887 0.947723
0.018446 0.442295 0.958226
0.157589 0.474045 0.948532
0.453889 0.611255 0.966278
0.890409 0.565897 0.581477
0.286459 0.594389 0.970861
0.368529 0.625851 0.979027
0.460651 0.667972 0.982895
0.574776 0.725231 0.984575
0.846349 0.771725 0.800739
0.569740 0.784974 0.923681
0.600647 0.779212 0.929343
0.708797 0.795334 0.907978
0.831159 0.869481 0.944368
0.891908 0.841736 0.822031
0.859982 0.895483 0.927869
0.861778 0.896447 0.931211
0.884534 0.907003 0.927034
0.979053 0.962056 0.932189
0.998279 0.987188 0.962402
