backend/lut_outputs/lut_df49e895.cube
TITLE "Generated LUT"
LUT_3D_SIZE 5
DOMAIN_MIN 0.0 0.0 0.0
DOMAIN_MAX 1.0 1.0 1.0
0.071917 0.073932 0.059662
0.123529 0.127451 0.149020
1.000000 0.270588 0.023529
1.000000 0.392157 0.200000
0.996078 0.474510 0.254902
0.152549 0.089020 0.061569
0.350980 0.301961 0.241176
0.029412 0.017892 0.007108
0.000000 0.000000 0.000000
1.000000 0.250000 0.000000
0.000000 0.500000 0.000000
0.222222 0.309804 0.001307
0.154902 0.245098 0.121569
0.058824 0.062745 0.078431
1.000000 0.500000 0.000000
0.000000 0.750000 0.000000
0.250000 0.750000 0.000000
0.500000 0.750000 0.000000
0.750000 0.750000 0.000000
1.000000 0.750000 0.000000
0.000000 1.000000 0.000000
0.250000 1.000000 0.000000
0.500000 1.000000 0.000000
0.750000 1.000000 0.000000
1.000000 1.000000 0.000000
0.182353 0.150980 0.131373
0.000000 0.003922 0.000000
0.886275 0.000000 0.384314
1.000000 0.376471 0.164706
0.609804 0.611765 0.615686
0.060392 0.033725 0.054902
0.320608 0.334253 0.342791
0.222926 0.258824 0.294118
0.996078 0.996078 0.996078
0.821418 0.432278 0.343288
0.000000 0.500000 0.250000
0.434510 0.554248 0.299346
0.315444 0.375130 0.139991
0.225200 0.212636 0.154248
0.247059 0.262745 0.305882
0.000000 0.750000 0.250000
0.250000 0.750000 0.250000
0.500000 0.750000 0.250000
0.862745 0.745098 0.549020
0.388235 0.341176 0.278431
0.000000 1.000000 0.250000
0.250000 1.000000 0.250000
0.500000 1.000000 0.250000
0.750000 1.000000 0.250000
1.000000 1.000000 0.250000
0.164706 0.121569 0.101961
0.250000 0.000000 0.500000
0.500000 0.000000 0.500000
0.750000 0.000000 0.500000
1.000000 0.000000 0.500000
0.050980 0.015686 0.000000
0.027451 0.011765 0.000000
0.243137 0.352941 0.447059
0.000000 0.000000 0.000000
0.215686 0.227451 0.262745
0.000000 0.500000 0.500000
0.000000 0.650980 0.737255
0.490724 0.520758 0.563776
0.662745 0.286275 0.000000
0.996078 1.000000 1.000000
0.000000 0.750000 0.500000
0.250000 0.750000 0.500000
0.192157 0.309804 0.058824
0.231373 0.350980 0.060784
0.309930 0.238330 0.178937
0.000000 1.000000 0.500000
0.250000 1.000000 0.500000
0.500000 1.000000 0.500000
0.750000 1.000000 0.500000
0.180392 0.215686 0.243137
0.000000 0.000000 0.750000
0.250000 0.000000 0.750000
0.500000 0.000000 0.750000
0.750000 0.000000 0.750000
1.000000 0.000000 0.750000
0.036601 0.019608 0.000000
0.027451 0.007843 0.000000
0.500000 0.250000 0.750000
0.750000 0.250000 0.750000
1.000000 0.250000 0.750000
0.000000 0.000000 0.000000
0.000000 0.000000 0.000000
0.266667 0.215686 0.152941
0.514706 0.556863 0.618627
1.000000 0.500000 0.750000
0.000000 0.750000 0.750000
0.250000 0.750000 0.750000
0.211765 0.239216 0.209804
0.357251 0.422296 0.421668
1.000000 1.000000 1.000000
0.000000 1.000000 0.750000
0.250000 1.000000 0.750000
0.500000 1.000000 0.750000
0.750000 1.000000 0.750000
0.248960 0.253007 0.262752
0.000000 0.000000 1.000000
0.250000 0.000000 1.000000
0.500000 0.000000 1.000000
0.750000 0.000000 1.000000
1.000000 0.000000 1.000000
0.000000 0.250000 1.000000
0.003922 0.000000 0.000000
0.500000 0.250000 1.000000
0.750000 0.250000 1.000000
1.000000 0.250000 1.000000
0.000000 0.000000 0.000000
0.015686 0.000000 0.000000
0.000000 0.000000 0.000000
0.750000 0.500000 1.000000
1.000000 0.500000 1.000000
0.000000 0.750000 1.000000
0.250000 0.750000 1.000000
0.000000 0.000000 0.000000
0.890196 0.937255 1.000000
1.000000 0.750000 1.000000
0.000000 1.000000 1.000000
0.250000 1.000000 1.000000
0.500000 1.000000 1.000000
0.759220 0.844681 0.937589
0.343072 0.264441 0.221146
