backend/lut_outputs/lut_76e4688c.cube
TITLE "Generated LUT"
LUT_3D_SIZE 33
DOMAIN_MIN 0.0 0.0 0.0
DOMAIN_MAX 1.0 1.0 1.0
0.122797 0.115053 0.104064
0.113737 0.102293 0.092919
0.172335 0.158936 0.151995
0.216927 0.201826 0.197072
0.207837 0.187092 0.180701
0.226549 0.192588 0.178013
0.207650 0.178982 0.165537
0.205229 0.157796 0.144585
0.177528 0.148094 0.143556
0.220411 0.176660 0.166927
0.212643 0.181738 0.176236
0.198631 0.183318 0.187053
0.222391 0.177230 0.177609
0.201819 0.167548 0.171753
0.238282 0.188609 0.183007
0.182208 0.166594 0.176580
0.152482 0.140505 0.160290
0.119591 0.111287 0.141605
0.162276 0.137681 0.158099
0.144851 0.148030 0.173362
0.173545 0.146592 0.167383
0.187651 0.140843 0.169128
0.154174 0.150140 0.180392
0.140990 0.164146 0.186555
0.132508 0.154180 0.169659
0.234641 0.176307 0.193464
0.441394 0.238344 0.248802
0.633333 0.203922 0.200000
0.511111 0.253595 0.257516
0.647059 0.307843 0.305882
0.543791 0.236601 0.240523
0.823529 0.261765 0.260784
0.579471 0.248730 0.256743
0.100441 0.117454 0.076629
0.097294 0.100337 0.069972
0.125685 0.112654 0.100329
0.155106 0.136553 0.119932
0.182672 0.163047 0.148926
0.185755 0.159449 0.142393
0.241232 0.192783 0.161035
0.245849 0.174218 0.131831
0.303448 0.229141 0.185531
0.270315 0.186320 0.145372
0.284890 0.200692 0.142791
0.316221 0.202496 0.142959
0.277124 0.183007 0.147712
0.160784 0.155742 0.154622
0.353725 0.263137 0.236471
0.340196 0.236275 0.181373
0.366667 0.229412 0.209804
0.350327 0.201307 0.108497
0.350327 0.201307 0.108497
0.144851 0.148030 0.173362
0.095425 0.118954 0.056209
0.095425 0.118954 0.056209
0.154174 0.150140 0.180392
0.140990 0.164146 0.186555
0.132508 0.154180 0.169659
0.234641 0.176307 0.193464
0.441394 0.238344 0.248802
0.633333 0.203922 0.200000
0.511111 0.253595 0.257516
0.647059 0.307843 0.305882
0.543791 0.236601 0.240523
0.823529 0.261765 0.260784
0.527233 0.219172 0.240959
0.120658 0.151573 0.094111
0.115259 0.139904 0.078005
0.114842 0.137327 0.062363
0.129507 0.106992 0.083364
0.173679 0.141233 0.111355
0.210963 0.184334 0.156899
0.181294 0.156027 0.132339
0.114617 0.093488 0.074746
0.186812 0.146217 0.117387
0.273193 0.179719 0.132894
0.260415 0.170844 0.134186
0.315543 0.217599 0.155906
0.188706 0.141804 0.114510
0.231092 0.180952 0.171709
0.329972 0.244258 0.210644
0.252549 0.159216 0.145098
0.099020 0.097059 0.087255
0.250980 0.192157 0.149020
0.274510 0.201307 0.176471
0.050980 0.062745 0.045098
0.107843 0.129412 0.056863
0.078431 0.103922 0.060784
0.078431 0.103922 0.060784
0.352941 0.233333 0.149020
0.352941 0.233333 0.149020
0.352941 0.233333 0.149020
0.441394 0.238344 0.248802
0.633333 0.203922 0.200000
0.511111 0.253595 0.257516
0.647059 0.307843 0.305882
1.000000 0.325490 0.325490
1.000000 0.325490 0.325490
0.696919 0.283473 0.289076
0.151656 0.187156 0.124774
0.136244 0.166088 0.100497
0.126340 0.154561 0.074779
0.132365 0.158348 0.074934
0.240750 0.205371 0.163427
0.146202 0.113553 0.078508
0.179652 0.152087 0.121371
0.163956 0.141991 0.111923
0.128971 0.115911 0.086501
0.119607 0.099477 0.075101
0.223708 0.155935 0.115077
0.258401 0.149325 0.094705
0.229292 0.145698 0.099320
0.166601 0.109216 0.085882
0.098039 0.071895 0.061329
0.217255 0.168039 0.142745
0.201961 0.145098 0.118137
0.302866 0.187029 0.174661
0.195425 0.177778 0.145098
0.150980 0.111765 0.087255
0.066667 0.058824 0.062745
0.198693 0.164706 0.099346
0.196078 0.141176 0.121569
0.015686 0.023529 0.019608
0.015686 0.023529 0.019608
0.400000 0.223529 0.094118
0.400000 0.223529 0.094118
0.098039 0.121569 0.113725
0.511111 0.253595 0.257516
1.000000 0.325490 0.325490
1.000000 0.325490 0.325490
1.000000 0.325490 0.325490
0.428235 0.256471 0.276863
0.152186 0.191637 0.117046
0.146284 0.178746 0.109658
0.138368 0.169689 0.090120
0.133535 0.161766 0.074823
0.172444 0.199635 0.099700
0.243137 0.143137 0.080392
0.245577 0.200436 0.153290
0.121420 0.092937 0.062386
0.149268 0.118407 0.082046
0.119134 0.111329 0.080788
0.118367 0.117785 0.080746
0.199492 0.160818 0.129290
0.225355 0.157161 0.122174
0.213858 0.128531 0.086856
0.173400 0.114516 0.086883
0.181976 0.118175 0.086199
0.178733 0.128054 0.103620
0.194045 0.146260 0.117502
0.167507 0.138375 0.104202
0.136134 0.125490 0.069468
0.137255 0.074510 0.078431
0.117647 0.079739 0.077124
0.078431 0.078431 0.078431
0.078431 0.078431 0.078431
0.400000 0.223529 0.094118
0.400000 0.223529 0.094118
0.098039 0.121569 0.113725
0.101961 0.121569 0.121569
0.101961 0.121569 0.121569
1.000000 0.325490 0.325490
1.000000 0.325490 0.325490
1.000000 0.325490 0.325490
0.488235 0.214216 0.213725
0.175481 0.217627 0.130240
0.153317 0.191526 0.108594
0.150924 0.186450 0.100899
0.135479 0.167845 0.077525
0.145929 0.176123 0.077226
0.248965 0.286765 0.153050
0.248965 0.286765 0.153050
0.577778 0.454902 0.328105
0.165469 0.138400 0.102447
0.091212 0.075947 0.054582
0.102389 0.099593 0.064763
0.117634 0.127036 0.069206
0.183593 0.170581 0.105117
0.231887 0.183754 0.148677
0.212679 0.147955 0.111690
0.207759 0.135042 0.099020
0.203194 0.133017 0.095319
0.164314 0.111078 0.086078
0.184043 0.124273 0.096822
0.171961 0.136275 0.099020
0.175163 0.107843 0.069935
0.118207 0.113165 0.105882
0.206536 0.129412 0.084967
0.282353 0.164706 0.096078
0.200000 0.190196 0.194118
0.098039 0.121569 0.113725
0.098039 0.121569 0.113725
0.101961 0.121569 0.121569
0.101961 0.121569 0.121569
0.066667 0.047059 0.035294
0.443137 0.262745 0.137255
0.443137 0.262745 0.137255
0.625980 0.200490 0.213235
0.202617 0.248826 0.147143
0.169118 0.213027 0.116246
0.161071 0.201626 0.105355
0.152034 0.189920 0.091004
0.147624 0.182066 0.080568
0.186019 0.219749 0.102359
0.281283 0.314260 0.158467
1.000000 0.749020 0.482353
1.000000 0.749020 0.482353
0.295425 0.214379 0.200000
0.123170 0.113873 0.086090
0.080882 0.078965 0.048517
0.099595 0.115143 0.052722
0.169220 0.148043 0.096917
0.296778 0.241410 0.191266
0.265083 0.217210 0.180694
0.214686 0.143570 0.111119
0.177019 0.132155 0.113807
0.154994 0.117024 0.096793
0.226094 0.177979 0.150980
0.203516 0.131846 0.103448
0.119917 0.095975 0.082147
0.092549 0.084706 0.084314
0.207190 0.139869 0.108497
0.219608 0.207843 0.211765
0.266667 0.249673 0.245752
0.082353 0.096078 0.092157
0.101961 0.121569 0.121569
0.101961 0.121569 0.121569
0.066667 0.047059 0.035294
0.066667 0.047059 0.035294
0.443137 0.262745 0.137255
0.515468 0.244880 0.246623
0.232314 0.280376 0.165714
0.189574 0.238216 0.128333
0.181149 0.225265 0.119676
0.171570 0.213416 0.107624
0.163779 0.203130 0.093582
0.172793 0.208764 0.092826
0.234322 0.269161 0.136752
0.234322 0.269161 0.136752
1.000000 0.749020 0.482353
0.295425 0.214379 0.200000
0.203922 0.203922 0.203922
0.274866 0.250980 0.203565
0.086380 0.076974 0.063063
0.071669 0.063785 0.049075
0.119937 0.101880 0.081738
0.299128 0.247143 0.195827
0.321772 0.249944 0.189789
0.176753 0.131979 0.104359
0.141787 0.114832 0.101483
0.140910 0.106149 0.089240
0.201243 0.119847 0.080727
0.168039 0.108824 0.067451
0.105882 0.068778 0.044947
0.114052 0.087255 0.074837
0.254902 0.243137 0.247059
0.236166 0.182571 0.152505
0.261765 0.220588 0.191176
0.088889 0.073203 0.058824
0.113725 0.117647 0.125490
0.066667 0.047059 0.035294
0.066667 0.047059 0.035294
0.058824 0.050980 0.035294
0.388562 0.213399 0.230392
0.241216 0.285075 0.173259
0.210055 0.257383 0.147877
0.196100 0.243044 0.132253
0.190183 0.234655 0.124264
0.181441 0.224494 0.111334
0.175395 0.215351 0.098998
0.195594 0.231673 0.106668
0.264442 0.298327 0.150890
0.264442 0.298327 0.150890
0.427451 0.466106 0.321569
0.203922 0.203922 0.203922
0.274866 0.250980 0.203565
0.086380 0.076974 0.063063
0.439869 0.413072 0.310457
0.066003 0.055234 0.042962
0.090100 0.076720 0.059994
0.153069 0.126242 0.102529
0.273123 0.211382 0.164036
0.269753 0.205422 0.152754
0.161971 0.120468 0.090918
0.160226 0.124352 0.105220
0.151429 0.108670 0.090921
0.138998 0.082353 0.053595
0.122386 0.076471 0.052451
0.100553 0.074108 0.062645
0.110177 0.074510 0.060317
0.084967 0.073203 0.061438
0.239216 0.227451 0.219608
0.090196 0.096078 0.090196
0.090196 0.096078 0.090196
0.058824 0.050980 0.035294
0.058824 0.050980 0.035294
0.603486 0.247495 0.254030
0.256518 0.298965 0.185255
0.212957 0.260312 0.150798
0.203740 0.249382 0.142164
0.198254 0.243680 0.133536
0.196267 0.241013 0.127261
0.186062 0.228997 0.110531
0.180271 0.219530 0.097256
0.214073 0.249098 0.113379
0.301176 0.332810 0.184497
0.301176 0.332810 0.184497
0.129412 0.019608 0.007843
0.129412 0.019608 0.007843
0.572549 0.566667 0.396078
0.439869 0.413072 0.310457
1.000000 0.937255 0.662745
0.166013 0.148366 0.118519
0.084238 0.071455 0.054620
0.105973 0.087285 0.068341
0.224802 0.168319 0.129555
0.326625 0.246811 0.190753
0.273072 0.208926 0.157200
0.193176 0.141164 0.107226
0.183651 0.107066 0.069290
0.131917 0.078540 0.050856
0.061351 0.043050 0.031373
0.077155 0.057182 0.045782
0.103204 0.064754 0.047633
0.138562 0.132026 0.128105
0.118954 0.084967 0.060131
0.083660 0.099346 0.091503
0.083660 0.099346 0.091503
0.058824 0.050980 0.035294
0.335948 0.229412 0.197386
0.228758 0.263665 0.156814
0.229684 0.271108 0.159018
0.222249 0.269532 0.158909
0.200274 0.246941 0.138922
0.200931 0.247512 0.133602
0.194287 0.238877 0.122685
0.185152 0.227026 0.107201
0.189406 0.228070 0.098493
0.225856 0.260830 0.117468
0.286415 0.317297 0.138796
0.286415 0.317297 0.138796
0.129412 0.019608 0.007843
0.129412 0.019608 0.007843
1.000000 0.937255 0.662745
1.000000 0.937255 0.662745
0.166013 0.148366 0.118519
0.084238 0.071455 0.054620
0.164706 0.149472 0.116893
0.090674 0.076420 0.058371
0.139763 0.098860 0.072937
0.238749 0.171765 0.128500
0.231571 0.174292 0.134363
0.218583 0.179768 0.140264
0.200713 0.171836 0.141743
0.082268 0.052856 0.035692
0.040117 0.031616 0.022117
0.040422 0.032881 0.024917
0.115686 0.095556 0.090196
0.177376 0.139970 0.120362
0.188235 0.182745 0.187451
0.088889 0.092810 0.094118
0.088889 0.092810 0.094118
0.635294 0.189542 0.132026
0.179540 0.194373 0.136402
0.246154 0.285671 0.175716
0.208797 0.252014 0.137758
0.207753 0.259021 0.145194
0.201219 0.250823 0.135833
0.198018 0.244885 0.127151
0.191022 0.235038 0.115699
0.182896 0.223803 0.099949
0.185601 0.223896 0.090432
0.213567 0.248786 0.108937
0.347059 0.375000 0.229412
0.347059 0.375000 0.229412
0.326144 0.367320 0.216340
1.000000 0.937255 0.662745
1.000000 0.937255 0.662745
0.329412 0.329412 0.321569
0.329412 0.329412 0.321569
0.164706 0.149472 0.116893
0.088235 0.064706 0.049020
0.123648 0.101783 0.079382
0.125321 0.082082 0.054733
0.186275 0.135582 0.100444
0.252054 0.196244 0.150960
0.320935 0.270997 0.218627
0.420370 0.379085 0.319862
0.304801 0.271163 0.222684
0.064395 0.047167 0.033401
0.105526 0.078610 0.063102
0.079051 0.079051 0.073684
0.126203 0.095900 0.079501
0.111111 0.101307 0.100654
0.513726 0.107843 0.139216
0.753595 0.288235 0.285621
0.104762 0.114846 0.062745
0.188235 0.227451 0.156863
0.185270 0.238833 0.121186
0.188660 0.237207 0.127789
0.195473 0.248087 0.131442
0.194037 0.246103 0.126083
0.186208 0.234208 0.115894
0.180714 0.223692 0.104543
0.175472 0.217264 0.088256
0.173960 0.211833 0.080361
0.186565 0.221786 0.083992
0.186565 0.221786 0.083992
0.326144 0.367320 0.216340
0.326144 0.367320 0.216340
0.240806 0.264547 0.147430
0.329412 0.329412 0.321569
0.329412 0.329412 0.321569
0.088235 0.064706 0.049020
0.088235 0.064706 0.049020
0.123648 0.101783 0.079382
0.126216 0.084241 0.056064
0.177836 0.113690 0.074790
0.178899 0.117343 0.075547
0.200172 0.145907 0.108088
0.331433 0.279201 0.233730
0.461129 0.411447 0.350027
0.292504 0.260863 0.217994
0.075998 0.056460 0.043995
0.129205 0.091950 0.075335
0.121362 0.098246 0.090609
0.120523 0.098039 0.087320
0.120523 0.098039 0.087320
0.621961 0.243922 0.253333
0.107308 0.113012 0.075936
0.188235 0.221569 0.128758
0.143791 0.195425 0.093137
0.189281 0.230763 0.114161
0.194039 0.247094 0.124154
0.195801 0.252629 0.125495
0.187090 0.237870 0.117976
0.181299 0.227359 0.108540
0.171639 0.214561 0.091107
0.165044 0.206960 0.077165
0.167412 0.204111 0.075831
0.200911 0.234852 0.105689
0.200911 0.234852 0.105689
0.240806 0.264547 0.147430
0.240806 0.264547 0.147430
0.241830 0.286275 0.147059
0.088235 0.064706 0.049020
0.088235 0.064706 0.049020
0.088235 0.064706 0.049020
0.126216 0.084241 0.056064
0.126216 0.084241 0.056064
0.249020 0.152941 0.092157
0.115494 0.081276 0.055902
0.187550 0.118104 0.064725
0.139129 0.100885 0.072601
0.195292 0.154891 0.119823
0.348622 0.298424 0.244214
0.332727 0.305926 0.265193
0.079814 0.053808 0.038287
0.119442 0.082951 0.058691
0.174603 0.109430 0.077498
0.083968 0.071280 0.062053
0.119092 0.100722 0.075335
0.061699 0.041830 0.026928
0.070588 0.125490 0.037255
0.113725 0.141176 0.043137
0.174510 0.212092 0.113725
0.188360 0.239029 0.120573
0.187122 0.240697 0.121971
0.193010 0.247157 0.122499
0.180169 0.229718 0.111818
0.167967 0.214087 0.094184
0.168716 0.213396 0.083838
0.158056 0.200248 0.068057
0.165903 0.202808 0.074083
0.240806 0.264547 0.147430
0.240806 0.264547 0.147430
0.241830 0.286275 0.147059
0.241830 0.286275 0.147059
0.249020 0.305392 0.133824
0.088235 0.064706 0.049020
0.126216 0.084241 0.056064
0.126216 0.084241 0.056064
0.249020 0.152941 0.092157
0.249020 0.152941 0.092157
0.096078 0.094118 0.086275
0.182395 0.119066 0.070254
0.205761 0.131008 0.075586
0.093333 0.067887 0.048076
0.135824 0.106901 0.088338
0.233285 0.204942 0.182677
0.287929 0.238172 0.194963
0.107824 0.066186 0.043983
0.153522 0.092665 0.062890
0.154902 0.102549 0.078431
0.135327 0.089797 0.065736
0.086013 0.064837 0.048627
0.198039 0.227451 0.186275
0.133333 0.129412 0.100000
0.102745 0.130196 0.047843
0.154902 0.184902 0.091765
0.173991 0.223760 0.111707
0.178115 0.234760 0.111906
0.173185 0.225439 0.103638
0.170423 0.219646 0.098087
0.168071 0.216706 0.090020
0.165346 0.211352 0.078008
0.161671 0.204563 0.063809
0.162350 0.196891 0.072228
0.241830 0.286275 0.147059
0.241830 0.286275 0.147059
0.249020 0.305392 0.133824
0.249020 0.305392 0.133824
0.219608 0.290196 0.123529
0.074510 0.058824 0.047059
0.249020 0.152941 0.092157
0.249020 0.152941 0.092157
0.096078 0.094118 0.086275
0.096078 0.094118 0.086275
0.182395 0.119066 0.070254
0.167507 0.108123 0.064986
0.132258 0.090955 0.058318
0.042169 0.032994 0.025878
0.088648 0.083962 0.083037
0.125347 0.112841 0.105141
0.195133 0.165887 0.132294
0.144801 0.088532 0.058170
0.198155 0.101192 0.056978
0.091263 0.078745 0.059765
0.064314 0.042876 0.029542
0.064314 0.042876 0.029542
0.294118 0.305882 0.270588
0.043137 0.062745 0.047059
0.227451 0.263529 0.208627
0.142561 0.189389 0.075894
0.163819 0.207563 0.099486
0.179261 0.236341 0.110670
0.166516 0.222026 0.100465
0.165083 0.216451 0.095688
0.170280 0.219511 0.089560
0.162344 0.209844 0.072210
0.155296 0.198470 0.060320
0.167667 0.211685 0.065840
0.167667 0.211685 0.065840
0.249020 0.305392 0.133824
0.219608 0.290196 0.123529
0.219608 0.290196 0.123529
0.174510 0.250980 0.086275
0.249020 0.152941 0.092157
0.096078 0.094118 0.086275
0.096078 0.094118 0.086275
0.096078 0.094118 0.086275
0.167507 0.108123 0.064986
0.167507 0.108123 0.064986
0.157983 0.087955 0.054902
0.059926 0.043627 0.031618
0.072106 0.055851 0.042125
0.073420 0.063290 0.057734
0.226331 0.197946 0.167134
0.198039 0.146514 0.100327
0.184656 0.097735 0.056501
0.135276 0.101254 0.078873
0.065686 0.041569 0.030196
0.065686 0.041569 0.030196
0.294118 0.305882 0.270588
0.154902 0.209804 0.145098
0.113725 0.196078 0.066667
0.178431 0.210784 0.150980
0.152187 0.201961 0.090347
0.177569 0.224941 0.124392
0.168098 0.229040 0.102920
0.165062 0.218809 0.095226
0.171417 0.225530 0.098830
0.175456 0.230136 0.094310
0.166626 0.218173 0.074274
0.163673 0.213979 0.073344
0.181542 0.229386 0.106353
0.181542 0.229386 0.106353
0.219608 0.290196 0.123529
0.174510 0.250980 0.086275
0.174510 0.250980 0.086275
0.174510 0.250980 0.086275
0.096078 0.094118 0.086275
0.096078 0.094118 0.086275
0.167507 0.108123 0.064986
0.167507 0.108123 0.064986
0.157983 0.087955 0.054902
0.157983 0.087955 0.054902
0.059926 0.043627 0.031618
0.077778 0.061438 0.043791
0.044344 0.037104 0.027753
0.045752 0.037582 0.029739
0.069804 0.065621 0.055425
0.115121 0.092456 0.071120
0.156656 0.107525 0.080681
0.065008 0.042081 0.027300
0.062745 0.043137 0.031373
0.062745 0.043137 0.031373
0.154902 0.209804 0.145098
0.113725 0.196078 0.066667
0.115033 0.124183 0.066667
0.110924 0.146779 0.098599
0.110265 0.158247 0.077047
0.168347 0.221639 0.130952
0.158300 0.211888 0.090874
0.167602 0.224449 0.096247
0.181396 0.239413 0.100709
0.179684 0.238971 0.096452
0.182475 0.241055 0.098297
0.184534 0.242678 0.102282
0.156583 0.198973 0.090663
0.156583 0.198973 0.090663
0.174510 0.250980 0.086275
0.174510 0.250980 0.086275
0.266667 0.356302 0.210084
0.266667 0.356302 0.210084
0.084967 0.079739 0.073203
0.167507 0.108123 0.064986
0.157983 0.087955 0.054902
0.157983 0.087955 0.054902
0.349020 0.152941 0.062745
0.349020 0.152941 0.062745
0.077778 0.061438 0.043791
0.022549 0.016667 0.017647
0.051471 0.048039 0.031863
0.027451 0.027451 0.017647
0.119216 0.108627 0.081961
0.148139 0.104570 0.081921
0.066340 0.040196 0.028758
0.066340 0.040196 0.028758
0.062745 0.043137 0.031373
0.154902 0.209804 0.145098
0.115033 0.124183 0.066667
0.115033 0.124183 0.066667
0.200000 0.211765 0.160784
0.068627 0.078431 0.058824
0.275490 0.332353 0.267647
0.182353 0.227967 0.129618
0.153121 0.206512 0.083792
0.175037 0.228493 0.104540
0.191350 0.248327 0.112919
0.194326 0.253673 0.111312
0.202009 0.264995 0.114221
0.210754 0.274661 0.120513
0.233203 0.308758 0.144314
0.233203 0.308758 0.144314
0.266667 0.356302 0.210084
0.266667 0.356302 0.210084
0.266667 0.356302 0.210084
0.333333 0.443137 0.180392
0.157983 0.087955 0.054902
0.157983 0.087955 0.054902
0.349020 0.152941 0.062745
0.349020 0.152941 0.062745
0.349020 0.152941 0.062745
0.022549 0.016667 0.017647
0.022549 0.016667 0.017647
0.051471 0.048039 0.031863
0.094118 0.109804 0.121569
0.057143 0.055462 0.051541
0.142094 0.094530 0.070565
0.064575 0.044444 0.029020
0.064575 0.044444 0.029020
0.066667 0.043137 0.031373
0.066667 0.043137 0.031373
0.115033 0.124183 0.066667
0.200000 0.211765 0.160784
0.200000 0.211765 0.160784
0.213725 0.247059 0.233333
0.218301 0.262092 0.152941
0.079739 0.111111 0.073203
0.166275 0.202614 0.097255
0.184238 0.228356 0.111689
0.181126 0.227197 0.107378
0.194441 0.247993 0.114717
0.208666 0.271187 0.127780
0.202319 0.270963 0.116027
0.205160 0.268318 0.133815
0.266667 0.356302 0.210084
0.266667 0.356302 0.210084
0.266667 0.356302 0.210084
0.090196 0.137255 0.019608
0.090196 0.137255 0.019608
0.282353 0.356863 0.164706
0.349020 0.152941 0.062745
0.349020 0.152941 0.062745
0.349020 0.152941 0.062745
0.022549 0.016667 0.017647
0.022549 0.016667 0.017647
0.022549 0.016667 0.017647
0.094118 0.109804 0.121569
0.094118 0.109804 0.121569
0.057143 0.055462 0.051541
0.169212 0.104678 0.078363
0.065359 0.042121 0.029194
0.066667 0.043137 0.031373
0.066667 0.043137 0.031373
0.066667 0.043137 0.031373
0.200000 0.211765 0.160784
0.200000 0.211765 0.160784
0.213725 0.247059 0.233333
0.213725 0.247059 0.233333
0.218301 0.262092 0.152941
0.086275 0.113725 0.072549
0.151373 0.202353 0.082353
0.143268 0.164967 0.096732
0.159715 0.199643 0.093226
0.168564 0.213852 0.107527
0.189416 0.253806 0.110858
0.207596 0.269670 0.126797
0.213533 0.266744 0.139485
0.205490 0.272680 0.138562
0.205490 0.272680 0.138562
0.090196 0.137255 0.019608
0.090196 0.137255 0.019608
0.090196 0.137255 0.019608
0.282353 0.356863 0.164706
0.718750 0.656250 0.000000
0.078431 0.060784 0.049020
0.022549 0.016667 0.017647
0.022549 0.016667 0.017647
0.022549 0.016667 0.017647
0.094118 0.109804 0.121569
0.094118 0.109804 0.121569
0.094118 0.109804 0.121569
0.173117 0.105598 0.076101
0.173117 0.105598 0.076101
0.065015 0.041280 0.027038
0.065015 0.041280 0.027038
0.066667 0.043137 0.031373
0.066667 0.043137 0.031373
0.066667 0.043137 0.031373
0.213725 0.247059 0.233333
0.213725 0.247059 0.233333
0.213725 0.247059 0.233333
0.086275 0.113725 0.072549
0.086275 0.113725 0.072549
0.151373 0.202353 0.082353
0.129412 0.158170 0.088889
0.272059 0.238235 0.155392
0.232680 0.273203 0.160784
0.205025 0.250245 0.150613
0.185098 0.230719 0.107451
0.217843 0.287059 0.125686
0.195365 0.269875 0.116221
0.090196 0.137255 0.019608
0.090196 0.137255 0.019608
0.090196 0.137255 0.019608
0.090196 0.137255 0.019608
0.301961 0.380392 0.192157
0.718750 0.687500 0.000000
0.750000 0.687500 0.000000
0.781250 0.687500 0.000000
0.039216 0.028758 0.019608
0.039216 0.028758 0.019608
0.094118 0.109804 0.121569
0.061765 0.046078 0.047059
0.061765 0.046078 0.047059
0.061765 0.046078 0.047059
0.061765 0.046078 0.047059
0.062332 0.041280 0.028483
0.062332 0.041280 0.028483
0.062332 0.041280 0.028483
0.066667 0.043137 0.031373
0.066667 0.043137 0.031373
0.213725 0.247059 0.233333
0.213725 0.247059 0.233333
0.086275 0.113725 0.072549
0.086275 0.113725 0.072549
0.086275 0.113725 0.072549
0.129412 0.158170 0.088889
0.129412 0.158170 0.088889
0.272059 0.238235 0.155392
0.054902 0.078431 0.050980
0.309804 0.337255 0.282353
0.165062 0.216756 0.090909
0.243137 0.297059 0.168627
0.193464 0.277124 0.116340
0.193464 0.277124 0.116340
0.090196 0.137255 0.019608
0.090196 0.137255 0.019608
0.301961 0.380392 0.192157
0.301961 0.380392 0.192157
0.718750 0.718750 0.000000
0.750000 0.718750 0.000000
0.781250 0.718750 0.000000
0.812500 0.718750 0.000000
0.019608 0.019608 0.019608
0.019608 0.019608 0.019608
0.155882 0.093137 0.066667
0.155882 0.093137 0.066667
0.155882 0.093137 0.066667
0.155882 0.093137 0.066667
0.063399 0.042266 0.028105
0.063399 0.042266 0.028105
0.063399 0.042266 0.028105
0.063399 0.042266 0.028105
0.066667 0.043137 0.031373
0.156250 0.750000 0.000000
0.086275 0.113725 0.072549
0.086275 0.113725 0.072549
0.086275 0.113725 0.072549
0.321569 0.239216 0.203922
0.321569 0.239216 0.203922
0.321569 0.239216 0.203922
0.054902 0.078431 0.050980
0.054902 0.078431 0.050980
0.054902 0.074510 0.058824
0.058824 0.066667 0.058824
0.054902 0.062745 0.054902
0.298039 0.384314 0.200000
0.298039 0.384314 0.200000
0.301961 0.380392 0.192157
0.301961 0.380392 0.192157
0.301961 0.380392 0.192157
0.301961 0.380392 0.192157
0.718750 0.750000 0.000000
0.750000 0.750000 0.000000
0.781250 0.750000 0.000000
0.812500 0.750000 0.000000
0.843750 0.750000 0.000000
0.875000 0.750000 0.000000
0.447059 0.249020 0.121569
0.447059 0.249020 0.121569
0.447059 0.249020 0.121569
0.447059 0.249020 0.121569
0.064052 0.042810 0.026797
0.064052 0.042810 0.026797
0.064052 0.042810 0.026797
0.064052 0.042810 0.026797
0.125000 0.781250 0.000000
0.156250 0.781250 0.000000
0.678431 0.607843 0.552941
0.678431 0.607843 0.552941
0.321569 0.239216 0.203922
0.321569 0.239216 0.203922
0.321569 0.239216 0.203922
0.321569 0.239216 0.203922
0.054902 0.078431 0.050980
0.054902 0.074510 0.058824
0.054902 0.074510 0.058824
0.058824 0.066667 0.058824
0.054902 0.062745 0.054902
0.298039 0.384314 0.200000
0.317647 0.384314 0.200000
0.301961 0.380392 0.192157
0.301961 0.380392 0.192157
0.301961 0.380392 0.192157
0.301961 0.380392 0.192157
0.718750 0.781250 0.000000
0.750000 0.781250 0.000000
0.781250 0.781250 0.000000
0.812500 0.781250 0.000000
0.843750 0.781250 0.000000
0.875000 0.781250 0.000000
0.447059 0.249020 0.121569
0.447059 0.249020 0.121569
0.447059 0.249020 0.121569
0.447059 0.249020 0.121569
0.061064 0.040056 0.025770
0.061064 0.040056 0.025770
0.061064 0.040056 0.025770
0.061064 0.040056 0.025770
0.125000 0.812500 0.000000
0.156250 0.812500 0.000000
0.187500 0.812500 0.000000
0.218750 0.812500 0.000000
0.321569 0.239216 0.203922
0.321569 0.239216 0.203922
0.321569 0.239216 0.203922
0.321569 0.239216 0.203922
0.054902 0.074510 0.058824
0.054902 0.074510 0.058824
0.054902 0.074510 0.058824
0.058824 0.066667 0.058824
0.054902 0.062745 0.054902
0.317647 0.384314 0.200000
0.317647 0.384314 0.200000
0.301961 0.380392 0.192157
0.301961 0.380392 0.192157
0.301961 0.380392 0.192157
0.301961 0.380392 0.192157
0.718750 0.812500 0.000000
0.750000 0.812500 0.000000
0.781250 0.812500 0.000000
0.812500 0.812500 0.000000
