backend/lut_outputs/lut_f3e51c5f.cube
TITLE "LUT_f3e51c5f"
LUT_3D_SIZE 5
0.090289 0.086190 0.130037
0.418672 0.069294 0.041640
0.555248 0.145662 0.062220
0.757792 0.115956 0.090086
0.934425 0.258699 0.164404
0.274597 0.436909 0.106137
0.393140 0.414279 0.057371
0.704521 0.388725 0.077382
0.831725 0.425404 0.183187
0.951637 0.286950 0.184900
0.582004 0.664405 0.158210
0.602955 0.678083 0.169963
0.659323 0.693065 0.180159
0.867959 0.569134 0.197355
0.977634 0.624694 0.287377
0.738495 0.787152 0.428536
0.744218 0.785270 0.423153
0.808800 0.782494 0.440510
0.952905 0.759138 0.377361
0.980679 0.775148 0.351138
0.995344 0.891860 0.585029
0.995439 0.893195 0.588902
0.995671 0.898500 0.597928
0.995491 0.907109 0.623312
0.995682 0.918020 0.661716
0.010257 0.120867 0.411194
0.365078 0.141313 0.282420
0.661480 0.134523 0.248381
0.822119 0.172388 0.131540
0.948502 0.265223 0.178594
0.134351 0.393096 0.438452
0.368348 0.371691 0.368633
0.719726 0.381431 0.306490
0.892585 0.344448 0.212900
0.959181 0.298018 0.193249
0.527605 0.666615 0.343764
0.591375 0.684919 0.289412
0.673572 0.657749 0.215371
0.879041 0.583088 0.232956
0.983301 0.613917 0.303674
0.739989 0.789626 0.441101
0.743470 0.790126 0.447102
0.800325 0.792920 0.479440
0.961096 0.787341 0.433951
0.981479 0.776999 0.350227
0.995230 0.895552 0.597882
0.995248 0.896173 0.598940
0.995512 0.901280 0.608472
0.995557 0.910783 0.635577
0.995571 0.923526 0.683779
0.005777 0.262872 0.683644
0.177587 0.301664 0.726758
0.677284 0.221501 0.377478
0.867833 0.295182 0.313560
0.964526 0.285265 0.210714
0.084063 0.382499 0.744008
0.223869 0.351904 0.707362
0.790663 0.377502 0.488665
0.907811 0.351656 0.342651
0.973162 0.318313 0.230273
0.300002 0.645221 0.650999
0.315827 0.641158 0.649975
0.635857 0.635861 0.632353
0.902930 0.644811 0.494509
0.988890 0.641200 0.392972
0.684696 0.788465 0.592109
0.724038 0.791797 0.553864
0.785609 0.803863 0.550441
0.946389 0.837380 0.579519
0.982912 0.792485 0.413369
0.973283 0.898619 0.639345
0.986307 0.905535 0.648077
0.994820 0.914216 0.659979
0.995318 0.924395 0.688389
0.995274 0.932253 0.722296
0.007786 0.361032 0.850451
0.049214 0.370405 0.869557
0.321380 0.405805 0.861389
0.844789 0.410935 0.500567
0.970864 0.317766 0.233557
0.011901 0.378305 0.871515
0.048876 0.394771 0.883625
0.298383 0.466808 0.885497
0.852094 0.522303 0.597461
0.979293 0.367123 0.258543
0.273493 0.610920 0.908803
0.312634 0.626511 0.913106
0.493642 0.634182 0.876256
0.753582 0.682730 0.742401
0.946686 0.627933 0.453018
0.520745 0.790405 0.822525
0.546748 0.797747 0.824367
0.673580 0.817681 0.820783
0.812641 0.820310 0.808388
0.934476 0.730995 0.553900
0.883281 0.888168 0.790072
0.893292 0.890319 0.783335
0.964137 0.913897 0.758565
0.993121 0.938521 0.784563
0.995016 0.950574 0.825710
0.004709 0.404366 0.923841
0.005976 0.412347 0.932283
0.091695 0.455676 0.938478
0.363797 0.559220 0.932721
0.950879 0.430552 0.376089
0.009732 0.430518 0.945390
0.024053 0.440008 0.950129
0.141403 0.482902 0.945549
0.428551 0.623983 0.959192
0.881786 0.565607 0.565302
0.290502 0.598886 0.965485
0.361605 0.636803 0.974286
0.455220 0.683511 0.979317
0.550308 0.728271 0.980875
0.823371 0.760105 0.780085
0.562829 0.770455 0.912744
0.596605 0.769219 0.921873
0.708584 0.792704 0.900620
0.803909 0.849260 0.926357
0.880029 0.848452 0.838774
0.857547 0.889321 0.914394
0.858753 0.890402 0.918792
0.883702 0.903431 0.917711
0.969775 0.956613 0.923669
0.992401 0.982392 0.942849
