backend/lut_outputs/lut_dsc04635.cube
TITLE "DSC04635"
LUT_3D_SIZE 33
0.082208 0.079158 0.121672
0.103358 0.067861 0.091432
0.127998 0.062853 0.073474
0.174255 0.060820 0.052793
0.224675 0.056925 0.039451
0.277415 0.059678 0.028130
0.327322 0.063065 0.021510
0.369104 0.064594 0.020086
0.388867 0.065586 0.021117
0.413207 0.073785 0.024204
0.446915 0.097194 0.041652
0.472678 0.125974 0.057338
0.503027 0.139567 0.067791
0.536354 0.149685 0.078658
0.564084 0.148263 0.079556
0.533364 0.126746 0.061320
0.504338 0.121692 0.045428
0.528086 0.105442 0.041442
0.579037 0.089271 0.048935
0.628776 0.087810 0.059014
0.700429 0.098095 0.080810
0.765452 0.111221 0.097194
0.789549 0.129650 0.102709
0.800390 0.135247 0.103828
0.708478 0.088513 0.062934
0.765718 0.111991 0.071734
0.849858 0.131165 0.075465
0.848411 0.141042 0.092240
0.890467 0.177112 0.117989
0.912752 0.196261 0.130852
0.933738 0.241620 0.152468
0.913259 0.221559 0.142915
0.938856 0.280110 0.174181
0.073169 0.085725 0.060778
0.085871 0.081652 0.049194
0.133425 0.087278 0.045299
0.206329 0.097803 0.038079
0.268541 0.100505 0.032152
0.309567 0.100855 0.026366
0.343376 0.102605 0.021437
0.358198 0.095812 0.019243
0.370661 0.087944 0.016412
0.393011 0.099359 0.020877
0.427758 0.118169 0.036320
0.443302 0.134269 0.046896
0.478567 0.157253 0.059067
0.513601 0.156610 0.064934
0.530741 0.153998 0.066414
0.510508 0.140397 0.052859
0.500496 0.129861 0.041866
0.525654 0.112514 0.036036
0.575524 0.096131 0.046631
0.632649 0.093651 0.059372
0.694724 0.100832 0.078528
0.763138 0.117520 0.095742
0.786569 0.129906 0.102062
0.799157 0.131866 0.102048
0.713489 0.090626 0.064472
0.777552 0.116431 0.074835
0.844224 0.128476 0.076368
0.851013 0.146018 0.094920
0.891424 0.178661 0.118813
0.912295 0.200934 0.132980
0.929287 0.235268 0.149280
0.913533 0.222956 0.142094
0.941054 0.283249 0.176310
0.080513 0.139851 0.060557
0.093666 0.141294 0.050186
0.129374 0.148165 0.045841
0.201527 0.155112 0.044218
0.282450 0.159177 0.044637
0.338341 0.158617 0.037265
0.370264 0.153966 0.033630
0.384885 0.143849 0.025624
0.395090 0.130952 0.019220
0.405253 0.124635 0.018269
0.431074 0.137920 0.038321
0.442424 0.139366 0.037080
0.473080 0.177609 0.051452
0.482773 0.167814 0.053619
0.502493 0.165642 0.054962
0.498577 0.157454 0.039092
0.501729 0.145851 0.038764
0.526065 0.120772 0.034072
0.572546 0.107219 0.043294
0.632149 0.107574 0.059107
0.694336 0.110982 0.077544
0.760639 0.121352 0.095084
0.784147 0.132966 0.101719
0.793273 0.128483 0.097632
0.730690 0.099755 0.069922
0.789743 0.121064 0.078298
0.837210 0.127611 0.078944
0.854349 0.151286 0.098161
0.891981 0.179895 0.118900
0.912002 0.204948 0.135458
0.922910 0.227285 0.145484
0.917052 0.228110 0.144680
0.942497 0.284159 0.176588
0.088826 0.202058 0.060205
0.095931 0.208306 0.054392
0.124327 0.211411 0.046783
0.182694 0.217634 0.044870
0.263665 0.217499 0.055798
0.331702 0.212956 0.059822
0.392988 0.215005 0.054006
0.432786 0.211217 0.042884
0.452716 0.199035 0.034804
0.456214 0.183435 0.035034
0.462552 0.171385 0.030245
0.478089 0.169558 0.032615
0.457556 0.173658 0.054176
0.491183 0.190557 0.043931
0.496835 0.184183 0.048288
0.488374 0.169185 0.030668
0.502104 0.167146 0.028229
0.523732 0.145260 0.030260
0.557172 0.129823 0.037484
0.616304 0.126363 0.056658
0.676295 0.128798 0.069427
0.744144 0.131734 0.090499
0.774789 0.136831 0.096970
0.788215 0.132089 0.094299
0.755518 0.111604 0.077869
0.802289 0.126519 0.082792
0.831829 0.129721 0.082931
0.859780 0.159361 0.102312
0.892980 0.181564 0.118460
0.912947 0.210222 0.138624
0.916695 0.219487 0.141199
0.923366 0.239495 0.150307
0.943748 0.282545 0.175024
0.105057 0.268707 0.051811
0.105899 0.271621 0.047113
0.130635 0.261781 0.040212
0.181409 0.271352 0.039685
0.250651 0.273663 0.049789
0.319148 0.270454 0.059836
0.383278 0.265685 0.066761
0.444135 0.263096 0.056313
0.481812 0.260192 0.042742
0.495405 0.247352 0.047247
0.514839 0.239126 0.050664
0.524345 0.233673 0.054247
0.522786 0.225193 0.060047
0.527616 0.220996 0.060519
0.496625 0.199514 0.054072
0.493435 0.183267 0.023380
0.534952 0.193253 0.022503
0.530816 0.179020 0.023918
0.547586 0.169351 0.036965
0.585844 0.167391 0.043693
0.652941 0.172044 0.063412
0.722811 0.157432 0.082738
0.767990 0.148980 0.093328
0.781162 0.139299 0.091721
0.772617 0.124707 0.080416
0.814266 0.137170 0.090503
0.833000 0.136694 0.088231
0.868931 0.168077 0.108198
0.895731 0.188108 0.122541
0.914453 0.212676 0.139585
0.913270 0.215514 0.138403
0.929237 0.250833 0.155927
0.945440 0.280330 0.172487
0.139013 0.301612 0.059291
0.143758 0.301334 0.056754
0.156685 0.304237 0.053851
0.189487 0.313314 0.052571
0.239154 0.319749 0.053027
0.306325 0.320937 0.062757
0.363674 0.315528 0.071520
0.434121 0.312111 0.058452
0.478974 0.301795 0.068017
0.517201 0.293476 0.064598
0.543020 0.288639 0.063309
0.570711 0.299380 0.106104
0.580834 0.287636 0.082524
0.586442 0.276111 0.048423
0.541314 0.234448 0.052283
0.526686 0.217288 0.040503
0.502147 0.184970 0.022194
0.529640 0.195693 0.023062
0.546706 0.210761 0.034227
0.575216 0.220910 0.045691
0.624633 0.218823 0.054569
0.683669 0.210783 0.068851
0.738628 0.190133 0.081437
0.783132 0.172657 0.095734
0.792916 0.153691 0.091734
0.825442 0.151457 0.098358
0.843572 0.152828 0.098047
0.876437 0.177263 0.114591
0.895464 0.193683 0.125434
0.913988 0.212436 0.138386
0.915751 0.218261 0.137457
0.934812 0.260896 0.159371
0.947428 0.279580 0.170321
0.187710 0.345995 0.072806
0.195411 0.349459 0.071477
0.201839 0.355790 0.071189
0.200554 0.356598 0.061634
0.241378 0.367552 0.056261
0.289806 0.368436 0.054913
0.344345 0.358498 0.066325
0.410425 0.356253 0.076724
0.485276 0.366189 0.069363
0.515481 0.356771 0.079504
0.520530 0.315428 0.070358
0.594623 0.337989 0.084166
0.613630 0.336256 0.079009
0.615950 0.321801 0.056943
0.599683 0.289482 0.052379
0.601081 0.280809 0.061281
0.574590 0.261647 0.055090
0.561160 0.230029 0.040159
0.597852 0.253705 0.057972
0.615233 0.263197 0.046825
0.559289 0.210508 0.025876
0.642973 0.266424 0.060074
0.699645 0.263014 0.081466
0.770417 0.251774 0.111265
0.811596 0.222343 0.118378
0.823700 0.179799 0.106480
0.853090 0.162069 0.102881
0.877948 0.181472 0.115410
0.901659 0.201952 0.129269
0.915476 0.214789 0.138233
0.922441 0.235640 0.144185
0.938629 0.267410 0.158815
0.951353 0.284887 0.171517
0.234964 0.392736 0.082851
0.240201 0.396063 0.081667
0.243725 0.399844 0.079607
0.243464 0.402498 0.066790
0.256341 0.409241 0.048898
0.305360 0.422905 0.045630
0.343646 0.413082 0.045548
0.374156 0.389731 0.051532
0.439117 0.389161 0.054167
0.508982 0.400111 0.076533
0.557191 0.386150 0.100189
0.578517 0.356545 0.093252
0.624621 0.359004 0.083265
0.648738 0.367946 0.061190
0.664715 0.369273 0.048900
0.682889 0.370155 0.053137
0.662676 0.333935 0.054117
0.649276 0.314906 0.065058
0.617705 0.286646 0.060707
0.617285 0.268366 0.050172
0.622955 0.263507 0.049555
0.666638 0.293945 0.079003
0.697340 0.320924 0.083082
0.764601 0.364242 0.140996
0.790050 0.327899 0.147845
0.839481 0.262966 0.146865
0.870810 0.212561 0.130958
0.881072 0.185478 0.117258
0.911184 0.212136 0.132677
0.916115 0.223053 0.137890
0.935288 0.257481 0.153400
0.943351 0.272059 0.158989
0.956518 0.293990 0.177198
0.281033 0.442529 0.089525
0.282432 0.443607 0.089010
0.282708 0.444464 0.086527
0.284373 0.447187 0.078766
0.286733 0.448686 0.065757
0.308774 0.457653 0.068034
0.336326 0.458175 0.067793
0.367955 0.433130 0.043928
0.375981 0.409512 0.036194
0.465718 0.418028 0.054888
0.558008 0.437146 0.066057
0.583674 0.416294 0.115717
0.629779 0.402640 0.106841
0.665129 0.394328 0.089995
0.681570 0.395041 0.077398
0.697292 0.398900 0.065802
0.711376 0.398912 0.059242
0.704287 0.387552 0.059826
0.698749 0.363755 0.053971
0.681226 0.341883 0.055751
0.620080 0.286378 0.054459
0.687222 0.326642 0.075606
0.722470 0.352278 0.087282
0.776293 0.392353 0.132874
0.807146 0.405290 0.168512
0.858184 0.421117 0.211606
0.871231 0.383329 0.194694
0.899418 0.328470 0.171800
0.909732 0.240162 0.138052
0.933764 0.255005 0.154410
0.941468 0.266472 0.156173
0.951533 0.290996 0.173012
0.959623 0.302781 0.183084
0.311434 0.481680 0.083768
0.311465 0.482569 0.082736
0.311981 0.482168 0.081233
0.313270 0.484343 0.077113
0.315472 0.487403 0.070619
0.318936 0.492158 0.054467
0.343765 0.499608 0.050261
0.372095 0.491463 0.055784
0.399444 0.463749 0.049579
0.388650 0.406828 0.033029
0.447051 0.417139 0.053650
0.547380 0.443221 0.060292
0.612268 0.443875 0.089240
0.661080 0.433912 0.094744
0.685351 0.418187 0.106395
0.703426 0.414043 0.100783
0.726671 0.434865 0.091161
0.761593 0.448088 0.067872
0.773494 0.452577 0.058574
0.788699 0.468489 0.062519
0.716604 0.387394 0.085130
0.741364 0.385684 0.072113
0.744619 0.380109 0.073592
0.771543 0.400634 0.096162
0.823088 0.437212 0.160265
0.867311 0.463197 0.199978
0.879026 0.456542 0.216982
0.898341 0.452150 0.220429
0.912162 0.419454 0.212842
0.937216 0.355330 0.191343
0.949268 0.330321 0.186539
0.957343 0.323418 0.191534
0.961618 0.320348 0.192835
0.339974 0.513557 0.075901
0.341169 0.514335 0.074447
0.345255 0.518004 0.075100
0.347885 0.520034 0.073634
0.352399 0.523910 0.071235
0.355181 0.528421 0.056063
0.357265 0.533630 0.034390
0.392904 0.545602 0.038892
0.417587 0.537085 0.058532
0.430815 0.500959 0.049395
0.438906 0.468748 0.036508
0.486197 0.464155 0.030245
0.575109 0.482044 0.033125
0.660360 0.495519 0.064430
0.692663 0.473642 0.114066
0.707514 0.452558 0.117157
0.719666 0.438787 0.120061
0.752005 0.457090 0.092893
0.787442 0.477399 0.072664
0.791441 0.478656 0.064624
0.772069 0.454288 0.067742
0.745976 0.419605 0.056662
0.744761 0.402432 0.043856
0.762668 0.409471 0.055155
0.844872 0.467338 0.126149
0.878030 0.483887 0.179332
0.901321 0.500490 0.200277
0.909065 0.497122 0.225422
0.921360 0.506323 0.255477
0.940638 0.497333 0.261645
0.948235 0.464153 0.245998
0.957404 0.415109 0.227724
0.967512 0.412168 0.233064
0.378393 0.551283 0.063448
0.378649 0.551638 0.062893
0.380171 0.552514 0.063729
0.385265 0.556810 0.069989
0.386583 0.558551 0.061726
0.388660 0.561078 0.059021
0.393469 0.565636 0.049958
0.403945 0.571466 0.039444
0.434283 0.578440 0.043286
0.467845 0.577398 0.054520
0.470743 0.543775 0.052129
0.467603 0.499269 0.032935
0.497068 0.479741 0.040426
0.579018 0.499990 0.065598
0.683844 0.530066 0.066840
0.699395 0.489545 0.154401
0.727046 0.455585 0.154562
0.761370 0.462734 0.133271
0.792803 0.489624 0.111668
0.818771 0.514459 0.084672
0.809461 0.497377 0.086295
0.802763 0.479531 0.068191
0.768516 0.429680 0.047146
0.791421 0.443981 0.042101
0.858826 0.490590 0.081389
0.872244 0.488087 0.128369
0.904655 0.507917 0.184634
0.913641 0.506022 0.219768
0.926451 0.519163 0.254295
0.937722 0.534333 0.274811
0.948697 0.534213 0.283268
0.959083 0.523892 0.275993
0.966412 0.515850 0.275487
0.413444 0.583445 0.073647
0.419322 0.587422 0.072429
0.419451 0.587636 0.071619
0.419727 0.588033 0.070298
0.423921 0.590851 0.061128
0.426878 0.592856 0.058038
0.432698 0.597128 0.054722
0.443520 0.604052 0.055612
0.451601 0.610601 0.033647
0.476050 0.615285 0.042623
0.499014 0.607539 0.048475
0.506731 0.579392 0.040721
0.509001 0.546187 0.026936
0.542296 0.525705 0.036486
0.592471 0.527312 0.043661
0.632522 0.517689 0.101676
0.711905 0.492888 0.160180
0.762623 0.489395 0.171267
0.788621 0.500557 0.151769
0.812371 0.513576 0.151676
0.825083 0.513160 0.134041
0.816918 0.499660 0.117241
0.793482 0.469090 0.093361
0.780964 0.443885 0.064981
0.843537 0.498300 0.070259
0.907818 0.546340 0.106189
0.926763 0.547992 0.164159
0.916581 0.524485 0.197711
0.922703 0.525030 0.234254
0.943358 0.548545 0.270563
0.950566 0.554554 0.282437
0.958731 0.558075 0.287975
0.967297 0.562221 0.285855
0.453150 0.613945 0.082936
0.453430 0.614182 0.082699
0.457058 0.616783 0.079478
0.458411 0.617844 0.071191
0.460738 0.619677 0.074254
0.464117 0.621851 0.073055
0.473544 0.627192 0.074917
0.481250 0.631446 0.074028
0.487419 0.635580 0.061225
0.494603 0.639049 0.036759
0.519478 0.644689 0.036570
0.539458 0.635005 0.039965
0.537640 0.612526 0.044769
0.531947 0.574438 0.039096
0.543602 0.549190 0.035963
0.564501 0.539288 0.048786
0.630439 0.530487 0.132387
0.724972 0.525177 0.188873
0.786048 0.520701 0.216328
0.811398 0.517028 0.197460
0.819982 0.517130 0.176408
0.816603 0.511885 0.134719
0.780328 0.470570 0.104702
0.745542 0.430995 0.078015
0.798899 0.473157 0.078336
0.898628 0.559859 0.107340
0.933707 0.585230 0.148684
0.938141 0.570616 0.197132
0.939308 0.562449 0.231294
0.949867 0.565170 0.261385
0.954195 0.566617 0.271818
0.963080 0.574378 0.280506
0.967925 0.573600 0.275626
0.492171 0.639420 0.101777
0.496494 0.641611 0.102100
0.497053 0.641675 0.097057
0.497451 0.641914 0.096978
0.500108 0.643537 0.099370
0.505083 0.646587 0.112335
0.510330 0.648509 0.110206
0.516990 0.650900 0.111634
0.525614 0.654898 0.110667
0.534724 0.658657 0.101751
0.552586 0.665894 0.084039
0.569702 0.669489 0.082392
0.586157 0.667222 0.093903
0.592172 0.654481 0.088051
0.585931 0.624807 0.074901
0.577361 0.589628 0.051716
0.593781 0.574652 0.065737
0.645933 0.575499 0.137064
0.741065 0.563300 0.200054
0.817310 0.547407 0.222889
0.820484 0.537034 0.192625
0.814940 0.523834 0.162157
0.795001 0.499993 0.150575
0.777043 0.470374 0.122502
0.783650 0.464900 0.102429
0.841301 0.512411 0.108841
0.891286 0.555781 0.131705
0.935449 0.593775 0.180167
0.948573 0.590101 0.219636
0.954431 0.582667 0.244405
0.961774 0.583351 0.262254
0.967120 0.584469 0.272927
0.974913 0.596362 0.286363
0.525745 0.659459 0.145068
0.525945 0.659570 0.145081
0.529343 0.661028 0.139317
0.529757 0.661248 0.139441
0.535008 0.663379 0.139727
0.541068 0.666066 0.135966
0.545939 0.669126 0.145363
0.549490 0.671296 0.148251
0.559792 0.675363 0.150567
0.578229 0.682881 0.157749
0.591900 0.688797 0.160263
0.601522 0.691706 0.154141
0.616080 0.696001 0.147695
0.625133 0.695751 0.149930
0.625929 0.680660 0.121582
0.620958 0.652981 0.094530
0.621486 0.627608 0.079004
0.645873 0.621082 0.114428
0.702988 0.623568 0.168480
0.783150 0.599114 0.231503
0.810424 0.562259 0.237676
0.809682 0.548641 0.221511
0.808196 0.538689 0.196912
0.818527 0.536448 0.176549
0.813282 0.503162 0.141946
0.836786 0.516088 0.133378
0.881944 0.557598 0.138854
0.928810 0.602475 0.172764
0.957230 0.614709 0.212564
0.963283 0.603417 0.233354
0.966095 0.599597 0.249381
0.973057 0.603177 0.271185
0.976908 0.608507 0.278895
0.557069 0.677444 0.166983
0.558532 0.678265 0.167210
0.562471 0.680325 0.169852
0.566141 0.681642 0.173712
0.572880 0.683802 0.176452
0.581589 0.688668 0.184559
0.589719 0.692652 0.185501
0.598236 0.696524 0.187167
0.604794 0.700132 0.187050
0.613917 0.704678 0.194378
0.621635 0.709172 0.203433
0.627356 0.710237 0.195088
0.638646 0.714119 0.186957
0.646774 0.715843 0.165183
0.653493 0.709997 0.156859
0.656485 0.700316 0.143931
0.662996 0.687538 0.137484
0.682800 0.680410 0.154040
0.713133 0.684300 0.191466
0.746314 0.671672 0.227565
0.795739 0.624428 0.256778
0.829605 0.590569 0.255437
0.836979 0.578798 0.227621
0.860298 0.584081 0.203788
0.868511 0.573717 0.179557
0.851301 0.545453 0.150378
0.852129 0.540304 0.143136
0.893046 0.570477 0.166537
0.947260 0.608605 0.209955
0.962802 0.610248 0.230424
0.968982 0.611374 0.249582
0.974899 0.615963 0.267625
0.979754 0.623949 0.286279
0.609145 0.707009 0.220842
0.609283 0.707091 0.220914
0.611580 0.708850 0.224876
0.612987 0.709549 0.226196
0.618649 0.712548 0.231878
0.622462 0.714878 0.234345
0.625546 0.715334 0.231731
0.630299 0.718734 0.237987
0.632130 0.719644 0.235154
0.641086 0.723831 0.231482
0.642808 0.725528 0.233683
0.646656 0.727264 0.237995
0.652720 0.729007 0.233135
0.663327 0.733027 0.236921
0.669528 0.732989 0.235128
0.682173 0.732959 0.226828
0.694946 0.722097 0.207976
0.711607 0.716961 0.221131
0.729200 0.712386 0.225371
0.751164 0.709707 0.238962
0.780697 0.690754 0.258206
0.832503 0.647807 0.264494
0.873169 0.623458 0.243652
0.892290 0.617149 0.214373
0.892300 0.606076 0.199501
0.855398 0.562836 0.176887
0.823581 0.521478 0.156154
0.851967 0.532157 0.156430
0.913507 0.574895 0.192972
0.953737 0.606586 0.228329
0.973367 0.625637 0.254905
0.978742 0.635904 0.273036
0.983542 0.645551 0.292713
0.636295 0.727409 0.258475
0.636403 0.727471 0.258492
0.636528 0.727544 0.258512
0.639512 0.730099 0.261447
0.639735 0.730235 0.261464
0.642930 0.731471 0.262346
0.645906 0.731206 0.254526
0.648660 0.732971 0.256258
0.652336 0.734840 0.262492
0.655092 0.737548 0.270025
0.659641 0.740800 0.277224
0.670487 0.745198 0.284287
0.676557 0.750027 0.291923
0.681867 0.752481 0.296015
0.693276 0.752453 0.292253
0.703873 0.752729 0.290456
0.718008 0.749909 0.291358
0.733621 0.744199 0.281819
0.746806 0.736977 0.277328
0.763095 0.730257 0.274662
0.780806 0.718189 0.276308
0.834857 0.691686 0.279413
0.879967 0.663897 0.268305
0.897096 0.633088 0.243102
0.900051 0.620834 0.222443
0.868018 0.584586 0.206031
0.859013 0.565422 0.197301
0.867344 0.558338 0.179915
0.897674 0.573386 0.181618
0.938746 0.605898 0.219526
0.972742 0.638271 0.252276
0.981980 0.651714 0.273684
0.985951 0.662365 0.287322
0.660395 0.745024 0.290371
0.660482 0.745091 0.290442
0.660584 0.745169 0.290525
0.660926 0.744617 0.290300
0.661464 0.745807 0.294063
0.663220 0.747733 0.302104
0.668545 0.749936 0.302258
0.673690 0.754371 0.313641
0.677080 0.755079 0.313703
0.678879 0.756392 0.316905
0.682521 0.758936 0.319198
0.688197 0.763351 0.333739
0.696342 0.765916 0.333877
0.708769 0.769333 0.337873
0.715811 0.771618 0.341024
0.719816 0.769085 0.346200
0.732603 0.763180 0.329191
0.742962 0.759586 0.329847
0.754776 0.753018 0.316417
0.767260 0.746372 0.308952
0.789748 0.732033 0.311151
0.820315 0.708319 0.303022
0.875675 0.684468 0.302047
0.902095 0.656966 0.286996
0.895471 0.633054 0.248965
0.885163 0.610351 0.232383
0.886219 0.601372 0.218411
0.885530 0.591285 0.200841
0.893298 0.588104 0.189012
0.935466 0.618810 0.210963
0.971219 0.652073 0.253486
0.984039 0.667767 0.272824
0.988550 0.676498 0.285634
0.680321 0.762086 0.336772
0.680389 0.762140 0.336863
0.681392 0.762582 0.336050
0.682748 0.763269 0.335091
0.682921 0.763406 0.335342
0.687212 0.767299 0.341092
0.689016 0.767717 0.342195
0.692983 0.771144 0.352807
0.694554 0.771287 0.353523
0.695919 0.772263 0.359590
0.702893 0.774698 0.366447
0.706687 0.775754 0.365911
0.715457 0.779723 0.380898
0.720775 0.782150 0.384335
0.727754 0.781832 0.384224
0.734860 0.778885 0.378293
0.744003 0.776038 0.373235
0.748785 0.768479 0.361616
0.760798 0.761937 0.352390
0.766592 0.755868 0.342621
0.786920 0.737247 0.328500
0.829977 0.720315 0.328473
0.871685 0.693887 0.326173
0.889201 0.666700 0.303533
0.896743 0.648503 0.270224
0.901770 0.645193 0.263324
0.899128 0.631725 0.239027
0.899119 0.617893 0.215525
0.922196 0.632944 0.208460
0.943420 0.641742 0.210057
0.966687 0.658357 0.232570
0.979872 0.671850 0.256509
0.985086 0.679933 0.281016
0.698191 0.777536 0.381793
0.698241 0.777570 0.381850
0.698298 0.777610 0.381916
0.701121 0.777332 0.378851
0.702958 0.777504 0.380910
0.703138 0.777593 0.381042
0.708060 0.782082 0.389762
0.711276 0.783903 0.391137
0.714897 0.786986 0.400953
0.717659 0.789266 0.406242
0.719597 0.789225 0.405198
0.721147 0.789840 0.408969
0.728769 0.789822 0.413954
0.733431 0.788252 0.410209
0.738978 0.786655 0.410061
0.746144 0.779166 0.394627
0.752902 0.776379 0.386372
0.758613 0.769963 0.368231
0.766132 0.761581 0.354129
0.779824 0.755275 0.348590
0.811487 0.739184 0.349457
0.855742 0.717422 0.341305
0.878515 0.698333 0.332329
0.906765 0.679666 0.314397
0.904203 0.670917 0.290054
0.910236 0.660091 0.263527
0.911544 0.652081 0.249444
0.914882 0.646629 0.232024
0.931880 0.654444 0.222221
0.943594 0.654607 0.214741
0.958323 0.662339 0.224811
0.970112 0.671865 0.249654
0.979180 0.684043 0.269083
0.717449 0.789284 0.407360
0.717499 0.789312 0.407412
0.717556 0.789345 0.407472
0.717640 0.789392 0.407560
0.717755 0.789458 0.407681
0.721267 0.792048 0.411804
0.723725 0.791263 0.412330
0.726295 0.792357 0.417493
0.727877 0.794997 0.433301
0.730870 0.792312 0.428033
0.732449 0.793265 0.430153
0.737024 0.794219 0.435325
0.743856 0.795431 0.438776
0.749146 0.792314 0.427473
0.749305 0.789960 0.420549
0.757108 0.785076 0.406802
0.760161 0.780144 0.397588
0.766689 0.774049 0.387873
0.781861 0.772374 0.381784
0.806764 0.761295 0.380962
0.835445 0.730356 0.357688
0.883689 0.731071 0.370091
0.901158 0.726789 0.363831
0.924093 0.710553 0.338766
0.927672 0.706197 0.323414
0.926798 0.692718 0.294383
0.927792 0.679971 0.273454
0.933190 0.678919 0.260917
0.945489 0.682379 0.244727
0.955400 0.683971 0.242142
0.962099 0.685930 0.249090
0.971453 0.692093 0.258512
0.978880 0.701454 0.272032
0.728647 0.797626 0.441191
0.728681 0.797640 0.441216
0.728721 0.797655 0.441245
0.731972 0.796233 0.441365
0.733454 0.798221 0.448863
0.735525 0.800206 0.451220
0.738983 0.800833 0.454527
0.743765 0.800966 0.449392
0.746233 0.800175 0.447097
0.749367 0.799221 0.445494
0.752896 0.798844 0.441646
0.753107 0.798725 0.441232
0.751910 0.795640 0.434082
0.755878 0.792615 0.427329
0.760025 0.787812 0.417577
0.760781 0.782266 0.410335
0.770775 0.781932 0.410707
0.786311 0.776503 0.401074
0.808035 0.770261 0.402462
0.839367 0.756643 0.397576
0.880768 0.750819 0.402320
0.898187 0.746101 0.391848
0.927331 0.751500 0.392096
0.940794 0.745496 0.380935
0.939339 0.728912 0.343141
0.944262 0.723616 0.322140
0.949581 0.724490 0.314907
0.950292 0.718838 0.298367
0.964215 0.725967 0.290733
0.970580 0.725720 0.278864
0.972441 0.718399 0.274042
0.977597 0.722607 0.276163
0.985017 0.735435 0.286838
0.749331 0.802195 0.454066
0.749353 0.802190 0.454036
0.750188 0.802285 0.451462
0.750225 0.802277 0.451411
0.750276 0.802267 0.451341
0.752890 0.801059 0.445706
0.752961 0.801033 0.445585
0.752808 0.801055 0.447190
0.753976 0.799441 0.442385
0.753368 0.797276 0.438626
0.754348 0.792608 0.432562
0.755784 0.792644 0.434490
0.760424 0.790288 0.431738
0.762320 0.788022 0.425383
0.767068 0.786584 0.429137
0.783525 0.785703 0.427570
0.811501 0.789473 0.433441
0.832402 0.785435 0.441751
0.859375 0.778440 0.435600
0.890625 0.771205 0.425739
0.914041 0.769247 0.421992
0.934674 0.767534 0.410312
0.950325 0.772237 0.413876
0.953204 0.768196 0.396213
0.956635 0.757243 0.362142
0.962139 0.756594 0.353904
0.970329 0.759353 0.340712
0.982845 0.769584 0.337585
0.983589 0.765361 0.325407
0.983070 0.764200 0.323179
0.986549 0.762272 0.318849
0.987430 0.758092 0.309468
0.988827 0.762729 0.317280
0.753743 0.797567 0.443974
0.753758 0.797556 0.443949
0.753733 0.798080 0.448287
0.754955 0.797436 0.445187
0.756023 0.798142 0.447024
0.757704 0.796267 0.443717
0.756083 0.794496 0.443012
0.757591 0.794165 0.444867
0.758203 0.792738 0.441877
0.760895 0.790822 0.437083
0.759641 0.790184 0.440256
0.760555 0.792564 0.446687
0.785167 0.797716 0.455606
0.796014 0.798229 0.464271
0.803421 0.798391 0.462646
0.830670 0.791256 0.456704
0.848213 0.788457 0.454671
0.873958 0.787929 0.453954
0.901530 0.791315 0.455590
0.935093 0.792135 0.453420
0.945240 0.788689 0.432309
0.958779 0.786376 0.428316
0.964549 0.793126 0.426481
0.967029 0.790080 0.409398
0.973689 0.793983 0.407560
0.985814 0.801441 0.397195
0.990295 0.808735 0.398198
0.990254 0.802551 0.385135
0.990935 0.803177 0.379767
0.992034 0.799486 0.368819
0.994361 0.806227 0.374479
0.994650 0.800380 0.365286
0.994667 0.801693 0.368738
0.761482 0.801359 0.470803
0.761501 0.801348 0.470797
0.761523 0.801335 0.470791
0.761553 0.801316 0.470781
0.762741 0.800149 0.467191
0.762329 0.797397 0.463099
0.768047 0.800361 0.472517
0.768173 0.800339 0.472533
0.772623 0.799434 0.474342
0.785830 0.802991 0.480851
0.793976 0.804239 0.480180
0.804986 0.804190 0.477626
0.822474 0.806645 0.478083
0.843272 0.808213 0.480603
0.852761 0.799732 0.472510
0.870642 0.800564 0.473853
0.898242 0.810218 0.481421
0.934753 0.813789 0.477013
0.937481 0.811241 0.476446
0.965992 0.818450 0.474511
0.976639 0.823758 0.469166
0.979576 0.826818 0.469693
0.986663 0.830486 0.462119
0.990759 0.834912 0.458224
0.990990 0.829191 0.444508
0.992824 0.832224 0.440016
0.995700 0.836802 0.438028
0.995593 0.829581 0.420691
0.995529 0.826605 0.412242
