backend/lut_outputs/lut_dsc04635.cube
TITLE "DSC04635"
LUT_3D_SIZE 9
0.082208 0.079158 0.121672
0.224675 0.056925 0.039451
0.388867 0.065586 0.021117
0.503027 0.139567 0.067791
0.504338 0.121692 0.045428
0.700429 0.098095 0.080810
0.708478 0.088513 0.062934
0.890467 0.177112 0.117989
0.938856 0.280110 0.174181
0.105057 0.268707 0.051811
0.250651 0.273663 0.049789
0.481812 0.260192 0.042742
0.522786 0.225193 0.060047
0.534952 0.193253 0.022503
0.652941 0.172044 0.063412
0.772617 0.124707 0.080416
0.895731 0.188108 0.122541
0.945440 0.280330 0.172487
0.281033 0.442529 0.089525
0.286733 0.448686 0.065757
0.375981 0.409512 0.036194
0.629779 0.402640 0.106841
0.711376 0.398912 0.059242
0.620080 0.286378 0.054459
0.807146 0.405290 0.168512
0.909732 0.240162 0.138052
0.959623 0.302781 0.183084
0.413444 0.583445 0.073647
0.423921 0.590851 0.061128
0.451601 0.610601 0.033647
0.509001 0.546187 0.026936
0.711905 0.492888 0.160180
0.825083 0.513160 0.134041
0.843537 0.498300 0.070259
0.922703 0.525030 0.234254
0.967297 0.562221 0.285855
0.557069 0.677444 0.166983
0.572880 0.683802 0.176452
0.604794 0.700132 0.187050
0.638646 0.714119 0.186957
0.662996 0.687538 0.137484
0.795739 0.624428 0.256778
0.868511 0.573717 0.179557
0.947260 0.608605 0.209955
0.979754 0.623949 0.286279
0.680321 0.762086 0.336772
0.682921 0.763406 0.335342
0.694554 0.771287 0.353523
0.715457 0.779723 0.380898
0.744003 0.776038 0.373235
0.786920 0.737247 0.328500
0.896743 0.648503 0.270224
0.922196 0.632944 0.208460
0.985086 0.679933 0.281016
0.749331 0.802195 0.454066
0.750276 0.802267 0.451341
0.753976 0.799441 0.442385
0.760424 0.790288 0.431738
0.811501 0.789473 0.433441
0.914041 0.769247 0.421992
0.956635 0.757243 0.362142
0.983589 0.765361 0.325407
0.988827 0.762729 0.317280
0.850491 0.823298 0.509673
0.865735 0.827118 0.517531
0.905539 0.842063 0.527062
0.941768 0.848090 0.527660
0.987595 0.854375 0.508323
0.995493 0.860473 0.497169
0.997587 0.865488 0.494220
0.997606 0.869375 0.505031
0.997680 0.879487 0.531100
0.998448 0.896521 0.585851
0.998385 0.897924 0.588910
0.998382 0.897979 0.589012
0.998308 0.898893 0.587093
0.998190 0.901444 0.593784
0.997977 0.903400 0.602055
0.997989 0.907157 0.617538
0.997920 0.911123 0.631563
0.997941 0.916876 0.658134
0.033712 0.097913 0.288857
0.193351 0.108882 0.222692
0.393722 0.012940 0.084501
0.629576 0.055222 0.130887
0.568267 0.106029 0.105139
0.712466 0.076159 0.088849
0.788437 0.118452 0.092562
0.906100 0.181142 0.124069
0.942865 0.291839 0.182580
0.101527 0.242844 0.248843
0.217741 0.214182 0.211451
0.441814 0.216200 0.177800
0.486404 0.165329 0.105224
0.524087 0.133029 0.077578
0.668042 0.094210 0.075735
0.797155 0.134997 0.095565
0.901011 0.191933 0.127165
0.952809 0.295298 0.183263
0.270333 0.432980 0.161646
0.287140 0.439508 0.203688
0.410492 0.401090 0.173362
0.618255 0.394282 0.205067
0.697019 0.361023 0.102577
0.717026 0.318098 0.107796
0.859342 0.402440 0.232196
0.922250 0.236468 0.148191
0.965870 0.313491 0.188308
0.411211 0.581372 0.127125
0.417165 0.586496 0.126999
0.460386 0.606421 0.161849
0.503097 0.509164 0.055898
0.735885 0.485245 0.215251
0.815180 0.502282 0.164104
0.923298 0.559869 0.098859
0.933976 0.530277 0.266634
0.969505 0.550087 0.286815
0.560795 0.682280 0.210525
0.577824 0.691155 0.217350
0.605215 0.703314 0.221800
0.639615 0.718776 0.203493
0.663990 0.673279 0.134963
0.802212 0.619213 0.277936
0.872072 0.578225 0.188377
0.961211 0.621851 0.223962
0.981356 0.620506 0.294594
0.680456 0.764123 0.345892
0.688478 0.770247 0.355798
0.696408 0.775964 0.377019
0.717256 0.782378 0.388206
0.741434 0.774895 0.379270
0.785138 0.734020 0.323160
0.903647 0.658748 0.286951
0.921088 0.629249 0.203742
0.987242 0.682243 0.283508
0.749265 0.801928 0.453463
0.750060 0.802447 0.453444
0.753578 0.801760 0.451145
0.758537 0.791967 0.438092
0.804943 0.793774 0.446346
0.909912 0.774542 0.437001
0.957486 0.771212 0.387563
0.984996 0.770941 0.333937
0.989580 0.765388 0.320645
0.845564 0.824141 0.516369
0.871824 0.832747 0.530770
0.895402 0.840365 0.534595
0.942542 0.849438 0.529896
0.987004 0.856045 0.513441
0.995474 0.861718 0.501373
0.997555 0.866613 0.496850
0.997696 0.871234 0.508551
0.997716 0.880532 0.533512
0.998296 0.897466 0.588718
0.998385 0.897947 0.589013
0.998382 0.898006 0.589125
0.998305 0.900064 0.591183
0.998190 0.901489 0.593966
0.997977 0.903471 0.602305
0.997903 0.908145 0.617889
0.997939 0.912350 0.636960
0.997868 0.920044 0.669311
0.001560 0.124900 0.427880
0.156263 0.149423 0.359645
0.382194 0.128475 0.296654
0.523615 0.057015 0.162553
0.648905 0.102585 0.229565
0.681899 0.107879 0.103513
0.832338 0.161165 0.131144
0.906842 0.201021 0.148598
0.955342 0.269861 0.177457
0.026134 0.207017 0.427214
0.108649 0.179089 0.394647
0.395128 0.178379 0.314323
0.587511 0.140724 0.258545
0.690835 0.169355 0.263355
0.734225 0.164519 0.152612
0.866567 0.184124 0.148914
0.910367 0.210521 0.163537
0.965889 0.282769 0.180961
0.121164 0.403355 0.452555
0.193309 0.410479 0.430403
0.379698 0.379379 0.376910
0.600679 0.392939 0.361359
0.722155 0.383375 0.314560
0.793868 0.355770 0.255087
0.969981 0.345759 0.237899
0.955850 0.270950 0.178395
0.977627 0.328345 0.197343
0.360912 0.564678 0.366275
0.352329 0.564759 0.378865
0.409418 0.581675 0.389853
0.520741 0.510781 0.286314
0.711309 0.507751 0.342750
0.785979 0.466631 0.229335
0.900769 0.500230 0.293199
0.954472 0.542138 0.313661
0.975461 0.514086 0.295837
0.554771 0.691737 0.333313
0.569764 0.699649 0.334882
0.593388 0.712951 0.348487
0.628034 0.736425 0.386997
0.678285 0.655903 0.200447
0.837493 0.626484 0.341904
0.882420 0.591617 0.256537
0.965193 0.604711 0.271751
0.984281 0.613263 0.307338
0.690548 0.777559 0.403724
0.694442 0.780216 0.403502
0.700803 0.782915 0.411268
0.722870 0.792430 0.428900
0.742019 0.782419 0.401418
0.788528 0.729985 0.336290
0.909795 0.680471 0.315020
0.896633 0.605756 0.216424
0.992900 0.690844 0.300110
0.750503 0.805686 0.463247
0.749240 0.804557 0.465037
0.752974 0.800072 0.457124
0.757948 0.794193 0.458459
0.795588 0.794609 0.469138
0.895127 0.783645 0.451253
0.963401 0.794014 0.432085
0.985730 0.780602 0.349289
0.990552 0.764046 0.316501
0.846058 0.830461 0.543916
0.861281 0.837444 0.554694
0.894242 0.843611 0.559050
0.925986 0.853732 0.553484
0.979338 0.866066 0.552819
0.995523 0.865674 0.516764
0.997602 0.868755 0.503539
0.997922 0.876703 0.523158
0.997657 0.882699 0.539640
0.998194 0.900643 0.599322
0.998265 0.901686 0.602735
0.998268 0.901603 0.600343
0.998282 0.904171 0.608524
0.998195 0.904598 0.606288
0.998019 0.910961 0.626469
0.998017 0.910788 0.630735
0.998035 0.916646 0.656258
0.998120 0.923699 0.683525
0.000837 0.202376 0.579218
0.076700 0.219133 0.588358
0.277540 0.199911 0.515007
0.550443 0.140537 0.308542
0.664097 0.130453 0.284141
0.765648 0.241239 0.356491
0.884758 0.213215 0.188221
0.963152 0.261298 0.214767
0.969038 0.291969 0.202821
0.005718 0.270600 0.605937
0.075855 0.251852 0.597325
0.314658 0.219583 0.548499
0.598514 0.219597 0.387601
0.693051 0.165777 0.320757
0.785335 0.280878 0.378609
0.895000 0.223230 0.192808
0.972037 0.280764 0.229832
0.971450 0.296205 0.205020
0.079697 0.400033 0.529848
0.206795 0.408688 0.558831
0.244143 0.294480 0.489199
0.584934 0.380775 0.503225
0.775523 0.374807 0.475408
0.839232 0.409340 0.451882
0.937531 0.281057 0.228168
0.989587 0.292091 0.262966
0.981059 0.324473 0.219719
0.204744 0.547081 0.609248
0.253278 0.555905 0.598048
0.358923 0.564905 0.554526
0.521408 0.520472 0.516897
0.713646 0.544262 0.510351
0.835047 0.545519 0.486029
0.898935 0.470078 0.304309
0.964557 0.469554 0.284588
0.978188 0.461782 0.284925
0.352121 0.658964 0.547789
0.371402 0.665493 0.549643
0.448693 0.685944 0.552406
0.592500 0.717424 0.535647
0.653779 0.637697 0.426296
0.787998 0.595548 0.454232
0.890685 0.593695 0.323527
0.957242 0.597043 0.287877
0.987535 0.627195 0.358771
0.685695 0.783608 0.469910
0.693023 0.787890 0.478152
0.705457 0.794992 0.479562
0.723087 0.804099 0.497325
0.714889 0.783366 0.456663
0.776625 0.731418 0.357263
0.922260 0.717584 0.406304
0.956412 0.693989 0.260739
0.997031 0.687758 0.241960
0.741489 0.805546 0.488556
0.742773 0.800957 0.481545
0.745106 0.796984 0.477294
0.756104 0.792962 0.478796
0.795107 0.803552 0.498900
0.884721 0.820113 0.520982
0.974248 0.826696 0.506467
0.990632 0.818007 0.398820
0.989703 0.775658 0.336621
0.838289 0.841189 0.578790
0.847631 0.843561 0.589806
0.873123 0.847778 0.585866
0.902475 0.853822 0.584152
0.960760 0.867215 0.578790
0.991347 0.867280 0.537125
0.997781 0.880404 0.539643
0.997734 0.883848 0.541239
0.997739 0.888392 0.557344
0.998377 0.903474 0.613418
0.998376 0.903499 0.613470
0.998416 0.904513 0.615704
0.998250 0.905385 0.617446
0.998269 0.907857 0.626581
0.998069 0.913129 0.641269
0.998222 0.919156 0.662894
0.998101 0.924728 0.684089
0.998145 0.927974 0.697898
0.000564 0.254039 0.674519
0.000742 0.261879 0.696909
0.208214 0.290283 0.735882
0.439730 0.300619 0.718453
0.680629 0.202404 0.388235
0.772531 0.267525 0.420086
0.891847 0.296800 0.336658
0.979790 0.285419 0.233612
0.979395 0.298048 0.222447
0.000000 0.272903 0.710898
0.001688 0.266655 0.714116
0.267610 0.308840 0.751174
0.467097 0.331606 0.775110
0.724419 0.231283 0.398453
0.799456 0.313089 0.452053
0.916967 0.334441 0.366088
0.979387 0.287804 0.234844
0.982849 0.311245 0.226596
0.070334 0.402958 0.756998
0.093033 0.405726 0.763778
0.249495 0.364177 0.730595
0.444607 0.375854 0.707234
0.796643 0.364966 0.508454
0.853296 0.430693 0.561645
0.934626 0.391044 0.398764
0.985685 0.306033 0.246972
0.988118 0.342366 0.243736
0.079720 0.553574 0.656124
0.090185 0.559328 0.663952
0.245701 0.461445 0.627025
0.352481 0.407423 0.588131
0.656021 0.502018 0.597528
0.877643 0.587463 0.622379
0.905350 0.580738 0.567670
0.975581 0.416545 0.286674
0.985383 0.443191 0.301426
0.271629 0.642512 0.647374
0.275013 0.641713 0.649797
0.289362 0.629931 0.639582
0.463077 0.653763 0.639176
0.640970 0.638354 0.636819
0.820693 0.668238 0.646178
0.909361 0.635036 0.487078
0.954635 0.616240 0.391724
0.990513 0.652126 0.448191
0.485575 0.713198 0.645073
0.520256 0.726138 0.639091
0.574741 0.744733 0.636937
0.662167 0.769812 0.595029
0.676978 0.761475 0.578847
0.779079 0.756550 0.557193
0.912046 0.730953 0.529194
0.946874 0.694443 0.431885
0.985223 0.711719 0.335464
0.683004 0.797849 0.599784
0.683992 0.796518 0.599541
0.720664 0.797652 0.557570
0.747135 0.790193 0.530510
0.773886 0.795988 0.536627
0.840830 0.833392 0.577448
0.955806 0.857264 0.611830
0.983851 0.822511 0.529638
0.985404 0.798066 0.406820
0.813019 0.836930 0.618605
0.826960 0.844601 0.622631
0.845419 0.854995 0.645079
0.873043 0.863642 0.639452
0.916333 0.876064 0.644994
0.964958 0.875054 0.606269
0.997769 0.887999 0.596998
0.997892 0.898824 0.601355
0.997838 0.904451 0.610540
0.973003 0.901952 0.640457
0.981515 0.903747 0.640424
0.989672 0.909118 0.648791
0.998442 0.911891 0.645805
0.998256 0.915437 0.656821
0.998336 0.920766 0.675549
0.998200 0.925405 0.689226
0.998019 0.931654 0.714486
0.997914 0.933879 0.724540
0.000312 0.299254 0.765394
0.000463 0.304682 0.774663
0.085894 0.322630 0.800695
0.391382 0.353337 0.824656
0.570345 0.379427 0.769750
0.783433 0.317156 0.474534
0.893135 0.399678 0.478308
0.975274 0.295376 0.246655
0.983955 0.312028 0.233857
0.000000 0.318528 0.793279
0.001367 0.322416 0.799929
0.177556 0.339561 0.813757
0.419073 0.371031 0.841295
0.594931 0.394741 0.768424
0.808236 0.366472 0.514272
0.898503 0.417038 0.490217
0.980457 0.299164 0.248734
0.984216 0.318932 0.235508
0.002581 0.379286 0.816349
0.012178 0.391430 0.828132
0.230630 0.396287 0.854965
0.434812 0.433168 0.861291
0.604340 0.426743 0.724196
0.847455 0.454959 0.582104
0.912739 0.476068 0.529016
0.985819 0.326679 0.250718
0.988226 0.361875 0.255899
0.102518 0.528488 0.863685
0.109722 0.537963 0.870211
0.200832 0.568478 0.881464
0.346269 0.484898 0.780673
0.484079 0.458560 0.715988
0.840862 0.582613 0.662330
0.889620 0.619665 0.631777
0.970412 0.442528 0.347302
0.990309 0.432868 0.304427
0.187718 0.670289 0.769664
0.192169 0.673635 0.773373
0.216740 0.686337 0.786632
0.375352 0.568139 0.745482
0.465314 0.522551 0.677221
0.716437 0.617419 0.682334
0.871488 0.705653 0.701152
0.947865 0.622859 0.471892
0.979348 0.620804 0.407086
0.329164 0.693401 0.748153
0.335959 0.695491 0.748906
0.357945 0.700083 0.746969
0.388928 0.713262 0.753706
0.572362 0.738297 0.745741
0.738805 0.736973 0.733422
0.891243 0.734741 0.671286
0.920801 0.633485 0.454440
0.943866 0.690440 0.463134
0.520943 0.791915 0.812547
0.532338 0.793747 0.811859
0.554876 0.800153 0.814608
0.621744 0.808872 0.797307
0.722440 0.820029 0.737050
0.790320 0.830692 0.674580
0.892689 0.863241 0.689427
0.955200 0.764720 0.533176
0.931607 0.708758 0.467938
0.789975 0.843772 0.688746
0.798321 0.845696 0.687076
0.813752 0.852226 0.687972
0.840666 0.864669 0.699477
0.857551 0.869332 0.697160
0.904343 0.885939 0.715501
0.971468 0.891761 0.682866
0.998619 0.905523 0.676862
0.996025 0.910208 0.690177
0.943032 0.902515 0.697835
0.956389 0.907499 0.700498
0.964795 0.908308 0.692407
0.986190 0.912812 0.678966
0.997370 0.923684 0.699555
0.998291 0.928693 0.709634
0.998091 0.933837 0.729230
0.997954 0.938295 0.749025
0.997926 0.940904 0.761584
0.000000 0.352958 0.850905
0.000368 0.353696 0.851676
0.066161 0.359569 0.861395
0.227251 0.367231 0.863189
0.378708 0.401215 0.874607
0.686277 0.415427 0.707439
0.873219 0.443413 0.562787
0.958711 0.345680 0.336889
0.988935 0.339024 0.251740
0.000000 0.365682 0.862790
0.000000 0.365600 0.863823
0.089310 0.364345 0.867909
0.243597 0.388185 0.879350
0.346821 0.417233 0.884738
0.673022 0.442733 0.732284
0.878515 0.460540 0.570961
0.962706 0.358096 0.340393
0.988323 0.348358 0.255258
0.000003 0.370633 0.865490
0.003936 0.372733 0.873402
0.050333 0.391257 0.891631
0.236789 0.416758 0.897321
0.344193 0.461282 0.898146
0.679792 0.494136 0.750391
0.871279 0.512944 0.620019
0.968060 0.412866 0.357819
0.991582 0.383426 0.276446
0.017654 0.494892 0.916777
0.042549 0.512690 0.926730
0.152862 0.496911 0.912421
0.279581 0.518035 0.904183
0.450605 0.562896 0.920330
0.593120 0.571727 0.828032
0.840810 0.634643 0.689541
0.951414 0.544282 0.488987
0.992418 0.434440 0.309860
0.239758 0.618023 0.907337
0.247932 0.623618 0.908865
0.280372 0.634946 0.904393
0.472154 0.682015 0.950595
0.526553 0.644606 0.894503
0.537179 0.586993 0.758319
0.756564 0.678784 0.745135
0.904572 0.684485 0.622805
0.941124 0.605777 0.444879
0.343976 0.715166 0.787386
0.354141 0.716569 0.786748
0.381599 0.721283 0.797774
0.450727 0.723598 0.825006
0.530723 0.672640 0.839697
0.659848 0.711360 0.826206
0.783544 0.754563 0.806593
0.890650 0.675625 0.581277
0.953124 0.691486 0.516921
0.509303 0.795546 0.827191
0.515597 0.797113 0.827158
0.540318 0.802339 0.827356
0.576764 0.809696 0.828026
0.679062 0.824835 0.826223
0.734680 0.814521 0.827036
0.812546 0.813339 0.795537
0.937485 0.726559 0.600150
0.959178 0.721330 0.543602
0.752336 0.844619 0.776446
0.759500 0.846213 0.780469
0.776959 0.850751 0.775870
0.807694 0.861506 0.780750
0.831334 0.873226 0.797942
0.857279 0.888317 0.813229
0.909262 0.899993 0.805982
0.956769 0.862207 0.711558
0.984500 0.841270 0.605040
0.886034 0.895357 0.796844
0.890574 0.897734 0.798198
0.896857 0.897839 0.791242
0.930581 0.909062 0.783673
0.973229 0.923355 0.773123
0.993013 0.937139 0.784226
0.997074 0.943114 0.798892
0.997490 0.952687 0.828142
0.997702 0.956114 0.841488
0.000274 0.384988 0.898100
0.000248 0.383312 0.897199
0.001538 0.383667 0.900632
0.092140 0.392830 0.911645
0.209214 0.425386 0.923432
0.363681 0.466166 0.906190
0.675643 0.511644 0.768314
0.917268 0.442824 0.494404
0.989186 0.365848 0.269621
0.000299 0.385925 0.900519
0.000503 0.387425 0.903243
0.000818 0.390539 0.908302
0.071179 0.403216 0.924561
0.196604 0.438014 0.931292
0.344636 0.490430 0.921999
0.672696 0.526220 0.776609
0.912983 0.469539 0.517292
0.988151 0.368777 0.269719
0.000629 0.405338 0.922019
0.000703 0.408010 0.925526
0.005773 0.419348 0.939014
0.078617 0.443816 0.945813
0.204947 0.474258 0.938631
0.346714 0.523825 0.936695
0.609455 0.574135 0.856293
0.913066 0.509929 0.542543
0.991775 0.399122 0.287355
0.000000 0.468170 0.955469
0.029094 0.470820 0.959681
0.164697 0.468301 0.929250
0.218669 0.503461 0.937186
0.342214 0.547943 0.948672
0.456714 0.607607 0.960880
0.549736 0.652703 0.944000
0.840918 0.632451 0.674988
0.967196 0.534166 0.439745
0.232711 0.601451 0.952192
0.248332 0.605560 0.954525
0.323070 0.630058 0.968085
0.412882 0.636517 0.974149
0.482617 0.678098 0.980211
0.567617 0.710726 0.982876
0.633456 0.709740 0.899328
0.770467 0.730337 0.794176
0.916552 0.665635 0.566891
0.491978 0.736268 0.978190
0.495051 0.738151 0.978004
0.507833 0.742566 0.980995
0.547617 0.758344 0.981718
0.617014 0.771345 0.972498
0.707902 0.755011 0.941480
0.743902 0.770660 0.870905
0.814748 0.804171 0.854976
0.927784 0.726084 0.612555
0.520285 0.797153 0.840634
0.521217 0.797389 0.840855
0.542446 0.798748 0.844719
0.588529 0.794692 0.855390
0.693947 0.785672 0.879127
0.736123 0.810215 0.901455
0.821074 0.856185 0.925245
0.852058 0.845921 0.866476
0.938437 0.738043 0.610013
0.738805 0.837139 0.864581
0.756503 0.841865 0.864988
0.774827 0.846509 0.866900
0.788104 0.852447 0.882419
0.814188 0.865489 0.892325
0.829111 0.873884 0.899634
0.834966 0.874340 0.905253
0.893528 0.904872 0.913253
0.987130 0.866592 0.752881
0.868710 0.896526 0.877286
0.871321 0.898026 0.877917
0.871228 0.898793 0.881051
0.876627 0.899729 0.883198
0.910086 0.911884 0.882689
0.953444 0.927789 0.869408
0.994129 0.953146 0.872867
0.995988 0.963148 0.896952
0.997400 0.974704 0.924075
0.000812 0.399560 0.919186
0.000924 0.401767 0.921721
0.000931 0.410175 0.931864
0.029104 0.424645 0.943128
0.104294 0.449453 0.946695
0.205609 0.483578 0.942803
0.384735 0.541590 0.938554
0.668352 0.568193 0.811641
0.964386 0.441743 0.395277
0.000713 0.409465 0.929411
0.000927 0.411682 0.932666
0.000594 0.418733 0.940168
0.036422 0.437313 0.949513
0.124782 0.459072 0.949868
0.216876 0.488563 0.943974
0.402381 0.570311 0.956290
0.654923 0.589947 0.839869
0.957136 0.485722 0.438801
0.000598 0.431887 0.947723
0.000572 0.436156 0.952187
0.018446 0.442295 0.958226
0.089100 0.457360 0.957163
0.157589 0.474045 0.948532
0.328253 0.537916 0.948186
0.453889 0.611255 0.966278
0.618945 0.654895 0.911528
0.890409 0.565897 0.581477
0.053356 0.465081 0.962583
0.087710 0.470933 0.962889
0.121357 0.475763 0.957257
0.189082 0.506282 0.956675
0.309856 0.558333 0.957536
0.436775 0.617685 0.969204
0.537691 0.679504 0.983800
0.585985 0.697715 0.954753
0.871988 0.672605 0.687137
0.286459 0.594389 0.970861
0.316246 0.602379 0.975461
0.368529 0.625851 0.979027
0.416450 0.641329 0.979704
0.460651 0.667972 0.982895
0.541190 0.708688 0.988061
0.574776 0.725231 0.984575
0.712331 0.754576 0.892724
0.846349 0.771725 0.800739
0.489696 0.722552 0.989614
0.493575 0.725096 0.990334
0.506657 0.733973 0.990567
0.538273 0.748171 0.992932
0.613387 0.758431 0.992558
0.636188 0.759154 0.974102
0.734752 0.794419 0.932204
0.807585 0.827017 0.904730
0.864914 0.814301 0.823782
0.569740 0.784974 0.923681
0.577886 0.783805 0.926006
0.600647 0.779212 0.929343
0.653057 0.783411 0.924481
0.708797 0.795334 0.907978
0.768545 0.831141 0.923912
0.831159 0.869481 0.944368
0.856089 0.880111 0.929635
0.891908 0.841736 0.822031
0.780934 0.847376 0.915336
0.788642 0.853464 0.920850
0.797026 0.859692 0.924276
0.814000 0.871540 0.931121
0.846838 0.893248 0.948284
0.857414 0.899082 0.952838
0.864792 0.900195 0.949090
0.884338 0.906475 0.939086
0.944436 0.897179 0.866843
0.859982 0.895483 0.927869
0.861372 0.896616 0.929712
0.861778 0.896447 0.931211
0.869182 0.898945 0.926494
0.884534 0.907003 0.927034
0.923465 0.924963 0.920243
0.979053 0.962056 0.932189
0.997539 0.977706 0.940984
0.998279 0.987188 0.962402
