backend/lut_outputs/lut_f3e51c5f.xmp
<?xpacket begin="" id="W5M0MpCehiHzreSzNTczkc9d"?>
<x:xmpmeta xmlns:x="adobe:ns:meta/" x:xmptk="Photo Manager XMP Generator">
 <rdf:RDF xmlns:rdf="http://www.w3.org/1999/02/22-rdf-syntax-ns#">
  <rdf:Description rdf:about=""
   xmlns:crs="http://ns.adobe.com/camera-raw-settings/1.0/"
   crs:Version="15.0"
   crs:ProcessVersion="15.4"
   crs:Temperature="5515"
   crs:Tint="0"
   crs:Exposure2012="0.25"
   crs:Contrast2012="-4"
   crs:Highlights2012="1"
   crs:Shadows2012="5"
   crs:Whites2012="0"
   crs:Blacks2012="3"
   crs:Texture="-1"
   crs:Clarity="-2"
   crs:Dehaze="0"
   crs:Vibrance="1"
   crs:Saturation="2"
    crs:HueAdjustmentRed="0"
    crs:SaturationAdjustmentRed="5"
    crs:LuminanceAdjustmentRed="16"
    crs:HueAdjustmentOrange="0"
    crs:SaturationAdjustmentOrange="1"
    crs:LuminanceAdjustmentOrange="11"
    crs:HueAdjustmentYellow="0"
    crs:SaturationAdjustmentYellow="-1"
    crs:LuminanceAdjustmentYellow="9"
    crs:HueAdjustmentGreen="1"
    crs:SaturationAdjustmentGreen="1"
    crs:LuminanceAdjustmentGreen="5"
    crs:HueAdjustmentAqua="0"
    crs:SaturationAdjustmentAqua="0"
    crs:LuminanceAdjustmentAqua="0"
    crs:HueAdjustmentBlue="1"
    crs:SaturationAdjustmentBlue="-3"
    crs:LuminanceAdjustmentBlue="10"
    crs:HueAdjustmentPurple="0"
    crs:SaturationAdjustmentPurple="0"
    crs:LuminanceAdjustmentPurple="0"
    crs:HueAdjustmentMagenta="0"
    crs:SaturationAdjustmentMagenta="0"
    crs:LuminanceAdjustmentMagenta="0"
   crs:ColorGradeShadowsHue="6"
   crs:ColorGradeShadowsSat="-9"
   crs:ColorGradeMidtonesHue="0"
   crs:ColorGradeMidtonesSat="2"
   crs:ColorGradeHighlightsHue="0"
   crs:ColorGradeHighlightsSat="0"
   crs:RedPrimaryHue="7"
   crs:RedPrimarySat="1"
   crs:GreenPrimaryHue="0"
   crs:GreenPrimarySat="1"
   crs:BluePrimaryHue="0"
   crs:BluePrimarySat="1">
    <crs:ToneCurvePV2012>
     <rdf:Seq>
      <rdf:li>0.000000 0.019608</rdf:li>
      <rdf:li>0.043137 0.105882</rdf:li>
      <rdf:li>0.082353 0.188235</rdf:li>
      <rdf:li>0.227451 0.384314</rdf:li>
      <rdf:li>0.513726 0.647059</rdf:li>
      <rdf:li>0.839216 0.862745</rdf:li>
      <rdf:li>1.000000 1.000000</rdf:li>
     </rdf:Seq>
    </crs:ToneCurvePV2012>
  </rdf:Description>
 </rdf:RDF>
</x:xmpmeta>
<?xpacket end="w"?>