backend/lut_outputs/lut_76e4688c.cube
TITLE "Generated LUT"
LUT_3D_SIZE 9
DOMAIN_MIN 0.0 0.0 0.0
DOMAIN_MAX 1.0 1.0 1.0
0.122797 0.115053 0.104064
0.207837 0.187092 0.180701
0.177528 0.148094 0.143556
0.222391 0.177230 0.177609
0.152482 0.140505 0.160290
0.173545 0.146592 0.167383
0.132508 0.154180 0.169659
0.511111 0.253595 0.257516
0.579471 0.248730 0.256743
0.152186 0.191637 0.117046
0.172444 0.199635 0.099700
0.149268 0.118407 0.082046
0.225355 0.157161 0.122174
0.178733 0.128054 0.103620
0.137255 0.074510 0.078431
0.400000 0.223529 0.094118
0.101961 0.121569 0.121569
0.488235 0.214216 0.213725
0.241216 0.285075 0.173259
0.181441 0.224494 0.111334
0.264442 0.298327 0.150890
0.086380 0.076974 0.063063
0.153069 0.126242 0.102529
0.160226 0.124352 0.105220
0.100553 0.074108 0.062645
0.090196 0.096078 0.090196
0.603486 0.247495 0.254030
0.104762 0.114846 0.062745
0.195473 0.248087 0.131442
0.175472 0.217264 0.088256
0.326144 0.367320 0.216340
0.329412 0.329412 0.321569
0.126216 0.084241 0.056064
0.331433 0.279201 0.233730
0.129205 0.091950 0.075335
0.621961 0.243922 0.253333
0.064314 0.042876 0.029542
0.227451 0.263529 0.208627
0.166516 0.222026 0.100465
0.155296 0.198470 0.060320
0.219608 0.290196 0.123529
0.096078 0.094118 0.086275
0.167507 0.108123 0.064986
0.073420 0.063290 0.057734
0.135276 0.101254 0.078873
0.064575 0.044444 0.029020
0.115033 0.124183 0.066667
0.218301 0.262092 0.152941
0.181126 0.227197 0.107378
0.205160 0.268318 0.133815
0.090196 0.137255 0.019608
0.349020 0.152941 0.062745
0.022549 0.016667 0.017647
0.169212 0.104678 0.078363
0.063399 0.042266 0.028105
0.066667 0.043137 0.031373
0.086275 0.113725 0.072549
0.054902 0.078431 0.050980
0.054902 0.062745 0.054902
0.301961 0.380392 0.192157
0.750000 0.750000 0.000000
0.875000 0.750000 0.000000
0.447059 0.249020 0.121569
0.070588 0.050980 0.035294
0.125000 0.875000 0.000000
0.250000 0.875000 0.000000
0.375000 0.875000 0.000000
0.317647 0.384314 0.200000
0.301961 0.380392 0.192157
0.750000 0.875000 0.000000
0.875000 0.875000 0.000000
1.000000 0.875000 0.000000
0.000000 1.000000 0.000000
0.125000 1.000000 0.000000
0.250000 1.000000 0.000000
0.375000 1.000000 0.000000
0.500000 1.000000 0.000000
0.625000 1.000000 0.000000
0.750000 1.000000 0.000000
0.875000 1.000000 0.000000
1.000000 1.000000 0.000000
0.308221 0.307111 0.315279
0.166797 0.162614 0.158431
0.210957 0.120069 0.161822
0.138562 0.133987 0.147843
0.299423 0.187928 0.222145
0.213333 0.175948 0.191111
0.202778 0.211438 0.235621
0.252288 0.245316 0.278867
0.409548 0.213470 0.229156
0.261737 0.280083 0.273381
0.113236 0.112999 0.095125
0.148608 0.127857 0.120926
0.179412 0.144155 0.130241
0.157033 0.149020 0.124979
0.241176 0.200000 0.172549
0.286275 0.243137 0.203922
0.478431 0.254902 0.121569
0.301961 0.223529 0.250980
0.316971 0.356863 0.278161
0.114754 0.148144 0.096576
0.242390 0.263922 0.147467
0.171099 0.149996 0.121140
0.250215 0.223498 0.184377
0.220825 0.179986 0.146586
0.039216 0.035294 0.027451
0.039216 0.035294 0.031373
0.409150 0.209804 0.229412
0.396078 0.478431 0.364706
0.185953 0.234073 0.142752
0.215310 0.264749 0.148519
0.360784 0.391317 0.245938
0.400784 0.312941 0.225882
0.164280 0.160188 0.153538
0.052181 0.044178 0.035934
0.058039 0.052549 0.033725
0.669281 0.275163 0.292810
0.066667 0.036601 0.033987
0.054902 0.050980 0.035294
0.155265 0.201892 0.101108
0.185661 0.228756 0.086997
0.384314 0.447059 0.313726
0.321569 0.137255 0.086275
0.082353 0.066667 0.054902
0.222497 0.196491 0.159959
0.197479 0.169468 0.184314
0.078431 0.043137 0.023529
0.211765 0.282353 0.098039
0.250980 0.341176 0.137255
0.212916 0.277025 0.136360
0.187611 0.246108 0.085413
0.147059 0.217647 0.031373
0.192157 0.096078 0.039216
0.082353 0.062745 0.045752
0.157785 0.154233 0.154787
0.078431 0.047059 0.035294
0.666667 0.596078 0.541176
0.678431 0.607843 0.552941
0.149020 0.200000 0.078431
0.129412 0.176471 0.090196
0.317647 0.392157 0.188235
0.337255 0.419608 0.156863
0.523529 0.429412 0.276471
0.188235 0.207843 0.235294
0.058824 0.039216 0.027451
0.125000 0.875000 0.125000
0.250000 0.875000 0.125000
0.152941 0.223529 0.058824
0.368627 0.364706 0.337255
0.427451 0.501961 0.262745
0.337255 0.419608 0.156863
0.875000 0.875000 0.125000
0.447059 0.231373 0.109804
0.000000 1.000000 0.125000
0.125000 1.000000 0.125000
0.250000 1.000000 0.125000
0.375000 1.000000 0.125000
0.500000 1.000000 0.125000
0.625000 1.000000 0.125000
0.750000 1.000000 0.125000
0.875000 1.000000 0.125000
1.000000 1.000000 0.125000
0.499085 0.459608 0.439739
0.165686 0.185294 0.186275
0.262745 0.207843 0.172549
0.209804 0.229412 0.135294
0.202941 0.198039 0.188235
0.284967 0.189542 0.186275
0.135294 0.145425 0.155882
0.181961 0.191765 0.202353
0.090196 0.082353 0.086275
0.453303 0.469140 0.470416
0.272541 0.273125 0.278968
0.224837 0.230065 0.232190
0.225810 0.134774 0.179792
0.243137 0.251961 0.260784
0.098039 0.103922 0.109804
0.186275 0.212418 0.245098
0.239216 0.250980 0.254902
0.113725 0.105882 0.109804
0.676403 0.706018 0.706558
0.221862 0.250953 0.241101
0.171288 0.167041 0.146950
0.166923 0.144230 0.133309
0.161127 0.143775 0.141495
0.169063 0.149891 0.126797
0.066667 0.109804 0.039216
0.082353 0.082353 0.074510
0.682353 0.194118 0.143137
0.072549 0.093137 0.081373
0.130237 0.152735 0.109185
0.179120 0.210055 0.154240
0.310398 0.333278 0.196183
0.280223 0.223980 0.177081
0.203361 0.178375 0.144006
0.180760 0.155515 0.125919
0.099346 0.087582 0.069935
0.478431 0.254902 0.109804
0.213725 0.252941 0.156863
0.282353 0.305882 0.264706
0.136936 0.187693 0.090985
0.249731 0.300109 0.179843
0.265179 0.302907 0.139419
0.382073 0.306022 0.214146
0.232985 0.219477 0.198039
0.188962 0.168337 0.154248
0.302696 0.199510 0.210662
0.070588 0.045098 0.031373
0.060784 0.084314 0.039216
0.129412 0.176471 0.003922
0.167001 0.225578 0.104467
0.210282 0.271016 0.109854
0.282353 0.396078 0.184314
0.520261 0.403922 0.266667
0.126667 0.109412 0.081569
0.195518 0.177671 0.165186
0.078431 0.047059 0.035294
0.054902 0.058824 0.070588
0.039216 0.058824 0.019608
0.221569 0.213725 0.131373
0.187843 0.274510 0.102745
0.171242 0.194771 0.057516
0.217647 0.307843 0.021569
0.071242 0.072549 0.062092
0.186727 0.203620 0.218100
0.000000 0.875000 0.250000
0.125000 0.875000 0.250000
0.250000 0.875000 0.250000
0.349020 0.349020 0.325490
0.313726 0.396078 0.129412
0.192157 0.247059 0.152941
0.223529 0.278431 0.184314
0.466667 0.231373 0.086275
0.466667 0.231373 0.086275
0.000000 1.000000 0.250000
0.125000 1.000000 0.250000
0.250000 1.000000 0.250000
0.375000 1.000000 0.250000
0.500000 1.000000 0.250000
0.625000 1.000000 0.250000
0.750000 1.000000 0.250000
0.875000 1.000000 0.250000
1.000000 1.000000 0.250000
0.407843 0.415686 0.411765
0.466667 0.466667 0.466667
0.141176 0.156863 0.172549
0.337255 0.286275 0.247059
0.435294 0.392157 0.368627
0.094118 0.101961 0.090196
0.396078 0.094118 0.215686
0.488627 0.204706 0.315294
0.227451 0.227451 0.227451
0.339824 0.347803 0.360649
0.107665 0.103743 0.097683
0.490196 0.490196 0.482353
0.270588 0.247059 0.201961
0.441830 0.411765 0.384314
0.090196 0.107843 0.086275
0.209804 0.223529 0.243137
0.341176 0.298039 0.262745
0.066667 0.058824 0.062745
0.457303 0.476120 0.473287
0.330456 0.343084 0.355115
0.251743 0.261948 0.260451
0.252941 0.270915 0.267974
0.221961 0.214118 0.191373
0.230392 0.163235 0.193137
0.178431 0.200000 0.213725
0.213235 0.213235 0.216667
0.266667 0.262745 0.266667
0.306863 0.317647 0.312255
0.197445 0.250980 0.238146
0.233917 0.248225 0.238685
0.246381 0.229884 0.203032
0.253553 0.236045 0.216183
0.197059 0.169020 0.160065
0.282353 0.213725 0.188235
0.082353 0.078431 0.070588
0.090196 0.086275 0.078431
0.294118 0.403922 0.396078
0.115686 0.153431 0.134314
0.187800 0.223486 0.176950
0.243800 0.273065 0.210705
0.300943 0.331564 0.181547
0.426063 0.336392 0.257674
0.251784 0.215397 0.186403
0.134118 0.136471 0.136471
0.142157 0.147059 0.156863
0.301961 0.388235 0.298039
0.113725 0.121569 0.117647
0.223529 0.282353 0.192157
0.164611 0.222581 0.115579
0.240246 0.290774 0.177501
0.101961 0.137255 0.054902
0.589706 0.516667 0.386765
0.311667 0.264216 0.210882
0.286275 0.262185 0.237535
0.109804 0.109804 0.109804
0.129412 0.129412 0.129412
0.184314 0.282353 0.121569
0.105882 0.141176 0.094118
0.178828 0.245140 0.111076
0.199314 0.261765 0.107059
0.321569 0.363399 0.284967
0.070588 0.069935 0.053595
0.218722 0.211090 0.204976
0.000000 0.875000 0.375000
0.125000 0.875000 0.375000
0.019608 0.023529 0.031373
0.603922 0.603922 0.600000
0.298039 0.396078 0.262745
0.200000 0.252941 0.105882
0.207843 0.262745 0.164706
0.200000 0.211765 0.239216
0.227941 0.226716 0.233578
0.000000 1.000000 0.375000
0.125000 1.000000 0.375000
0.250000 1.000000 0.375000
0.375000 1.000000 0.375000
0.500000 1.000000 0.375000
0.625000 1.000000 0.375000
0.750000 1.000000 0.375000
0.875000 1.000000 0.375000
0.439216 0.231373 0.090196
0.047059 0.040523 0.040523
0.462745 0.462745 0.462745
0.466667 0.466667 0.466667
0.054902 0.074510 0.058824
0.023529 0.023529 0.023529
0.074510 0.066667 0.070588
0.109804 0.078431 0.070588
0.143791 0.137255 0.096732
0.070588 0.047059 0.035294
0.048179 0.042017 0.031373
0.050980 0.047059 0.039216
0.195098 0.214706 0.174510
0.031373 0.027451 0.019608
0.098039 0.098039 0.117647
0.062745 0.062745 0.062745
0.043137 0.062745 0.039216
0.298039 0.341176 0.184314
0.054902 0.054902 0.062745
0.619505 0.627038 0.632921
0.265882 0.246275 0.207843
0.198284 0.222304 0.187010
0.393189 0.391950 0.390918
0.352941 0.407843 0.196078
0.373203 0.279085 0.259477
0.278431 0.286275 0.254902
0.074510 0.054902 0.039216
0.301961 0.364706 0.125490
0.286673 0.257721 0.231572
0.561158 0.587115 0.597199
0.335283 0.340969 0.353072
0.289699 0.301869 0.302412
0.265015 0.262126 0.278225
0.188029 0.219608 0.166151
0.250980 0.282353 0.311765
0.168627 0.168627 0.160784
0.251961 0.249020 0.250980
0.224837 0.209150 0.179085
0.195817 0.231634 0.229281
0.201136 0.259158 0.247193
0.280730 0.297572 0.283013
0.281988 0.257940 0.227304
0.109217 0.100579 0.096327
0.143850 0.175758 0.177718
0.164706 0.176471 0.180392
0.293137 0.293137 0.296078
0.210980 0.328235 0.274510
0.222222 0.321569 0.267974
0.116993 0.151634 0.137255
0.179234 0.209002 0.163993
0.285434 0.311014 0.257272
0.280129 0.301516 0.203113
0.503824 0.421620 0.345448
0.246275 0.203137 0.174902
0.282353 0.150980 0.090196
0.282353 0.391176 0.319608
0.096078 0.111765 0.105882
0.082353 0.117647 0.098039
0.175163 0.224837 0.135948
0.174524 0.236439 0.110720
0.246039 0.289176 0.182902
0.368627 0.371569 0.219608
0.343905 0.292242 0.234953
0.291877 0.246499 0.211485
0.000000 0.875000 0.500000
0.086275 0.109804 0.098039
0.145098 0.168627 0.152941
0.113725 0.176471 0.160784
0.043137 0.050980 0.047059
0.064706 0.103922 0.019608
0.097059 0.141176 0.029412
0.274510 0.235294 0.239216
0.192375 0.192375 0.196732
0.000000 1.000000 0.500000
0.125000 1.000000 0.500000
0.250000 1.000000 0.500000
0.375000 1.000000 0.500000
0.500000 1.000000 0.500000
0.400000 0.415686 0.411765
0.309804 0.407843 0.184314
0.337255 0.450980 0.243137
0.470588 0.247059 0.101961
0.047059 0.047059 0.039216
0.125000 0.000000 0.625000
0.015686 0.015686 0.015686
0.015686 0.015686 0.015686
0.023529 0.023529 0.023529
0.625000 0.000000 0.625000
0.750000 0.000000 0.625000
0.058824 0.043137 0.043137
0.058824 0.047059 0.043137
0.047059 0.043137 0.039776
0.019608 0.011765 0.015686
0.054902 0.129412 0.027451
0.023529 0.023529 0.019608
0.019608 0.019608 0.019608
0.019608 0.019608 0.019608
0.043137 0.047059 0.031373
0.058824 0.043137 0.043137
0.070588 0.054902 0.039216
0.229412 0.232353 0.204902
0.054902 0.078431 0.035294
0.062745 0.103268 0.020915
0.156863 0.194118 0.149020
0.062745 0.082353 0.066667
0.039216 0.031373 0.031373
0.054902 0.092157 0.056863
0.066667 0.066667 0.074510
0.082353 0.078431 0.070588
0.535028 0.551053 0.585282
0.632353 0.674510 0.726471
0.321569 0.282353 0.268627
0.194118 0.216993 0.165359
0.295425 0.315033 0.301307
0.266667 0.368627 0.156863
0.050980 0.094118 0.054902
0.129412 0.180392 0.113725
0.145098 0.141176 0.121569
0.231065 0.257363 0.238370
0.731373 0.760784 0.801961
0.598731 0.622607 0.644983
0.353462 0.363908 0.379554
0.376236 0.381481 0.389782
0.210196 0.218301 0.226928
0.210458 0.206536 0.232353
0.291503 0.291503 0.291503
0.240784 0.240784 0.240784
0.271373 0.291765 0.257255
0.266667 0.282353 0.219608
0.183391 0.256055 0.244983
0.314909 0.346282 0.327858
0.328102 0.342848 0.326940
0.311647 0.294860 0.260558
0.270221 0.247181 0.217892
0.464706 0.450980 0.422549
0.331373 0.331373 0.323529
0.310196 0.427451 0.389020
0.105882 0.145098 0.141176
0.121569 0.160784 0.156863
0.117647 0.154902 0.082353
0.190588 0.213595 0.166013
0.299546 0.326598 0.277656
0.277526 0.309201 0.204827
0.282843 0.240196 0.180882
0.309804 0.233333 0.167974
0.254902 0.211765 0.196078
0.227451 0.180392 0.160784
0.407843 0.439216 0.435294
0.184314 0.266667 0.247059
0.039216 0.043137 0.050980
0.276471 0.292157 0.250980
0.112418 0.117647 0.081046
0.220044 0.178068 0.156282
0.178735 0.187223 0.196698
0.000000 1.000000 0.625000
0.125000 1.000000 0.625000
0.250000 1.000000 0.625000
0.439216 0.215686 0.101961
0.439216 0.215686 0.101961
0.400000 0.415686 0.411765
0.349020 0.360784 0.356863
0.164706 0.188235 0.133333
0.250980 0.139216 0.058824
0.045752 0.043137 0.041830
0.125000 0.000000 0.750000
0.250000 0.000000 0.750000
0.375000 0.000000 0.750000
0.023529 0.023529 0.023529
0.625000 0.000000 0.750000
0.750000 0.000000 0.750000
0.875000 0.000000 0.750000
1.000000 0.000000 0.750000
0.039651 0.037037 0.033987
0.039216 0.027451 0.027451
0.039216 0.027451 0.027451
0.023529 0.019608 0.023529
0.023529 0.023529 0.023529
0.019608 0.019608 0.019608
0.023529 0.019608 0.015686
0.875000 0.125000 0.750000
1.000000 0.125000 0.750000
0.041830 0.037908 0.033987
0.047059 0.043137 0.035294
0.058824 0.125490 0.035294
0.035294 0.109804 0.019608
0.019608 0.015686 0.011765
0.027451 0.023529 0.019608
0.027451 0.023529 0.019608
0.109804 0.105882 0.098039
0.109804 0.105882 0.098039
0.027451 0.027451 0.027451
0.109804 0.035294 0.043137
0.236601 0.328105 0.392157
0.078431 0.133333 0.050980
0.125490 0.196078 0.050980
0.015686 0.015686 0.015686
0.443137 0.400000 0.376471
0.137255 0.137255 0.137255
0.125490 0.113725 0.101961
0.311826 0.348346 0.381556
0.584314 0.616993 0.635294
0.658824 0.670588 0.673529
0.443137 0.454902 0.452941
0.202941 0.182353 0.196078
0.588235 0.568627 0.556863
0.321569 0.325490 0.341176
0.223529 0.250980 0.286275
0.287582 0.290196 0.292810
0.458578 0.518873 0.500980
0.694118 0.698039 0.674510
0.711765 0.756863 0.794118
0.569844 0.592630 0.615821
0.764279 0.796725 0.832219
0.357731 0.374255 0.389343
0.194118 0.198319 0.226331
0.130392 0.122549 0.152941
0.317647 0.317647 0.317647
0.239216 0.290196 0.262745
0.266667 0.490196 0.501961
0.070588 0.078431 0.066667
0.362353 0.398431 0.370588
0.269480 0.292924 0.269054
0.358030 0.375764 0.358816
0.542839 0.541384 0.510541
0.237647 0.247843 0.220392
1.000000 0.988235 0.976471
0.219608 0.168627 0.137255
0.094118 0.145098 0.145098
0.211765 0.160784 0.141176
0.156863 0.200000 0.184314
0.403922 0.431373 0.403922
0.462255 0.492157 0.485784
0.372426 0.382475 0.351471
0.239216 0.245098 0.129412
0.499510 0.371405 0.302941
0.223529 0.172549 0.149020
0.125000 1.000000 0.750000
0.250000 1.000000 0.750000
0.439216 0.215686 0.101961
0.082353 0.125490 0.058824
0.400000 0.215686 0.101961
0.074510 0.109804 0.031373
0.407843 0.207843 0.105882
0.371242 0.267320 0.198366
0.000000 0.000000 0.875000
0.125000 0.000000 0.875000
0.250000 0.000000 0.875000
0.375000 0.000000 0.875000
0.500000 0.000000 0.875000
0.625000 0.000000 0.875000
0.750000 0.000000 0.875000
0.875000 0.000000 0.875000
1.000000 0.000000 0.875000
0.035294 0.035294 0.027451
0.015686 0.015686 0.015686
0.015686 0.015686 0.015686
0.023529 0.023529 0.019608
0.023529 0.023529 0.023529
0.023529 0.023529 0.023529
0.750000 0.125000 0.875000
0.875000 0.125000 0.875000
1.000000 0.125000 0.875000
0.022222 0.018954 0.018954
0.047059 0.031373 0.031373
0.015686 0.015686 0.015686
0.047059 0.109804 0.015686
0.031373 0.027451 0.023529
0.027451 0.023529 0.019608
0.023529 0.015686 0.023529
0.023529 0.015686 0.019608
1.000000 0.250000 0.875000
0.103137 0.100000 0.092549
0.019608 0.019608 0.019608
0.082353 0.141176 0.027451
0.094118 0.169281 0.037908
0.074510 0.129412 0.039216
0.015686 0.015686 0.015686
0.015686 0.015686 0.015686
0.164706 0.149020 0.137255
0.164706 0.149020 0.137255
0.023529 0.015686 0.019608
0.647059 0.647059 0.639216
0.313726 0.364706 0.447059
0.145098 0.164706 0.209150
0.062745 0.082353 0.066667
0.715033 0.732026 0.745098
0.176471 0.168627 0.156863
0.117647 0.129412 0.203922
0.117647 0.129412 0.203922
0.493137 0.521569 0.522549
0.749020 0.784314 0.819608
0.752941 0.792157 0.827451
0.409804 0.433333 0.449020
0.105882 0.117647 0.094118
0.258824 0.254902 0.266667
0.439216 0.464706 0.460784
0.129412 0.105882 0.101961
0.188235 0.198039 0.254902
0.352767 0.519303 0.501351
0.466667 0.666667 0.690196
0.665597 0.685205 0.673084
0.752941 0.792157 0.831373
0.404146 0.421289 0.421064
0.826178 0.847892 0.872353
0.528720 0.541253 0.549942
0.178431 0.178431 0.194118
0.250980 0.254902 0.270588
0.247059 0.180392 0.129412
0.294118 0.501961 0.545098
0.254902 0.349020 0.337255
0.349020 0.435294 0.423529
0.270588 0.352941 0.101961
0.263305 0.307563 0.258824
0.377106 0.392644 0.373320
0.400407 0.426231 0.323816
0.776471 0.537255 0.298039
0.223529 0.172549 0.149020
0.125000 1.000000 0.875000
0.250000 1.000000 0.875000
0.375000 1.000000 0.875000
0.262745 0.352941 0.172549
0.027451 0.015686 0.050980
0.239216 0.274510 0.266667
0.105882 0.145098 0.078431
0.497479 0.401961 0.333613
0.000000 0.000000 1.000000
0.125000 0.000000 1.000000
0.250000 0.000000 1.000000
0.375000 0.000000 1.000000
0.500000 0.000000 1.000000
0.625000 0.000000 1.000000
0.750000 0.000000 1.000000
0.875000 0.000000 1.000000
1.000000 0.000000 1.000000
0.039216 0.031373 0.031373
0.015686 0.015686 0.015686
0.023529 0.023529 0.023529
0.023529 0.023529 0.019608
0.023529 0.023529 0.023529
0.019608 0.019608 0.019608
0.750000 0.125000 1.000000
0.875000 0.125000 1.000000
1.000000 0.125000 1.000000
0.027332 0.022698 0.024955
0.023529 0.023529 0.023529
0.019608 0.019608 0.019608
0.023529 0.023529 0.023529
0.015686 0.015686 0.015686
0.023529 0.015686 0.023529
0.023529 0.015686 0.019608
0.023529 0.015686 0.019608
1.000000 0.250000 1.000000
0.023373 0.020510 0.020941
0.027451 0.031373 0.023529
0.015686 0.015686 0.015686
0.027451 0.019608 0.023529
0.015686 0.015686 0.015686
0.015686 0.015686 0.019608
0.023529 0.015686 0.019608
0.023529 0.015686 0.019608
1.000000 0.375000 1.000000
0.023440 0.019251 0.020232
0.027451 0.019608 0.023529
0.015686 0.019608 0.019608
0.031373 0.031373 0.031373
0.027451 0.027451 0.027451
0.015686 0.015686 0.019608
0.027451 0.019608 0.023529
0.027451 0.019608 0.023529
1.000000 0.500000 1.000000
0.025708 0.023529 0.022222
0.023529 0.023529 0.023529
0.033333 0.033333 0.029412
0.027451 0.027451 0.027451
0.031373 0.023529 0.019608
0.207843 0.250980 0.152941
0.027451 0.019608 0.023529
0.031373 0.023529 0.027451
0.203922 0.223529 0.258824
0.266667 0.270588 0.283660
0.262745 0.269281 0.281046
0.266667 0.278431 0.288889
0.749020 0.784314 0.811765
0.025490 0.019608 0.019608
0.200000 0.250980 0.156863
0.521569 0.517647 0.580392
0.294118 0.309804 0.356863
0.178431 0.196078 0.254902
0.027451 0.027451 0.027451
0.023529 0.023529 0.023529
0.752941 0.780392 0.811765
0.052941 0.052941 0.056863
0.560784 0.586928 0.547712
0.614006 0.654902 0.699160
0.575817 0.614052 0.569608
0.274510 0.327451 0.137255
0.133333 0.149020 0.082353
0.000000 1.000000 1.000000
0.125000 1.000000 1.000000
0.250000 1.000000 1.000000
0.756863 0.796078 0.831373
0.054902 0.043137 0.019608
0.007843 0.011765 0.031373
0.218627 0.214706 0.152941
0.235294 0.305882 0.109804
0.302823 0.226452 0.190776
