backend/lut_outputs/lut_df49e895.cube
TITLE "Generated LUT"
LUT_3D_SIZE 33
DOMAIN_MIN 0.0 0.0 0.0
DOMAIN_MAX 1.0 1.0 1.0
0.071917 0.073932 0.059662
0.176537 0.151606 0.108438
0.262985 0.221999 0.199140
0.282930 0.242503 0.215975
0.293333 0.258375 0.216583
0.319608 0.307843 0.265686
0.319608 0.307843 0.265686
0.294118 0.177778 0.107190
0.123529 0.127451 0.149020
0.123529 0.127451 0.149020
0.270588 0.321569 0.352941
1.000000 0.384314 0.184314
1.000000 0.384314 0.184314
1.000000 0.384314 0.184314
0.003922 0.000000 0.000000
1.000000 0.270588 0.023529
1.000000 0.270588 0.023529
1.000000 0.435294 0.227451
1.000000 0.435294 0.227451
1.000000 0.435294 0.227451
1.000000 0.435294 0.227451
1.000000 0.435294 0.227451
1.000000 0.290196 0.121569
1.000000 0.392157 0.200000
1.000000 0.392157 0.200000
0.996078 0.341176 0.137255
0.692157 0.000000 0.013725
0.692157 0.000000 0.013725
0.692157 0.000000 0.013725
0.988235 0.003922 0.039216
0.988235 0.003922 0.039216
0.996078 0.474510 0.254902
0.996078 0.474510 0.254902
0.176536 0.221865 0.120539
0.148566 0.144764 0.086114
0.168233 0.138094 0.101481
0.113780 0.083861 0.065756
0.154162 0.113701 0.084568
0.197232 0.149789 0.099039
0.231595 0.180318 0.140585
0.170473 0.120646 0.084660
0.209477 0.141503 0.119608
0.180392 0.146405 0.117647
0.270588 0.321569 0.352941
0.270588 0.321569 0.352941
0.317157 0.278431 0.222549
0.003922 0.000000 0.000000
0.003922 0.000000 0.000000
1.000000 0.270588 0.023529
1.000000 0.270588 0.023529
1.000000 0.435294 0.227451
1.000000 0.435294 0.227451
1.000000 0.435294 0.227451
1.000000 0.435294 0.227451
1.000000 0.435294 0.227451
1.000000 0.290196 0.121569
1.000000 0.392157 0.200000
1.000000 0.392157 0.200000
0.996078 0.341176 0.137255
0.692157 0.000000 0.013725
0.692157 0.000000 0.013725
0.692157 0.000000 0.013725
0.988235 0.003922 0.039216
0.988235 0.003922 0.039216
0.996078 0.474510 0.254902
0.796078 0.000000 0.000000
0.219353 0.334961 0.149150
0.176155 0.257270 0.092501
0.179864 0.240814 0.090134
0.155798 0.143974 0.112181
0.097441 0.079978 0.059764
0.162777 0.140892 0.076929
0.248992 0.200884 0.147225
0.330187 0.241543 0.167421
0.239618 0.179336 0.131825
0.228639 0.178134 0.139869
0.201830 0.131503 0.083922
0.169188 0.154062 0.143978
0.317157 0.278431 0.222549
0.003922 0.000000 0.000000
0.003922 0.000000 0.000000
0.286275 0.215686 0.160784
0.890196 0.666667 0.396078
0.909804 0.627451 0.329412
0.909804 0.627451 0.329412
1.000000 0.435294 0.227451
1.000000 0.435294 0.227451
1.000000 0.435294 0.227451
1.000000 0.290196 0.121569
1.000000 0.392157 0.200000
1.000000 0.392157 0.200000
0.996078 0.341176 0.137255
0.692157 0.000000 0.013725
0.692157 0.000000 0.013725
0.692157 0.000000 0.013725
0.988235 0.003922 0.039216
0.988235 0.003922 0.039216
0.796078 0.000000 0.000000
0.796078 0.000000 0.000000
0.229066 0.337889 0.138581
0.202272 0.302938 0.099971
0.194998 0.282664 0.079912
0.204636 0.271677 0.095810
0.211863 0.233242 0.092839
0.204320 0.172028 0.090717
0.157342 0.116688 0.049499
0.173570 0.144853 0.091095
0.244760 0.220419 0.111697
0.245316 0.160930 0.096224
0.213785 0.140820 0.093880
0.136134 0.087115 0.053782
0.316993 0.220915 0.149673
0.301961 0.228431 0.168627
0.286275 0.215686 0.160784
0.286275 0.215686 0.160784
0.142484 0.139869 0.154248
0.909804 0.627451 0.329412
0.909804 0.627451 0.329412
0.909804 0.627451 0.329412
0.000000 0.007843 0.003922
1.000000 0.003922 0.000000
0.996078 0.345098 0.180392
1.000000 0.000000 0.090196
1.000000 0.470588 0.298039
1.000000 0.470588 0.298039
0.692157 0.000000 0.013725
0.692157 0.000000 0.013725
0.692157 0.000000 0.013725
0.988235 0.003922 0.039216
0.254902 0.215686 0.211765
0.796078 0.000000 0.000000
0.796078 0.000000 0.000000
0.184314 0.201207 0.109804
0.283816 0.416548 0.166205
0.217576 0.320011 0.082549
0.217530 0.306681 0.078247
0.233132 0.317781 0.100695
0.248730 0.307622 0.112907
0.228471 0.199451 0.140078
0.185520 0.158874 0.081850
0.172483 0.173612 0.061216
0.118015 0.090686 0.041789
0.217544 0.112900 0.032611
0.232157 0.166797 0.128627
0.218100 0.126998 0.065762
0.156863 0.085154 0.045938
0.441830 0.376471 0.309804
0.554248 0.491503 0.399346
0.142484 0.139869 0.154248
0.909804 0.627451 0.329412
0.909804 0.627451 0.329412
0.000000 0.007843 0.003922
0.000000 0.007843 0.003922
0.472549 0.288235 0.168627
0.472549 0.288235 0.168627
0.086275 0.094118 0.090196
1.000000 0.470588 0.298039
1.000000 0.470588 0.298039
1.000000 0.470588 0.298039
0.203922 0.203922 0.196078
0.203922 0.203922 0.196078
0.203922 0.203922 0.196078
1.000000 0.035294 0.054902
1.000000 0.035294 0.054902
1.000000 0.035294 0.054902
0.151433 0.088386 0.060935
0.251541 0.379832 0.171989
0.229288 0.343774 0.092737
0.227047 0.330287 0.070329
0.239562 0.333942 0.070782
0.242758 0.320336 0.088015
0.200336 0.215238 0.116639
0.133736 0.138562 0.093514
0.155556 0.151634 0.154248
0.197232 0.160323 0.058131
0.125792 0.086275 0.052187
0.169412 0.076078 0.018039
0.280112 0.187675 0.123249
0.309804 0.190588 0.065098
0.208964 0.129972 0.082353
0.429412 0.317647 0.192157
0.181699 0.139869 0.100654
0.003922 0.000000 0.000000
0.000000 0.007843 0.003922
0.000000 0.007843 0.003922
0.472549 0.288235 0.168627
0.472549 0.288235 0.168627
0.086275 0.094118 0.090196
0.086275 0.094118 0.090196
0.086275 0.094118 0.090196
1.000000 0.470588 0.298039
1.000000 0.470588 0.298039
0.203922 0.203922 0.196078
0.203922 0.203922 0.196078
0.203922 0.203922 0.196078
0.345098 0.278431 0.239216
0.345098 0.278431 0.239216
0.345098 0.278431 0.239216
0.150980 0.086275 0.058824
0.254902 0.317647 0.176471
0.279008 0.425548 0.144002
0.232675 0.338253 0.103821
0.239024 0.339979 0.068027
0.266463 0.363532 0.074954
0.261195 0.338786 0.115537
0.176078 0.244706 0.163137
0.109559 0.156373 0.078431
0.123529 0.119608 0.060784
0.070588 0.215686 0.011765
0.232353 0.226471 0.172549
0.193627 0.110294 0.061765
0.202614 0.107190 0.045752
0.202614 0.107190 0.045752
0.003922 0.000000 0.000000
0.003922 0.000000 0.000000
0.168627 0.164706 0.162745
0.146405 0.150327 0.159477
0.146405 0.150327 0.159477
0.472549 0.288235 0.168627
0.086275 0.094118 0.090196
0.086275 0.094118 0.090196
0.086275 0.094118 0.090196
0.086275 0.094118 0.090196
0.250980 0.262745 0.290196
0.812500 0.187500 0.000000
0.843750 0.187500 0.000000
0.875000 0.187500 0.000000
0.345098 0.278431 0.239216
0.345098 0.278431 0.239216
0.345098 0.278431 0.239216
0.345098 0.278431 0.239216
0.152549 0.089020 0.061569
0.152549 0.089020 0.061569
0.176471 0.368627 0.007843
0.262621 0.374769 0.152630
0.250555 0.350215 0.113112
0.259843 0.357498 0.076497
0.271012 0.368393 0.071910
0.238978 0.331670 0.148069
0.118954 0.088889 0.057516
0.132549 0.147451 0.120000
0.141176 0.227451 0.145098
0.141176 0.227451 0.145098
0.193627 0.110294 0.061765
0.160784 0.074510 0.005229
0.160784 0.074510 0.005229
0.135294 0.062745 0.017647
0.135294 0.062745 0.017647
0.168627 0.164706 0.162745
0.274510 0.172549 0.035294
0.000000 0.000000 0.000000
0.000000 0.003922 0.000000
0.086275 0.094118 0.090196
0.086275 0.094118 0.090196
0.086275 0.094118 0.090196
0.086275 0.094118 0.090196
0.054902 0.054902 0.062745
0.054902 0.054902 0.062745
0.054902 0.054902 0.062745
0.054902 0.054902 0.062745
0.054902 0.054902 0.062745
0.345098 0.278431 0.239216
0.345098 0.278431 0.239216
0.345098 0.278431 0.239216
0.152549 0.089020 0.061569
0.152549 0.089020 0.061569
0.176471 0.368627 0.007843
0.262621 0.374769 0.152630
0.258955 0.387396 0.146412
0.258890 0.374892 0.103600
0.262903 0.366419 0.061866
0.277737 0.367807 0.085667
0.350980 0.301961 0.241176
0.082353 0.070588 0.050980
0.188235 0.152941 0.125490
0.211765 0.160784 0.137255
0.211765 0.160784 0.137255
0.168627 0.270588 0.156863
0.168627 0.270588 0.156863
0.135294 0.062745 0.017647
0.029412 0.017892 0.007108
0.052288 0.101961 0.061438
0.168627 0.086275 0.011765
0.137255 0.133333 0.152941
0.137255 0.133333 0.152941
0.000000 0.000000 0.000000
0.000000 0.000000 0.000000
0.000000 0.000000 0.000000
0.000000 0.000000 0.000000
0.054902 0.054902 0.062745
0.054902 0.054902 0.062745
0.054902 0.054902 0.062745
0.054902 0.054902 0.062745
0.054902 0.054902 0.062745
0.937500 0.250000 0.000000
0.968750 0.250000 0.000000
1.000000 0.250000 0.000000
0.156863 0.090196 0.062745
0.156863 0.090196 0.062745
0.176471 0.368627 0.007843
0.358170 0.541176 0.120261
0.358170 0.541176 0.120261
0.290693 0.450511 0.154198
0.255681 0.377333 0.115553
0.264634 0.359336 0.096050
0.302604 0.380649 0.151655
0.098039 0.078431 0.054902
0.098039 0.078431 0.054902
0.211765 0.160784 0.137255
0.109804 0.133333 0.078431
0.137255 0.156863 0.066667
0.137255 0.156863 0.066667
0.145098 0.207843 0.094118
0.145098 0.207843 0.094118
0.001307 0.000871 0.000000
0.168627 0.086275 0.011765
0.137255 0.133333 0.152941
0.301961 0.325490 0.372549
0.301961 0.325490 0.372549
0.301961 0.325490 0.372549
0.301961 0.325490 0.372549
0.000000 0.000000 0.000000
0.054902 0.054902 0.062745
0.054902 0.054902 0.062745
0.054902 0.054902 0.062745
0.054902 0.054902 0.062745
0.054902 0.054902 0.062745
0.937500 0.281250 0.000000
0.968750 0.281250 0.000000
1.000000 0.281250 0.000000
0.156863 0.090196 0.062745
0.156863 0.090196 0.062745
0.154902 0.088235 0.060784
0.358170 0.541176 0.120261
0.358170 0.541176 0.120261
0.245938 0.385994 0.144538
0.278456 0.416652 0.155718
0.277001 0.403816 0.151689
0.225400 0.331192 0.106305
0.158431 0.272157 0.132549
0.158431 0.272157 0.132549
0.162745 0.139216 0.107843
0.143791 0.105882 0.070588
0.137255 0.156863 0.066667
0.137255 0.156863 0.066667
0.145098 0.207843 0.094118
0.145098 0.207843 0.094118
0.282353 0.156863 0.007843
0.043137 0.023529 0.002801
0.014178 0.007843 0.001508
0.000000 0.000000 0.000000
0.301961 0.325490 0.372549
0.301961 0.325490 0.372549
0.000000 0.000000 0.000000
0.000000 0.000000 0.000000
0.007843 0.000000 0.003922
0.054902 0.054902 0.062745
0.054902 0.054902 0.062745
0.054902 0.054902 0.062745
0.054902 0.054902 0.062745
0.937500 0.312500 0.000000
0.968750 0.312500 0.000000
1.000000 0.312500 0.000000
0.156863 0.090196 0.062745
0.154902 0.088235 0.060784
0.154902 0.088235 0.060784
0.358170 0.541176 0.120261
0.245938 0.385994 0.144538
0.245938 0.385994 0.144538
0.288537 0.420211 0.098341
0.313176 0.440515 0.144573
0.338200 0.482475 0.223214
0.303442 0.446013 0.250893
0.303442 0.446013 0.250893
0.154902 0.266667 0.178039
0.143791 0.105882 0.070588
0.189542 0.145098 0.116340
0.172549 0.133333 0.090196
0.172549 0.133333 0.090196
0.388235 0.327451 0.272549
0.282353 0.156863 0.007843
0.043137 0.023529 0.002801
0.000000 0.000000 0.000000
0.000000 0.000000 0.000000
0.000000 0.000000 0.000000
0.121569 0.098039 0.098039
0.000000 0.000000 0.000000
0.000000 0.000000 0.000000
0.007843 0.000000 0.003922
0.007843 0.000000 0.003922
0.054902 0.054902 0.062745
0.054902 0.054902 0.062745
0.054902 0.054902 0.062745
0.196078 0.180392 0.176471
0.968750 0.343750 0.000000
1.000000 0.343750 0.000000
0.154902 0.088235 0.060784
0.154902 0.088235 0.060784
0.154902 0.088235 0.060784
0.245938 0.385994 0.144538
0.298039 0.349020 0.074510
0.298039 0.349020 0.074510
0.298039 0.349020 0.074510
0.290196 0.421373 0.152157
0.303209 0.445169 0.187558
0.306025 0.465722 0.222728
0.178328 0.318679 0.099484
0.178328 0.318679 0.099484
0.139216 0.270588 0.062745
0.172549 0.133333 0.090196
0.172549 0.133333 0.090196
0.172549 0.133333 0.090196
0.172549 0.133333 0.090196
0.282353 0.156863 0.007843
0.000000 0.000000 0.000000
0.000000 0.000000 0.000000
0.000000 0.000000 0.000000
0.000000 0.000000 0.000000
0.121569 0.098039 0.098039
0.003922 0.000000 0.007843
0.003922 0.000000 0.007843
0.003922 0.000000 0.007843
0.007843 0.000000 0.003922
0.007843 0.000000 0.003922
0.054902 0.054902 0.062745
0.054902 0.054902 0.062745
0.196078 0.180392 0.176471
0.968750 0.375000 0.000000
1.000000 0.375000 0.000000
0.154902 0.088235 0.060784
0.154902 0.088235 0.060784
0.154902 0.088235 0.060784
0.298039 0.349020 0.074510
0.298039 0.349020 0.074510
0.298039 0.349020 0.074510
0.298039 0.349020 0.074510
0.290196 0.421373 0.152157
0.232680 0.363725 0.120261
0.174292 0.305882 0.048148
0.232147 0.349123 0.081940
0.304575 0.439869 0.134641
0.304575 0.439869 0.134641
0.384314 0.547059 0.107843
0.172549 0.133333 0.090196
0.172549 0.133333 0.090196
0.172549 0.133333 0.090196
0.141176 0.247059 0.117647
0.000000 0.000000 0.000000
0.000000 0.000000 0.000000
0.000000 0.000000 0.000000
0.036275 0.029412 0.050980
0.003922 0.000000 0.007843
0.003922 0.000000 0.007843
0.003922 0.000000 0.007843
0.015686 0.015686 0.007843
0.015686 0.015686 0.007843
0.015686 0.015686 0.007843
0.196078 0.180392 0.176471
0.196078 0.180392 0.176471
0.196078 0.180392 0.176471
0.968750 0.406250 0.000000
1.000000 0.406250 0.000000
0.000000 0.437500 0.000000
0.031250 0.437500 0.000000
0.062500 0.437500 0.000000
0.298039 0.349020 0.074510
0.298039 0.349020 0.074510
0.298039 0.349020 0.074510
0.298039 0.349020 0.074510
0.232680 0.363725 0.120261
0.232680 0.363725 0.120261
0.174292 0.305882 0.048148
0.222222 0.309804 0.001307
0.366013 0.469281 0.108497
0.366013 0.469281 0.108497
0.384314 0.547059 0.107843
0.384314 0.547059 0.107843
0.154902 0.245098 0.121569
0.182353 0.135294 0.088235
0.141176 0.247059 0.117647
0.000000 0.000000 0.000000
0.000000 0.000000 0.000000
0.000000 0.000000 0.000000
0.036275 0.029412 0.050980
0.003922 0.000000 0.007843
0.003922 0.000000 0.007843
0.058824 0.062745 0.078431
0.713726 0.419608 0.305882
0.713726 0.419608 0.305882
0.713726 0.419608 0.305882
0.196078 0.180392 0.176471
0.196078 0.180392 0.176471
0.196078 0.180392 0.176471
0.968750 0.437500 0.000000
1.000000 0.437500 0.000000
0.000000 0.468750 0.000000
0.031250 0.468750 0.000000
0.062500 0.468750 0.000000
0.298039 0.349020 0.074510
0.298039 0.349020 0.074510
0.298039 0.349020 0.074510
0.232680 0.363725 0.120261
0.232680 0.363725 0.120261
0.232680 0.363725 0.120261
0.222222 0.309804 0.001307
0.222222 0.309804 0.001307
0.366013 0.469281 0.108497
0.366013 0.469281 0.108497
0.384314 0.547059 0.107843
0.154902 0.245098 0.121569
0.154902 0.245098 0.121569
0.154902 0.245098 0.121569
0.141176 0.247059 0.117647
0.000000 0.000000 0.000000
0.000000 0.000000 0.000000
0.000000 0.000000 0.000000
0.092157 0.082353 0.090196
0.705882 0.450980 0.294118
0.058824 0.062745 0.078431
0.058824 0.062745 0.078431
0.713726 0.419608 0.305882
0.713726 0.419608 0.305882
0.713726 0.419608 0.305882
0.003922 0.000000 0.000000
0.003922 0.000000 0.000000
0.003922 0.000000 0.000000
0.968750 0.468750 0.000000
1.000000 0.468750 0.000000
0.000000 0.500000 0.000000
0.031250 0.500000 0.000000
0.062500 0.500000 0.000000
0.093750 0.500000 0.000000
0.125000 0.500000 0.000000
0.232680 0.363725 0.120261
0.232680 0.363725 0.120261
0.232680 0.363725 0.120261
0.222222 0.309804 0.001307
0.222222 0.309804 0.001307
0.222222 0.309804 0.001307
0.366013 0.469281 0.108497
0.366013 0.469281 0.108497
0.154902 0.245098 0.121569
0.154902 0.245098 0.121569
0.154902 0.245098 0.121569
0.154902 0.245098 0.121569
0.270588 0.431373 0.266667
0.952941 0.831373 0.647059
0.952941 0.831373 0.647059
0.092157 0.082353 0.090196
0.092157 0.082353 0.090196
0.058824 0.062745 0.078431
0.058824 0.062745 0.078431
0.058824 0.062745 0.078431
0.713726 0.419608 0.305882
0.713726 0.419608 0.305882
0.003922 0.000000 0.000000
0.003922 0.000000 0.000000
0.003922 0.000000 0.000000
0.003922 0.000000 0.000000
0.968750 0.500000 0.000000
1.000000 0.500000 0.000000
0.000000 0.531250 0.000000
0.031250 0.531250 0.000000
0.062500 0.531250 0.000000
0.093750 0.531250 0.000000
0.125000 0.531250 0.000000
0.156250 0.531250 0.000000
0.325490 0.443137 0.058824
0.325490 0.443137 0.058824
0.222222 0.309804 0.001307
0.222222 0.309804 0.001307
0.222222 0.309804 0.001307
0.466667 0.568627 0.282353
0.330719 0.419608 0.169935
0.154902 0.245098 0.121569
0.154902 0.245098 0.121569
0.154902 0.245098 0.121569
0.154902 0.245098 0.121569
0.270588 0.431373 0.266667
0.562500 0.531250 0.000000
0.092157 0.082353 0.090196
0.092157 0.082353 0.090196
0.092157 0.082353 0.090196
0.058824 0.062745 0.078431
0.501961 0.345098 0.243137
0.501961 0.345098 0.243137
0.501961 0.345098 0.243137
0.498039 0.341176 0.239216
0.498039 0.341176 0.239216
0.498039 0.341176 0.239216
0.003922 0.000000 0.000000
0.003922 0.000000 0.000000
0.968750 0.531250 0.000000
1.000000 0.531250 0.000000
0.000000 0.562500 0.000000
0.031250 0.562500 0.000000
0.062500 0.562500 0.000000
0.093750 0.562500 0.000000
0.125000 0.562500 0.000000
0.156250 0.562500 0.000000
0.187500 0.562500 0.000000
0.218750 0.562500 0.000000
0.466667 0.568627 0.282353
0.466667 0.568627 0.282353
0.466667 0.568627 0.282353
0.466667 0.568627 0.282353
0.330719 0.419608 0.169935
0.154902 0.245098 0.121569
0.154902 0.245098 0.121569
0.154902 0.245098 0.121569
0.154902 0.245098 0.121569
0.270588 0.431373 0.266667
0.562500 0.562500 0.000000
0.593750 0.562500 0.000000
0.625000 0.562500 0.000000
0.656250 0.562500 0.000000
0.501961 0.345098 0.243137
0.501961 0.345098 0.243137
0.501961 0.345098 0.243137
0.501961 0.345098 0.243137
0.498039 0.341176 0.239216
0.498039 0.341176 0.239216
0.498039 0.341176 0.239216
0.498039 0.341176 0.239216
0.003922 0.000000 0.000000
0.968750 0.562500 0.000000
1.000000 0.562500 0.000000
0.000000 0.593750 0.000000
0.031250 0.593750 0.000000
0.062500 0.593750 0.000000
0.093750 0.593750 0.000000
0.125000 0.593750 0.000000
0.156250 0.593750 0.000000
0.187500 0.593750 0.000000
0.218750 0.593750 0.000000
0.250000 0.593750 0.000000
0.490196 0.611765 0.345098
0.490196 0.611765 0.345098
0.490196 0.611765 0.345098
0.490196 0.611765 0.345098
0.290980 0.427451 0.130980
0.290980 0.427451 0.130980
0.290980 0.427451 0.130980
0.290980 0.427451 0.130980
0.531250 0.593750 0.000000
0.562500 0.593750 0.000000
0.593750 0.593750 0.000000
0.625000 0.593750 0.000000
0.656250 0.593750 0.000000
0.501961 0.345098 0.243137
0.501961 0.345098 0.243137
0.501961 0.345098 0.243137
0.501961 0.345098 0.243137
0.498039 0.341176 0.239216
0.498039 0.341176 0.239216
0.498039 0.341176 0.239216
0.498039 0.341176 0.239216
0.937500 0.593750 0.000000
0.968750 0.593750 0.000000
1.000000 0.593750 0.000000
0.000000 0.625000 0.000000
0.031250 0.625000 0.000000
0.062500 0.625000 0.000000
0.093750 0.625000 0.000000
0.125000 0.625000 0.000000
0.156250 0.625000 0.000000
0.187500 0.625000 0.000000
0.218750 0.625000 0.000000
0.250000 0.625000 0.000000
0.281250 0.625000 0.000000
0.312500 0.625000 0.000000
0.343750 0.625000 0.000000
0.375000 0.625000 0.000000
0.406250 0.625000 0.000000
0.437500 0.625000 0.000000
0.468750 0.625000 0.000000
0.500000 0.625000 0.000000
0.531250 0.625000 0.000000
0.562500 0.625000 0.000000
0.593750 0.625000 0.000000
0.625000 0.625000 0.000000
0.656250 0.625000 0.000000
0.501961 0.345098 0.243137
0.501961 0.345098 0.243137
0.501961 0.345098 0.243137
0.501961 0.345098 0.243137
0.498039 0.341176 0.239216
0.498039 0.341176 0.239216
0.498039 0.341176 0.239216
0.498039 0.341176 0.239216
0.937500 0.625000 0.000000
0.968750 0.625000 0.000000
1.000000 0.625000 0.000000
0.000000 0.656250 0.000000
0.031250 0.656250 0.000000
0.062500 0.656250 0.000000
0.093750 0.656250 0.000000
0.125000 0.656250 0.000000
0.156250 0.656250 0.000000
0.187500 0.656250 0.000000
0.218750 0.656250 0.000000
0.250000 0.656250 0.000000
0.281250 0.656250 0.000000
0.312500 0.656250 0.000000
0.343750 0.656250 0.000000
0.375000 0.656250 0.000000
0.406250 0.656250 0.000000
0.437500 0.656250 0.000000
0.468750 0.656250 0.000000
0.500000 0.656250 0.000000
0.531250 0.656250 0.000000
0.562500 0.656250 0.000000
0.593750 0.656250 0.000000
0.625000 0.656250 0.000000
0.656250 0.656250 0.000000
0.687500 0.656250 0.000000
0.718750 0.656250 0.000000
0.750000 0.656250 0.000000
0.781250 0.656250 0.000000
0.812500 0.656250 0.000000
0.843750 0.656250 0.000000
0.875000 0.656250 0.000000
0.906250 0.656250 0.000000
0.937500 0.656250 0.000000
0.968750 0.656250 0.000000
1.000000 0.656250 0.000000
0.000000 0.687500 0.000000
0.031250 0.687500 0.000000
0.062500 0.687500 0.000000
0.093750 0.687500 0.000000
0.125000 0.687500 0.000000
0.156250 0.687500 0.000000
0.187500 0.687500 0.000000
0.218750 0.687500 0.000000
0.250000 0.687500 0.000000
0.281250 0.687500 0.000000
0.312500 0.687500 0.000000
0.343750 0.687500 0.000000
0.375000 0.687500 0.000000
0.406250 0.687500 0.000000
0.437500 0.687500 0.000000
0.468750 0.687500 0.000000
0.500000 0.687500 0.000000
0.531250 0.687500 0.000000
0.562500 0.687500 0.000000
0.593750 0.687500 0.000000
0.625000 0.687500 0.000000
0.656250 0.687500 0.000000
0.687500 0.687500 0.000000
0.718750 0.687500 0.000000
0.750000 0.687500 0.000000
0.781250 0.687500 0.000000
0.812500 0.687500 0.000000
0.843750 0.687500 0.000000
0.875000 0.687500 0.000000
0.906250 0.687500 0.000000
0.937500 0.687500 0.000000
0.968750 0.687500 0.000000
1.000000 0.687500 0.000000
0.000000 0.718750 0.000000
0.031250 0.718750 0.000000
0.062500 0.718750 0.000000
0.093750 0.718750 0.000000
0.125000 0.718750 0.000000
0.156250 0.718750 0.000000
0.187500 0.718750 0.000000
0.218750 0.718750 0.000000
0.250000 0.718750 0.000000
0.281250 0.718750 0.000000
0.312500 0.718750 0.000000
0.343750 0.718750 0.000000
0.375000 0.718750 0.000000
0.406250 0.718750 0.000000
0.437500 0.718750 0.000000
0.468750 0.718750 0.000000
0.500000 0.718750 0.000000
0.531250 0.718750 0.000000
0.562500 0.718750 0.000000
0.593750 0.718750 0.000000
0.625000 0.718750 0.000000
0.656250 0.718750 0.000000
0.687500 0.718750 0.000000
0.718750 0.718750 0.000000
0.750000 0.718750 0.000000
0.781250 0.718750 0.000000
0.812500 0.718750 0.000000
0.843750 0.718750 0.000000
0.875000 0.718750 0.000000
0.906250 0.718750 0.000000
0.937500 0.718750 0.000000
0.968750 0.718750 0.000000
1.000000 0.718750 0.000000
0.000000 0.750000 0.000000
0.031250 0.750000 0.000000
0.062500 0.750000 0.000000
0.093750 0.750000 0.000000
0.125000 0.750000 0.000000
0.156250 0.750000 0.000000
0.187500 0.750000 0.000000
0.218750 0.750000 0.000000
0.250000 0.750000 0.000000
0.281250 0.750000 0.000000
0.312500 0.750000 0.000000
0.343750 0.750000 0.000000
0.375000 0.750000 0.000000
0.406250 0.750000 0.000000
0.437500 0.750000 0.000000
0.468750 0.750000 0.000000
0.500000 0.750000 0.000000
0.531250 0.750000 0.000000
0.562500 0.750000 0.000000
0.593750 0.750000 0.000000
0.625000 0.750000 0.000000
0.656250 0.750000 0.000000
0.687500 0.750000 0.000000
0.718750 0.750000 0.000000
0.750000 0.750000 0.000000
0.781250 0.750000 0.000000
0.812500 0.750000 0.000000
0.843750 0.750000 0.000000
0.875000 0.750000 0.000000
0.906250 0.750000 0.000000
0.937500 0.750000 0.000000
0.968750 0.750000 0.000000
1.000000 0.750000 0.000000
0.000000 0.781250 0.000000
0.031250 0.781250 0.000000
0.062500 0.781250 0.000000
0.093750 0.781250 0.000000
0.125000 0.781250 0.000000
0.156250 0.781250 0.000000
0.187500 0.781250 0.000000
0.218750 0.781250 0.000000
0.250000 0.781250 0.000000
0.281250 0.781250 0.000000
0.312500 0.781250 0.000000
0.343750 0.781250 0.000000
0.375000 0.781250 0.000000
0.406250 0.781250 0.000000
0.437500 0.781250 0.000000
0.468750 0.781250 0.000000
0.500000 0.781250 0.000000
0.531250 0.781250 0.000000
0.562500 0.781250 0.000000
0.593750 0.781250 0.000000
0.625000 0.781250 0.000000
0.656250 0.781250 0.000000
0.687500 0.781250 0.000000
0.718750 0.781250 0.000000
0.750000 0.781250 0.000000
0.781250 0.781250 0.000000
0.812500 0.781250 0.000000
0.843750 0.781250 0.000000
0.875000 0.781250 0.000000
0.906250 0.781250 0.000000
0.937500 0.781250 0.000000
0.968750 0.781250 0.000000
1.000000 0.781250 0.000000
0.000000 0.812500 0.000000
0.031250 0.812500 0.000000
0.062500 0.812500 0.000000
0.093750 0.812500 0.000000
0.125000 0.812500 0.000000
0.156250 0.812500 0.000000
0.187500 0.812500 0.000000
0.218750 0.812500 0.000000
0.250000 0.812500 0.000000
0.281250 0.812500 0.000000
0.312500 0.812500 0.000000
0.343750 0.812500 0.000000
0.375000 0.812500 0.000000
0.406250 0.812500 0.000000
0.437500 0.812500 0.000000
0.468750 0.812500 0.000000
0.500000 0.812500 0.000000
0.531250 0.812500 0.000000
0.562500 0.812500 0.000000
0.593750 0.812500 0.000000
0.625000 0.812500 0.000000
0.656250 0.812500 0.000000
0.687500 0.812500 0.000000
0.718750 0.812500 0.000000
0.750000 0.812500 0.000000
0.781250 0.812500 0.000000
0.812500 0.812500 0.000000
