backend/lut_outputs/lut_df49e895.xmp
<?xpacket begin="" id="W5M0MpCehiHzreSzNTczkc9d"?>
<x:xmpmeta xmlns:x="adobe:ns:meta/" x:xmptk="Photo Manager">
 <rdf:RDF xmlns:rdf="http://www.w3.org/1999/02/22-rdf-syntax-ns#">
  <rdf:Description rdf:about=""
   xmlns:crs="http://ns.adobe.com/camera-raw-settings/1.0/">
   <crs:Version>15.0</crs:Version>
   <crs:ProcessVersion>15.4</crs:ProcessVersion>
   <crs:Exposure2012>+0.2146</crs:Exposure2012>
   <crs:Contrast2012>-5</crs:Contrast2012>
   <crs:Temperature>5427</crs:Temperature>
   <crs:Tint>158</crs:Tint>
   <crs:Saturation>149</crs:Saturation>
  </rdf:Description>
 </rdf:RDF>
</x:xmpmeta>
<?xpacket end="r"?>
