backend/lut_outputs/lut_f3e51c5f.cube
TITLE "LUT_f3e51c5f"
LUT_3D_SIZE 33
0.090289 0.086190 0.130037
0.111904 0.079286 0.106311
0.135392 0.075949 0.091254
0.183241 0.073610 0.072100
0.231320 0.070748 0.060682
0.284438 0.067280 0.051731
0.333489 0.065650 0.042689
0.381699 0.063160 0.039108
0.418672 0.069294 0.041640
0.448425 0.082147 0.047114
0.475541 0.104352 0.056616
0.499070 0.126837 0.066194
0.522887 0.140485 0.076501
0.553551 0.147892 0.087040
0.577991 0.149678 0.088219
0.574795 0.145498 0.074744
0.555248 0.145662 0.062220
0.558478 0.134963 0.060210
0.594764 0.118515 0.065279
0.631493 0.113441 0.069163
0.688389 0.117848 0.083493
0.735524 0.118469 0.088160
0.767709 0.130312 0.095053
0.783880 0.133989 0.099087
0.757792 0.115956 0.090086
0.803516 0.137214 0.087418
0.831829 0.148790 0.088611
0.852237 0.161743 0.098284
0.893023 0.191829 0.120309
0.910536 0.212823 0.129849
0.924844 0.240752 0.148392
0.928309 0.246940 0.157551
0.934425 0.258699 0.164404
0.091247 0.101627 0.085744
0.100746 0.097653 0.076443
0.133306 0.096737 0.069778
0.191816 0.099823 0.061224
0.254995 0.099123 0.053190
0.303914 0.095594 0.046792
0.350066 0.095696 0.040216
0.385704 0.095416 0.040409
0.416006 0.092043 0.037521
0.437835 0.107379 0.043948
0.467808 0.127523 0.052057
0.480852 0.142168 0.056743
0.503179 0.150693 0.067376
0.538619 0.155264 0.077950
0.558826 0.158485 0.077855
0.558145 0.156384 0.067081
0.545859 0.151065 0.058977
0.554348 0.139242 0.054418
0.592302 0.124211 0.064833
0.631684 0.117881 0.069187
0.687417 0.121365 0.083318
0.736196 0.123885 0.087927
0.767635 0.131690 0.095482
0.782951 0.133079 0.098026
0.762464 0.117718 0.089654
0.807793 0.140687 0.089818
0.832467 0.150376 0.090064
0.855516 0.165149 0.100953
0.894330 0.193488 0.121444
0.911101 0.214481 0.131886
0.924150 0.239050 0.148213
0.928445 0.247497 0.157405
0.934740 0.259325 0.164692
0.097297 0.148124 0.081039
0.107355 0.149394 0.074613
0.131924 0.151674 0.070621
0.188834 0.154258 0.068005
0.260733 0.154157 0.064756
0.319707 0.152328 0.057940
0.360932 0.146681 0.053027
0.391931 0.141150 0.044668
0.415122 0.133041 0.040644
0.436859 0.133892 0.043224
0.462535 0.142963 0.047439
0.473581 0.150261 0.052323
0.488476 0.159429 0.057243
0.517190 0.167255 0.067144
0.533080 0.169136 0.066060
0.534897 0.168496 0.053060
0.538516 0.161956 0.053511
0.553872 0.145801 0.054054
0.592059 0.135564 0.063522
0.633531 0.128351 0.070178
0.688189 0.127729 0.081918
0.736772 0.127311 0.088449
0.767596 0.135232 0.095465
0.781898 0.135112 0.097886
0.772261 0.125354 0.090186
0.812330 0.143995 0.092635
0.833700 0.152258 0.092135
0.859861 0.168879 0.104222
0.895502 0.195166 0.122132
0.911881 0.216273 0.134247
0.923213 0.236663 0.147926
0.928892 0.248316 0.157743
0.935481 0.260238 0.165417
0.106857 0.202652 0.076968
0.113620 0.208140 0.072250
0.133056 0.211467 0.071580
0.177418 0.216419 0.070598
0.250745 0.218111 0.075005
0.319117 0.214132 0.076413
0.373116 0.210595 0.071971
0.416840 0.203834 0.061679
0.443991 0.191856 0.052080
0.460525 0.182583 0.047073
0.471689 0.172149 0.045725
0.481941 0.171579 0.048404
0.486454 0.167520 0.044352
0.509367 0.182187 0.057442
0.520021 0.181439 0.053127
0.519961 0.174420 0.039754
0.530628 0.176274 0.041437
0.551371 0.165287 0.052599
0.586843 0.157523 0.060303
0.630619 0.146966 0.069931
0.683000 0.147679 0.078894
0.731908 0.139771 0.087805
0.764267 0.143323 0.094991
0.781542 0.142357 0.098492
0.786006 0.134701 0.092765
0.817928 0.148662 0.096625
0.837936 0.156684 0.096184
0.865703 0.174540 0.108818
0.897221 0.198781 0.123752
0.913689 0.219727 0.138038
0.923129 0.235878 0.148782
0.930981 0.251301 0.159908
0.937039 0.261907 0.166980
0.128949 0.256583 0.072726
0.128544 0.258929 0.069828
0.142860 0.261118 0.064758
0.178939 0.266794 0.064887
0.241778 0.269863 0.072688
0.309347 0.269875 0.081701
0.372862 0.264918 0.085022
0.431114 0.261628 0.076396
0.469787 0.254563 0.066086
0.494488 0.243653 0.062876
0.511032 0.232644 0.056088
0.521302 0.221500 0.057117
0.521714 0.209586 0.053790
0.525580 0.203625 0.056526
0.513346 0.190249 0.049263
0.511787 0.185533 0.036962
0.538083 0.191852 0.036146
0.556831 0.195415 0.044656
0.586868 0.193949 0.059933
0.625640 0.191119 0.068085
0.670554 0.185276 0.073590
0.722040 0.169173 0.086171
0.760978 0.157357 0.095245
0.781004 0.152055 0.100415
0.798921 0.151291 0.099489
0.825306 0.158520 0.103684
0.844388 0.163411 0.101763
0.874831 0.184093 0.115696
0.900069 0.204003 0.127725
0.917896 0.224979 0.142695
0.923815 0.236040 0.149279
0.933572 0.254940 0.162449
0.939363 0.264556 0.169307
0.156037 0.301149 0.074560
0.160428 0.303802 0.073327
0.170066 0.306935 0.072159
0.189816 0.311630 0.073758
0.232650 0.315545 0.076057
0.295761 0.316327 0.084044
0.355574 0.314190 0.091548
0.423151 0.309701 0.092316
0.468640 0.305183 0.093564
0.509208 0.294092 0.085863
0.538545 0.285187 0.077261
0.556898 0.272351 0.074252
0.566327 0.265050 0.068858
0.574470 0.263848 0.050422
0.544168 0.224282 0.048050
0.543296 0.213274 0.040213
0.546937 0.202519 0.042326
0.571208 0.216182 0.046387
0.600096 0.231576 0.062320
0.620921 0.237163 0.063218
0.661956 0.236091 0.068253
0.706034 0.231111 0.087875
0.752232 0.205310 0.098066
0.784166 0.184274 0.108800
0.810380 0.174603 0.110672
0.833001 0.171522 0.111179
0.856287 0.181502 0.111949
0.883563 0.193703 0.121428
0.904303 0.210671 0.132451
0.921698 0.230110 0.146168
0.927233 0.242219 0.154327
0.937196 0.260320 0.166103
0.943419 0.268973 0.172984
0.194954 0.352128 0.082227
0.199551 0.354787 0.083655
0.205545 0.357958 0.082326
0.214060 0.360930 0.078661
0.241086 0.364070 0.080357
0.282618 0.364278 0.079553
0.337772 0.360323 0.085432
0.400212 0.357153 0.093557
0.459175 0.359756 0.097520
0.504697 0.353004 0.108228
0.544668 0.334420 0.099882
0.577819 0.325758 0.094056
0.600672 0.321390 0.081568
0.610924 0.313198 0.069304
0.603357 0.288036 0.060073
0.598105 0.267010 0.051639
0.600836 0.260109 0.054949
0.609082 0.258270 0.049954
0.631866 0.261334 0.063542
0.641336 0.263787 0.060624
0.640522 0.251328 0.059129
0.691090 0.297770 0.097499
0.740281 0.292396 0.120475
0.786560 0.272195 0.137640
0.820857 0.236903 0.131718
0.841254 0.203322 0.123987
0.868330 0.196528 0.120729
0.887960 0.203304 0.126139
0.906416 0.218326 0.136098
0.925045 0.235302 0.150369
0.931128 0.251354 0.158767
0.942420 0.267582 0.170878
0.947253 0.276841 0.178058
0.237901 0.396273 0.101155
0.239781 0.397406 0.101604
0.241817 0.398352 0.099753
0.249933 0.403223 0.090233
0.261921 0.407960 0.078873
0.292469 0.412207 0.073730
0.329195 0.404838 0.068693
0.373155 0.391622 0.067603
0.427613 0.385686 0.073818
0.487832 0.390431 0.101566
0.536814 0.383048 0.122021
0.581075 0.370269 0.112575
0.616102 0.358330 0.104703
0.642271 0.361234 0.085026
0.661173 0.361226 0.070013
0.670379 0.353829 0.067395
0.664568 0.329209 0.065695
0.662480 0.312514 0.070092
0.661800 0.295273 0.064346
0.664812 0.288226 0.064591
0.677664 0.294172 0.078371
0.717578 0.329179 0.117197
0.748731 0.354638 0.142672
0.792087 0.389096 0.172428
0.828719 0.353543 0.168972
0.859991 0.289047 0.161029
0.877530 0.243801 0.145002
0.892881 0.212753 0.130791
0.917390 0.231618 0.145779
0.927355 0.240356 0.153059
0.938271 0.261295 0.167366
0.945634 0.272386 0.174359
0.949920 0.282768 0.181989
0.274597 0.436909 0.106137
0.277164 0.439008 0.104594
0.280188 0.441629 0.103892
0.287644 0.445925 0.098474
0.294345 0.448437 0.087436
0.309595 0.451030 0.084898
0.331133 0.449086 0.078641
0.362834 0.431615 0.061014
0.393140 0.414279 0.057371
0.451884 0.412547 0.074135
0.518159 0.419503 0.088405
0.549464 0.414714 0.119392
0.606429 0.404429 0.132725
0.651048 0.392151 0.113621
0.675428 0.390479 0.095625
0.692610 0.390918 0.081577
0.704521 0.388725 0.077382
0.707886 0.375083 0.077009
0.703104 0.356025 0.072791
0.702419 0.346195 0.071614
0.707855 0.336651 0.087129
0.739419 0.362776 0.115825
0.761765 0.379559 0.135016
0.796904 0.412594 0.158110
0.831725 0.425404 0.183187
0.873505 0.436394 0.213818
0.889310 0.413257 0.212477
0.907547 0.350774 0.190530
0.919722 0.267322 0.161115
0.937254 0.256918 0.164991
0.942864 0.269705 0.171835
0.949747 0.282468 0.181735
0.951637 0.286950 0.184900
0.307196 0.469305 0.108497
0.311161 0.472114 0.109346
0.314074 0.474083 0.106302
0.317764 0.476984 0.103267
0.323078 0.481719 0.095957
0.330402 0.488958 0.075387
0.345912 0.490338 0.078121
0.367927 0.486747 0.074422
0.392758 0.467866 0.061067
0.412200 0.438602 0.047837
0.462330 0.425267 0.065800
0.525333 0.434345 0.084053
0.590635 0.438268 0.119522
0.649452 0.431257 0.128274
0.676005 0.423774 0.128254
0.700311 0.418812 0.111898
0.722055 0.425622 0.096768
0.743890 0.432338 0.082284
0.758867 0.434108 0.077884
0.765686 0.435275 0.072922
0.752393 0.405265 0.086143
0.762220 0.399170 0.101576
0.779956 0.410729 0.112842
0.803649 0.429827 0.130919
0.847069 0.459277 0.179394
0.879751 0.472976 0.211095
0.894740 0.472531 0.232915
0.908406 0.474502 0.246207
0.922672 0.448000 0.241427
0.943298 0.372579 0.215147
0.947909 0.322699 0.197442
0.952622 0.306521 0.192917
0.955352 0.307681 0.196343
0.335544 0.495870 0.105781
0.336516 0.496852 0.104844
0.339578 0.498851 0.102496
0.347239 0.503845 0.100669
0.352705 0.508304 0.097498
0.359645 0.514448 0.084988
0.362739 0.521581 0.063761
0.384286 0.517650 0.084556
0.411834 0.512379 0.076091
0.427670 0.500997 0.063837
0.440751 0.476011 0.049475
0.481420 0.460474 0.051084
0.555461 0.467314 0.065045
0.628885 0.474804 0.088621
0.666457 0.465446 0.124258
0.702831 0.443161 0.131632
0.725975 0.439373 0.124468
0.751026 0.448247 0.105925
0.778910 0.464855 0.093815
0.788077 0.467492 0.084181
0.784207 0.452742 0.085250
0.782651 0.431722 0.082920
0.795235 0.433327 0.091760
0.824325 0.450948 0.106096
0.859918 0.480144 0.154058
0.883667 0.494068 0.197448
0.904037 0.509003 0.220881
0.915669 0.513542 0.249203
0.926941 0.522736 0.271221
0.941493 0.506431 0.272802
0.951440 0.468406 0.256568
0.958056 0.414219 0.237570
0.964856 0.405250 0.236843
0.368965 0.520748 0.108832
0.370372 0.522245 0.111155
0.371521 0.523393 0.113070
0.377991 0.526780 0.110902
0.386017 0.530401 0.110531
0.392954 0.533579 0.109222
0.400941 0.537976 0.102305
0.415155 0.543972 0.098342
0.431717 0.543144 0.093490
0.458680 0.543866 0.066146
0.463051 0.533509 0.067555
0.476408 0.508335 0.053204
0.509086 0.491158 0.058975
0.571278 0.496365 0.078120
0.629744 0.503371 0.099549
0.678231 0.484583 0.150339
0.725922 0.465091 0.166742
0.759631 0.468663 0.148695
0.787366 0.485172 0.129037
0.806697 0.498142 0.113906
0.804896 0.487815 0.106841
0.804071 0.471125 0.096724
0.812990 0.453381 0.084539
0.837543 0.470524 0.090859
0.867877 0.498634 0.128075
0.893078 0.512793 0.176761
0.910780 0.520632 0.217267
0.923345 0.524553 0.252747
0.932995 0.534697 0.269686
0.939902 0.543610 0.279890
0.950725 0.535511 0.282777
0.959463 0.522403 0.275017
0.966196 0.511955 0.275366
0.407175 0.544795 0.131181
0.410336 0.546561 0.131239
0.412853 0.548344 0.132063
0.420278 0.551720 0.129226
0.422927 0.553088 0.125789
0.428507 0.555809 0.123255
0.439040 0.561122 0.122897
0.448214 0.564193 0.119444
0.464697 0.567527 0.111586
0.480091 0.573513 0.102024
0.494083 0.577612 0.082111
0.502303 0.574009 0.072071
0.512891 0.555804 0.060370
0.541578 0.529861 0.061266
0.579405 0.524709 0.077971
0.619450 0.519598 0.129472
0.701067 0.503435 0.183574
0.758329 0.494777 0.188928
0.780228 0.498661 0.172413
0.799637 0.502695 0.157753
0.811412 0.501328 0.135645
0.813379 0.493658 0.123089
0.814621 0.479481 0.104077
0.829306 0.478006 0.093431
0.865097 0.508142 0.111245
0.901027 0.535990 0.150304
0.920305 0.543439 0.198043
0.929210 0.547917 0.232964
0.936785 0.550998 0.257235
0.944936 0.556678 0.274328
0.951566 0.560468 0.281670
0.960431 0.562037 0.288678
0.969859 0.565473 0.289949
0.458118 0.578415 0.151314
0.462865 0.580573 0.144085
0.463398 0.580833 0.143891
0.468874 0.582554 0.138678
0.475344 0.585725 0.140208
0.481058 0.587912 0.133279
0.489049 0.591716 0.122868
0.497124 0.596368 0.115783
0.506649 0.600313 0.108607
0.517283 0.606636 0.099453
0.522964 0.612050 0.089230
0.531458 0.613929 0.073115
0.537725 0.607402 0.077483
0.545293 0.590400 0.074790
0.557375 0.565906 0.079091
0.584280 0.554244 0.100586
0.646165 0.544653 0.159122
0.724866 0.528898 0.206601
0.775210 0.522914 0.220746
0.802173 0.519893 0.201094
0.814821 0.520334 0.182210
0.818555 0.510451 0.152591
0.810351 0.489224 0.124347
0.812520 0.474106 0.099935
0.848387 0.499472 0.108572
0.898838 0.546182 0.138137
0.922748 0.567121 0.172387
0.933851 0.569679 0.215382
0.941080 0.569060 0.241430
0.949879 0.570826 0.264410
0.956084 0.574043 0.273931
0.964104 0.578686 0.283599
0.971540 0.580127 0.287189
0.507143 0.609522 0.138496
0.507443 0.609672 0.138212
0.511679 0.611813 0.129800
0.514873 0.612794 0.129222
0.517537 0.614270 0.127633
0.519519 0.615848 0.128510
0.527782 0.619725 0.124130
0.530818 0.621097 0.119709
0.534368 0.623435 0.118897
0.540047 0.627598 0.117272
0.546310 0.630466 0.110895
0.554079 0.633636 0.108026
0.563028 0.637130 0.109730
0.573625 0.634893 0.109697
0.580491 0.621436 0.103872
0.593834 0.608469 0.102623
0.613996 0.596023 0.120243
0.662219 0.585465 0.173185
0.737921 0.570502 0.222739
0.804198 0.544497 0.232250
0.814281 0.534305 0.205475
0.816463 0.521602 0.178075
0.814757 0.509378 0.157873
0.822149 0.500523 0.134051
0.842717 0.504817 0.120734
0.880161 0.539098 0.132557
0.908383 0.566475 0.159741
0.934433 0.586177 0.197395
0.945141 0.587176 0.228573
0.954057 0.586159 0.252386
0.961871 0.587823 0.267651
0.968983 0.588775 0.280549
0.976003 0.597014 0.290900
0.545449 0.634957 0.140125
0.546690 0.635361 0.137459
0.547980 0.635501 0.137401
0.548156 0.635657 0.137450
0.550414 0.637846 0.139548
0.553885 0.640858 0.143377
0.558660 0.641782 0.133049
0.562764 0.644994 0.137171
0.567584 0.648680 0.139467
0.575427 0.655124 0.147535
0.586239 0.664415 0.153761
0.592109 0.666855 0.156592
0.603208 0.672143 0.154970
0.617244 0.678400 0.154926
0.622596 0.677208 0.151066
0.625747 0.665910 0.140709
0.633174 0.649960 0.137627
0.652862 0.639138 0.158107
0.700367 0.627349 0.201605
0.772289 0.590466 0.239887
0.810155 0.559932 0.238609
0.820678 0.551074 0.221570
0.826098 0.547391 0.203736
0.836718 0.545889 0.187085
0.849308 0.534234 0.158694
0.872777 0.547408 0.155822
0.911005 0.574718 0.172859
0.933340 0.594421 0.195549
0.948237 0.601602 0.221446
0.956747 0.601545 0.239529
0.964558 0.602462 0.259542
0.972171 0.604140 0.278428
0.975918 0.608943 0.286176
0.582004 0.664405 0.158210
0.582170 0.664536 0.158365
0.583730 0.665021 0.156403
0.586526 0.666820 0.157449
0.587687 0.667205 0.158215
0.591528 0.671032 0.166605
0.592233 0.671556 0.167161
0.596557 0.674142 0.167612
0.602955 0.678083 0.169963
0.608354 0.682197 0.177424
0.617078 0.688392 0.182673
0.621773 0.692107 0.186022
0.626934 0.694740 0.181487
0.637345 0.700574 0.178873
0.642971 0.701213 0.175537
0.648843 0.699678 0.178655
0.659323 0.693065 0.180159
0.675907 0.684273 0.188263
0.701908 0.681543 0.211733
0.738596 0.664731 0.237544
0.795679 0.620005 0.259053
0.832975 0.588015 0.259784
0.847722 0.582023 0.239277
0.861191 0.580361 0.221618
0.867959 0.569134 0.197355
0.867316 0.553771 0.172489
0.875778 0.555114 0.164428
0.905578 0.577488 0.182746
0.942449 0.602228 0.215262
0.957373 0.608225 0.235856
0.966254 0.614124 0.256561
0.972972 0.618099 0.275108
0.977634 0.624694 0.287377
0.612845 0.689099 0.193940
0.614661 0.690897 0.201901
0.616867 0.692769 0.203398
0.618990 0.694739 0.206826
0.619174 0.694868 0.206807
0.621613 0.695982 0.204686
0.625941 0.699349 0.208979
0.627871 0.701427 0.210532
0.632692 0.705543 0.214258
0.634269 0.706818 0.215969
0.638219 0.709428 0.220840
0.642353 0.712164 0.220473
0.646191 0.713021 0.215653
0.652996 0.717317 0.221772
0.659308 0.719289 0.223619
0.671682 0.720831 0.226758
0.681412 0.718459 0.224521
0.699260 0.712748 0.230316
0.716120 0.707127 0.237735
0.737113 0.702369 0.249982
0.770533 0.681729 0.271060
0.828484 0.642424 0.281894
0.864075 0.614314 0.265304
0.876735 0.600941 0.235785
0.878156 0.590816 0.213275
0.868335 0.570186 0.183904
0.863337 0.556983 0.165150
0.881631 0.567527 0.172851
0.922660 0.594377 0.204620
0.951780 0.613549 0.234576
0.965572 0.626307 0.256618
0.971926 0.635698 0.270871
0.976778 0.643102 0.282758
0.635949 0.709906 0.229480
0.636015 0.709955 0.229510
0.636092 0.710013 0.229544
0.637620 0.710855 0.227356
0.638938 0.711955 0.230868
0.641587 0.713300 0.232038
0.642354 0.714344 0.235148
0.644506 0.715704 0.235891
0.644924 0.716065 0.236176
0.652000 0.721728 0.242467
0.655093 0.723541 0.244862
0.659366 0.726316 0.248814
0.665666 0.731602 0.260733
0.670457 0.734916 0.268396
0.682088 0.737964 0.274542
0.692843 0.740098 0.281236
0.707659 0.740337 0.284466
0.719974 0.739728 0.290631
0.732676 0.730225 0.279134
0.750152 0.723919 0.282819
0.770743 0.712238 0.289352
0.821465 0.685410 0.302592
0.862760 0.652989 0.292332
0.881831 0.624393 0.262315
0.883159 0.605990 0.227400
0.876855 0.590027 0.203782
0.876195 0.583156 0.192880
0.886315 0.585124 0.188959
0.909546 0.597815 0.198496
0.939972 0.618291 0.226934
0.960195 0.635621 0.250066
0.970767 0.648969 0.267883
0.975887 0.658957 0.278409
0.655701 0.727837 0.264455
0.656805 0.729067 0.268161
0.657989 0.728975 0.263415
0.658101 0.729076 0.263560
0.658471 0.730602 0.269905
0.659619 0.730191 0.265055
0.663702 0.733955 0.275610
0.665259 0.735447 0.279113
0.666794 0.736999 0.284497
0.669093 0.738293 0.282363
0.674699 0.743787 0.297506
0.677202 0.745085 0.300445
0.689123 0.749313 0.306857
0.697946 0.754637 0.319712
0.703593 0.757165 0.327934
0.713028 0.759776 0.334551
0.725386 0.757573 0.329294
0.733839 0.754335 0.327642
0.746624 0.751269 0.326827
0.758206 0.744298 0.321106
0.782135 0.731588 0.322903
0.812547 0.712411 0.326563
0.861698 0.682302 0.322447
0.889642 0.654700 0.298088
0.893340 0.634002 0.260142
0.890905 0.619420 0.234917
0.891717 0.611905 0.220660
0.896035 0.610002 0.211187
0.907523 0.614241 0.210364
0.935742 0.630148 0.227148
0.961334 0.650577 0.254481
0.970892 0.661687 0.269658
0.975365 0.670374 0.278285
0.672915 0.743174 0.301091
0.672991 0.743235 0.301195
0.674592 0.745271 0.305904
0.674728 0.745380 0.306082
0.676241 0.747564 0.313500
0.679235 0.749894 0.317583
0.681370 0.751914 0.323793
0.681742 0.752192 0.324320
0.687476 0.756314 0.335273
0.694564 0.759075 0.338440
0.698946 0.762030 0.349255
0.704056 0.764314 0.354248
0.710492 0.766785 0.357531
0.716018 0.770789 0.368962
0.723364 0.770959 0.365763
0.729750 0.770316 0.362429
0.736902 0.768626 0.362714
0.744438 0.765306 0.361854
0.756096 0.762481 0.360599
0.763347 0.758482 0.356976
0.785945 0.744471 0.349917
0.825892 0.726074 0.349642
0.869994 0.702245 0.341958
0.892810 0.678210 0.316075
0.902165 0.661754 0.288172
0.904404 0.654397 0.270959
0.904471 0.646612 0.253293
0.906504 0.640873 0.235716
0.916382 0.644994 0.233474
0.936882 0.652578 0.239925
0.954473 0.662883 0.255895
0.966434 0.672276 0.269070
0.973774 0.680454 0.277820
0.696411 0.762524 0.351515
0.696477 0.762572 0.351611
0.696553 0.762628 0.351721
0.696666 0.762710 0.351882
0.701461 0.767255 0.363721
0.703929 0.769293 0.369459
0.705796 0.770870 0.374175
0.706086 0.771068 0.374492
0.709431 0.774374 0.382473
0.713476 0.774979 0.382461
0.714898 0.775532 0.383984
0.718949 0.776662 0.387106
0.724320 0.777740 0.389376
0.729676 0.776608 0.384378
0.733024 0.777540 0.391267
0.739506 0.774034 0.382234
0.745607 0.773057 0.385207
0.754182 0.769250 0.376676
0.761484 0.763436 0.367628
0.776408 0.759319 0.371061
0.809062 0.744080 0.368361
0.856672 0.726951 0.362174
0.883693 0.714016 0.354043
0.909687 0.696076 0.333572
0.910375 0.683511 0.308934
0.911294 0.674568 0.282825
0.914545 0.671033 0.270742
0.920680 0.672434 0.262503
0.929927 0.677219 0.259249
0.938212 0.678787 0.254574
0.951086 0.682707 0.260815
0.964529 0.688304 0.274964
0.971684 0.695297 0.283271
0.711182 0.776155 0.391035
0.711228 0.776186 0.391082
0.711280 0.776221 0.391135
0.713104 0.776720 0.391125
0.714270 0.777497 0.391770
0.716384 0.777898 0.392773
0.719493 0.778528 0.394005
0.721141 0.780574 0.401809
0.721852 0.781385 0.405226
0.725384 0.781664 0.405225
0.726851 0.783069 0.409536
0.729290 0.782822 0.409331
0.737697 0.782754 0.411076
0.741599 0.783433 0.413483
0.742435 0.782310 0.410237
0.748479 0.779434 0.407099
0.754281 0.776160 0.400999
0.763337 0.771456 0.392932
0.776777 0.769370 0.391846
0.804729 0.761323 0.395012
0.846109 0.747356 0.387058
0.885625 0.740397 0.383353
0.902943 0.733797 0.375309
0.922215 0.717441 0.351672
0.923541 0.713785 0.334900
0.926967 0.704043 0.308622
0.930047 0.697329 0.292082
0.933622 0.697843 0.283927
0.942551 0.702440 0.278814
0.950398 0.704958 0.275453
0.958158 0.709399 0.282004
0.966644 0.711655 0.288287
0.973051 0.716340 0.293524
0.724474 0.783325 0.414151
0.724505 0.783339 0.414176
0.726071 0.784142 0.416242
0.726118 0.784164 0.416290
0.726183 0.784195 0.416356
0.728663 0.785958 0.423986
0.731526 0.786886 0.424244
0.735469 0.787165 0.423793
0.737827 0.786192 0.420073
0.739659 0.786130 0.423021
0.741196 0.784664 0.419030
0.741929 0.784046 0.418576
0.745140 0.784197 0.420833
0.746210 0.783260 0.419270
0.752911 0.780973 0.415278
0.757621 0.778480 0.411336
0.769332 0.777991 0.411591
0.786223 0.773883 0.413297
0.811027 0.770931 0.416664
0.845461 0.763619 0.413822
0.884356 0.757357 0.411940
0.905144 0.755179 0.404050
0.925850 0.750395 0.395097
0.936136 0.743635 0.383645
0.936601 0.734296 0.357109
0.943035 0.733310 0.341130
0.947683 0.733489 0.330341
0.951411 0.733094 0.317843
0.957073 0.737787 0.315746
0.960782 0.738705 0.310437
0.966638 0.736762 0.307497
0.971254 0.739286 0.310463
0.975416 0.746300 0.318184
0.738495 0.787152 0.428536
0.740414 0.787468 0.427811
0.740443 0.787468 0.427814
0.740485 0.787470 0.427817
0.740543 0.787472 0.427821
0.740618 0.787474 0.427827
0.742280 0.786505 0.425704
0.742401 0.786501 0.425695
0.744218 0.785270 0.423153
0.745433 0.784910 0.424271
0.746471 0.784793 0.425211
0.750576 0.785514 0.427150
0.754849 0.785217 0.429710
0.756872 0.783830 0.426764
0.766405 0.783963 0.435566
0.783242 0.782100 0.433861
0.808800 0.782494 0.440510
0.833636 0.785196 0.452655
0.862646 0.779552 0.444785
0.891466 0.770148 0.428907
0.916331 0.768245 0.422011
0.932648 0.764722 0.412225
0.949057 0.768847 0.414602
0.951787 0.766925 0.403131
0.952905 0.759138 0.377361
0.958428 0.761161 0.368691
0.961180 0.759854 0.358714
0.968123 0.767864 0.356890
0.970301 0.766085 0.348393
0.975022 0.771931 0.350408
0.977231 0.772224 0.349339
0.977747 0.770156 0.345423
0.980679 0.775148 0.351138
0.746548 0.786721 0.430430
0.746570 0.786719 0.430431
0.746439 0.786928 0.434126
0.748982 0.787311 0.432568
0.749000 0.787015 0.432856
0.749073 0.787012 0.432861
0.750964 0.786846 0.431651
0.753366 0.786738 0.435503
0.754693 0.787659 0.439943
0.757492 0.786746 0.440200
0.758048 0.786304 0.445667
0.760483 0.788801 0.452150
0.781088 0.792574 0.458993
0.796604 0.793067 0.469934
0.802775 0.793037 0.467915
0.833991 0.793078 0.467587
0.852545 0.790383 0.465012
0.878078 0.788854 0.462052
0.902189 0.786572 0.452174
0.933575 0.787116 0.449945
0.944349 0.784089 0.433523
0.957478 0.783248 0.430659
0.963769 0.790133 0.432508
0.966436 0.788253 0.417648
0.969561 0.789026 0.414400
0.975311 0.793790 0.403713
0.979606 0.800954 0.407920
0.979646 0.797350 0.396433
0.982711 0.803415 0.399068
0.983554 0.803665 0.393508
0.985531 0.808739 0.399799
0.986038 0.808026 0.397589
0.986495 0.809748 0.400158
0.759970 0.793207 0.465599
0.760002 0.793208 0.465618
0.760039 0.793209 0.465639
0.760091 0.793210 0.465671
0.760163 0.793212 0.465714
0.763613 0.793541 0.466072
0.769775 0.795059 0.471592
0.770296 0.794869 0.474149
0.776963 0.795200 0.476035
0.787855 0.796969 0.483566
0.796030 0.797626 0.482266
0.805612 0.799489 0.483416
0.821135 0.801031 0.483127
0.842677 0.802728 0.487720
0.858263 0.800775 0.482792
0.875123 0.800909 0.481435
0.898030 0.803382 0.479455
0.935367 0.806830 0.477306
0.941581 0.808605 0.478136
0.966645 0.811167 0.468002
0.973613 0.814504 0.465892
0.976709 0.816782 0.467144
0.979987 0.817109 0.456948
0.983828 0.821052 0.454588
0.984454 0.820060 0.446674
0.986282 0.823479 0.446026
0.988224 0.829540 0.449068
0.988151 0.826175 0.437817
0.988779 0.825859 0.431139
