backend/lut_outputs/lut_f3e51c5f.cube
TITLE "LUT_f3e51c5f"
LUT_3D_SIZE 9
0.090289 0.086190 0.130037
0.231320 0.070748 0.060682
0.418672 0.069294 0.041640
0.522887 0.140485 0.076501
0.555248 0.145662 0.062220
0.688389 0.117848 0.083493
0.757792 0.115956 0.090086
0.893023 0.191829 0.120309
0.934425 0.258699 0.164404
0.128949 0.256583 0.072726
0.241778 0.269863 0.072688
0.469787 0.254563 0.066086
0.521714 0.209586 0.053790
0.538083 0.191852 0.036146
0.670554 0.185276 0.073590
0.798921 0.151291 0.099489
0.900069 0.204003 0.127725
0.939363 0.264556 0.169307
0.274597 0.436909 0.106137
0.294345 0.448437 0.087436
0.393140 0.414279 0.057371
0.606429 0.404429 0.132725
0.704521 0.388725 0.077382
0.707855 0.336651 0.087129
0.831725 0.425404 0.183187
0.919722 0.267322 0.161115
0.951637 0.286950 0.184900
0.407175 0.544795 0.131181
0.422927 0.553088 0.125789
0.464697 0.567527 0.111586
0.512891 0.555804 0.060370
0.701067 0.503435 0.183574
0.811412 0.501328 0.135645
0.865097 0.508142 0.111245
0.936785 0.550998 0.257235
0.969859 0.565473 0.289949
0.582004 0.664405 0.158210
0.587687 0.667205 0.158215
0.602955 0.678083 0.169963
0.626934 0.694740 0.181487
0.659323 0.693065 0.180159
0.795679 0.620005 0.259053
0.867959 0.569134 0.197355
0.942449 0.602228 0.215262
0.977634 0.624694 0.287377
0.672915 0.743174 0.301091
0.676241 0.747564 0.313500
0.687476 0.756314 0.335273
0.710492 0.766785 0.357531
0.736902 0.768626 0.362714
0.785945 0.744471 0.349917
0.902165 0.661754 0.288172
0.916382 0.644994 0.233474
0.973774 0.680454 0.277820
0.738495 0.787152 0.428536
0.740543 0.787472 0.427821
0.744218 0.785270 0.423153
0.754849 0.785217 0.429710
0.808800 0.782494 0.440510
0.916331 0.768245 0.422011
0.952905 0.759138 0.377361
0.970301 0.766085 0.348393
0.980679 0.775148 0.351138
0.855110 0.818725 0.514134
0.871049 0.822024 0.519182
0.901473 0.828199 0.523035
0.939849 0.836475 0.521394
0.982696 0.840154 0.499670
0.990400 0.851140 0.499933
0.993088 0.859945 0.504368
0.994983 0.870724 0.519534
0.994946 0.883389 0.553211
0.995344 0.891860 0.585029
0.995442 0.893111 0.588751
0.995439 0.893195 0.588902
0.995461 0.894232 0.589509
0.995671 0.898500 0.597928
0.995655 0.902918 0.609225
0.995491 0.907109 0.623312
0.995404 0.911503 0.637949
0.995682 0.918020 0.661716
0.043785 0.098280 0.278640
0.186834 0.110393 0.224770
0.409467 0.031661 0.097668
0.615718 0.079995 0.139341
0.602357 0.143761 0.127165
0.695880 0.102173 0.087935
0.784340 0.133543 0.094427
0.903875 0.189363 0.118325
0.933214 0.257222 0.162499
0.088023 0.229442 0.234939
0.214907 0.217066 0.212414
0.440013 0.213406 0.178634
0.558803 0.179473 0.144433
0.565888 0.161295 0.096310
0.684737 0.122650 0.090865
0.804828 0.147513 0.102116
0.906407 0.205610 0.130271
0.940095 0.266232 0.170742
0.268177 0.428607 0.139504
0.289619 0.433689 0.183598
0.413942 0.405663 0.177746
0.610954 0.391656 0.195404
0.693262 0.355233 0.114808
0.737505 0.338625 0.144457
0.864861 0.413395 0.232261
0.928210 0.253020 0.163455
0.953736 0.293221 0.186130
0.402962 0.548154 0.168342
0.421956 0.557958 0.180061
0.458446 0.571694 0.171784
0.510831 0.516185 0.079286
0.727251 0.496140 0.223813
0.808656 0.496615 0.147893
0.896489 0.528410 0.131873
0.938908 0.543555 0.275861
0.971687 0.550982 0.289445
0.581231 0.666238 0.181819
0.586854 0.669971 0.179507
0.604805 0.681668 0.192981
0.629197 0.698681 0.194597
0.662811 0.681453 0.178681
0.802683 0.614586 0.277578
0.872363 0.572682 0.201084
0.951350 0.606368 0.223852
0.979474 0.621243 0.294752
0.676817 0.749260 0.320294
0.680121 0.751836 0.324819
0.691560 0.760421 0.350112
0.714067 0.771209 0.370437
0.738121 0.771437 0.372280
0.786370 0.743213 0.348418
0.903225 0.667102 0.298433
0.917428 0.644713 0.232716
0.975604 0.681511 0.279426
0.738527 0.787247 0.428932
0.740588 0.787800 0.430152
0.743518 0.786990 0.432754
0.754921 0.784869 0.430863
0.803934 0.789167 0.455334
0.910372 0.770937 0.433123
0.955577 0.769177 0.397798
0.972124 0.770397 0.353493
0.980910 0.777442 0.353815
0.851037 0.820335 0.522067
0.872711 0.824114 0.529544
0.892292 0.827455 0.530374
0.940720 0.837778 0.523637
0.982400 0.842314 0.505700
0.990426 0.851736 0.502243
0.993263 0.859842 0.505432
0.994976 0.871916 0.522181
0.995042 0.884187 0.555102
0.995392 0.892721 0.588453
0.995442 0.893139 0.588843
0.995439 0.893228 0.589004
0.995418 0.895842 0.593878
0.995670 0.898557 0.598094
0.995654 0.903000 0.609451
0.995517 0.907705 0.624184
0.995403 0.911662 0.638392
0.995530 0.920176 0.670900
0.010257 0.120867 0.411194
0.139627 0.150364 0.380584
0.365078 0.141313 0.282420
0.549065 0.086833 0.185359
0.661480 0.134523 0.248381
0.690777 0.139007 0.116832
0.822119 0.172388 0.131540
0.903961 0.211835 0.146010
0.948502 0.265223 0.178594
0.054892 0.195599 0.411437
0.123646 0.188652 0.388338
0.386086 0.188151 0.306429
0.586384 0.147456 0.248512
0.694909 0.188626 0.274987
0.724681 0.183467 0.159129
0.838804 0.190267 0.146790
0.905860 0.223755 0.159963
0.953555 0.275930 0.187197
0.134351 0.393096 0.438452
0.196542 0.399939 0.415302
0.368348 0.371691 0.368633
0.594855 0.389639 0.360378
0.719726 0.381431 0.306490
0.786955 0.358661 0.257658
0.892585 0.344448 0.212900
0.943031 0.263796 0.179106
0.959181 0.298018 0.193249
0.376719 0.559625 0.360672
0.374207 0.561615 0.374077
0.412439 0.574370 0.377456
0.529764 0.522185 0.300560
0.712229 0.509621 0.335881
0.797011 0.471501 0.239797
0.899294 0.497134 0.283702
0.943953 0.538577 0.302340
0.977723 0.512332 0.296067
0.527605 0.666615 0.343764
0.557969 0.674629 0.314746
0.591375 0.684919 0.289412
0.618247 0.705482 0.316715
0.673572 0.657749 0.215371
0.823650 0.607224 0.319009
0.879041 0.583088 0.232956
0.958221 0.596788 0.260933
0.983301 0.613917 0.303674
0.685228 0.760093 0.363808
0.690327 0.764275 0.377649
0.697258 0.768805 0.383783
0.716224 0.780590 0.405746
0.739478 0.779402 0.399217
0.793855 0.740806 0.360737
0.907072 0.686354 0.327057
0.918899 0.641058 0.231073
0.983595 0.687394 0.285997
0.739989 0.789626 0.441101
0.740379 0.789591 0.443175
0.743470 0.790126 0.447102
0.755426 0.789321 0.461468
0.800325 0.792920 0.479440
0.898602 0.784637 0.460925
0.961096 0.787341 0.433951
0.973047 0.777203 0.367052
0.981479 0.776999 0.350227
0.845227 0.821525 0.538554
0.860887 0.827508 0.547699
0.891530 0.831631 0.547024
0.923326 0.840106 0.543053
0.972810 0.849586 0.536430
0.990354 0.855033 0.513644
0.994226 0.861375 0.509157
0.995657 0.876693 0.533929
0.995280 0.886200 0.558980
0.995230 0.895552 0.597882
0.995246 0.896461 0.601445
0.995248 0.896173 0.598940
0.995074 0.899790 0.606999
0.995512 0.901280 0.608472
0.995460 0.908980 0.630157
0.995557 0.910783 0.635577
0.995772 0.917645 0.660440
0.995571 0.923526 0.683779
0.008508 0.202119 0.563911
0.063379 0.215365 0.569564
0.234711 0.209616 0.485299
0.553037 0.165707 0.307146
0.671643 0.153418 0.285964
0.759841 0.264085 0.355593
0.851632 0.215598 0.181807
0.941214 0.254507 0.198335
0.956296 0.276026 0.191776
0.019718 0.260886 0.623518
0.083129 0.260199 0.591288
0.270167 0.233486 0.517710
0.587864 0.219126 0.354599
0.698043 0.186968 0.319026
0.780080 0.295867 0.375436
0.866765 0.230789 0.192191
0.950303 0.265252 0.204715
0.958439 0.278993 0.194214
0.104715 0.402068 0.537401
0.187420 0.390422 0.545267
0.252767 0.300761 0.493972
0.565242 0.370517 0.479663
0.772878 0.376619 0.463686
0.823720 0.403051 0.437108
0.903628 0.288282 0.226796
0.977181 0.289255 0.240553
0.968010 0.301041 0.212594
0.208465 0.539912 0.600058
0.253113 0.545903 0.586565
0.355802 0.553047 0.544712
0.514412 0.516706 0.512643
0.715082 0.541102 0.512685
0.823059 0.541723 0.470681
0.895173 0.480871 0.303960
0.959302 0.483246 0.289141
0.981526 0.468663 0.294981
0.367110 0.656586 0.552770
0.376777 0.660491 0.556289
0.441822 0.679306 0.560254
0.582084 0.705513 0.513246
0.656734 0.644404 0.436245
0.800339 0.613301 0.447170
0.885755 0.585662 0.319956
0.953994 0.589945 0.295265
0.984224 0.623214 0.332851
0.683758 0.769015 0.443921
0.691924 0.774177 0.448271
0.701928 0.779871 0.448262
0.716760 0.789224 0.465841
0.734178 0.791835 0.463534
0.786670 0.745506 0.384599
0.911297 0.714485 0.408206
0.948516 0.683882 0.273788
0.988202 0.696100 0.270594
0.736225 0.790684 0.467750
0.738287 0.790213 0.468302
0.744642 0.790276 0.469773
0.759594 0.789240 0.481178
0.795954 0.797983 0.502069
0.876373 0.808096 0.514720
0.965996 0.810986 0.488998
0.973460 0.804995 0.419484
0.983014 0.781584 0.359436
0.835347 0.830067 0.572547
0.844279 0.832487 0.580393
0.870689 0.837626 0.576476
0.898251 0.844604 0.578971
0.952530 0.852652 0.564827
0.987868 0.857098 0.529356
0.995114 0.871668 0.539323
0.995690 0.883995 0.552106
0.995750 0.891718 0.574709
0.995496 0.899076 0.610536
0.995495 0.899116 0.610607
0.995464 0.900164 0.612408
0.995565 0.902257 0.616099
0.995584 0.905856 0.626050
0.995707 0.912270 0.643799
0.996049 0.918693 0.664903
0.995467 0.923785 0.683280
0.995355 0.926966 0.696554
0.005777 0.262872 0.683644
0.009065 0.273867 0.705641
0.177587 0.301664 0.726758
0.376181 0.307511 0.688873
0.677284 0.221501 0.377478
0.772093 0.294402 0.413255
0.867833 0.295182 0.313560
0.956001 0.269834 0.214017
0.964526 0.285265 0.210714
0.005247 0.282799 0.731676
0.013720 0.291111 0.745022
0.219783 0.313088 0.735012
0.395628 0.329673 0.736788
0.723886 0.251098 0.386288
0.795433 0.332938 0.442036
0.886510 0.312304 0.323406
0.958022 0.272460 0.215857
0.968100 0.290091 0.212192
0.084063 0.382499 0.744008
0.107836 0.379517 0.735086
0.223869 0.351904 0.707362
0.395467 0.366067 0.688082
0.790663 0.377502 0.488665
0.844195 0.418533 0.523359
0.907811 0.351656 0.342651
0.966606 0.292913 0.230426
0.973162 0.318313 0.230273
0.110113 0.552926 0.650933
0.116305 0.556314 0.656675
0.244334 0.448035 0.607897
0.359209 0.407273 0.582653
0.643833 0.509215 0.596079
0.847956 0.598690 0.619484
0.893863 0.571835 0.543079
0.973609 0.423670 0.286069
0.982893 0.439591 0.295064
0.300002 0.645221 0.650999
0.300840 0.644164 0.652226
0.315827 0.641158 0.649975
0.463696 0.651963 0.638953
0.635857 0.635861 0.632353
0.817122 0.664569 0.639665
0.902930 0.644811 0.494509
0.953090 0.613621 0.367121
0.988890 0.641200 0.392972
0.489812 0.707700 0.646126
0.524460 0.719782 0.636054
0.571996 0.734796 0.619261
0.653791 0.756469 0.571177
0.674018 0.753952 0.564964
0.770219 0.753742 0.559215
0.902145 0.722130 0.530499
0.946535 0.685157 0.391688
0.983458 0.701794 0.313860
0.684696 0.788465 0.592109
0.686230 0.788653 0.594036
0.724038 0.791797 0.553864
0.756665 0.793714 0.541361
0.785609 0.803863 0.550441
0.838120 0.825709 0.574317
0.946389 0.837380 0.579519
0.980660 0.823179 0.521501
0.982912 0.792485 0.413369
0.814218 0.836235 0.623447
0.827108 0.841766 0.623781
0.841194 0.849807 0.640194
0.865754 0.854360 0.635230
0.910190 0.865165 0.635172
0.962926 0.871570 0.602474
0.995425 0.881529 0.587571
0.996265 0.896332 0.602001
0.996352 0.908169 0.624112
0.973283 0.898619 0.639345
0.980076 0.899968 0.639558
0.986307 0.905535 0.648077
0.994663 0.909156 0.646799
0.994820 0.914216 0.659979
0.995605 0.920413 0.675502
0.995318 0.924395 0.688389
0.995338 0.930238 0.712989
0.995274 0.932253 0.722296
0.005938 0.306236 0.765069
0.005868 0.311417 0.773082
0.064609 0.332457 0.797825
0.332232 0.360209 0.811075
0.502954 0.374857 0.728307
0.784256 0.341016 0.463650
0.867199 0.367744 0.425897
0.957261 0.284001 0.231315
0.966994 0.294301 0.218063
0.005554 0.325357 0.788452
0.008147 0.331771 0.798239
0.143510 0.348451 0.814383
0.356039 0.375011 0.822401
0.525672 0.397034 0.738463
0.803770 0.378017 0.494281
0.879081 0.388351 0.436369
0.958334 0.285385 0.231898
0.968118 0.297074 0.219885
0.008306 0.380067 0.832980
0.020342 0.391511 0.835432
0.205352 0.409076 0.857778
0.370786 0.427778 0.845842
0.559239 0.425325 0.693984
0.823005 0.441274 0.547378
0.895792 0.441675 0.469700
0.964251 0.316278 0.237977
0.976209 0.345318 0.244747
0.133376 0.515236 0.857579
0.151215 0.523460 0.860316
0.216360 0.535348 0.863757
0.329401 0.480795 0.775166
0.447427 0.453096 0.684459
0.804308 0.589962 0.654751
0.881402 0.608646 0.610193
0.966882 0.459212 0.352191
0.984101 0.422917 0.288644
0.202579 0.662627 0.759137
0.208020 0.666952 0.763169
0.226301 0.679655 0.777461
0.387635 0.556970 0.721477
0.475713 0.536220 0.690332
0.729553 0.637329 0.693452
0.858591 0.697619 0.683138
0.940346 0.643030 0.480615
0.974457 0.622678 0.388479
0.358018 0.695529 0.748754
0.366327 0.698740 0.750607
0.387811 0.705079 0.749179
0.416498 0.718176 0.755578
0.569843 0.736328 0.744649
0.738227 0.738247 0.732747
0.887102 0.740313 0.673855
0.919296 0.657032 0.472561
0.946851 0.688119 0.449807
0.528512 0.786407 0.811252
0.536331 0.789007 0.811166
0.555507 0.795320 0.814236
0.616805 0.804074 0.798065
0.716253 0.816753 0.734696
0.789705 0.833166 0.679594
0.885718 0.858323 0.685905
0.950250 0.777348 0.560259
0.940021 0.732400 0.472380
0.791830 0.843370 0.693640
0.798933 0.846039 0.691481
0.814326 0.850988 0.691208
0.838945 0.862343 0.698067
0.862335 0.870899 0.702507
0.904299 0.882544 0.713641
0.968617 0.884785 0.675646
0.993666 0.899202 0.672023
0.993124 0.908938 0.688716
0.944851 0.898095 0.694700
0.954152 0.900683 0.694851
0.962093 0.902924 0.688480
0.979511 0.908774 0.680995
0.991053 0.919541 0.696223
0.994797 0.925958 0.705308
0.995519 0.930607 0.722054
0.995235 0.935532 0.742635
0.995148 0.937631 0.754311
0.007786 0.361032 0.850451
0.007835 0.362832 0.854296
0.049214 0.370405 0.869557
0.191197 0.381533 0.868027
0.321380 0.405805 0.861389
0.645086 0.426286 0.681294
0.844789 0.410935 0.500567
0.942120 0.326813 0.309092
0.970864 0.317766 0.233557
0.007316 0.371542 0.869466
0.006616 0.372365 0.871903
0.068103 0.375273 0.875499
0.200500 0.398168 0.875951
0.296956 0.420862 0.874972
0.636789 0.452452 0.702853
0.847418 0.431524 0.522439
0.948504 0.347320 0.309031
0.971600 0.330089 0.238863
0.011901 0.378305 0.871515
0.006455 0.380656 0.887819
0.048876 0.394771 0.883625
0.197005 0.426129 0.890953
0.298383 0.466808 0.885497
0.626909 0.486669 0.716308
0.852094 0.522303 0.597461
0.955282 0.408115 0.343177
0.979293 0.367123 0.258543
0.037628 0.488179 0.909478
0.062059 0.499251 0.914782
0.136504 0.499288 0.915931
0.250523 0.529152 0.907867
0.401964 0.563532 0.905261
0.553750 0.571653 0.803479
0.825375 0.634043 0.675205
0.940812 0.539885 0.474175
0.984695 0.432769 0.299923
0.273493 0.610920 0.908803
0.283570 0.616703 0.908317
0.312634 0.626511 0.913106
0.424042 0.660535 0.928483
0.493642 0.634182 0.876256
0.542288 0.597142 0.758795
0.753582 0.682730 0.742401
0.895784 0.687484 0.610716
0.946686 0.627933 0.453018
0.360453 0.709868 0.783431
0.370096 0.711807 0.782438
0.399614 0.716897 0.792094
0.466110 0.719612 0.811794
0.554225 0.684244 0.832985
0.650105 0.703656 0.818856
0.771397 0.751484 0.802533
0.891416 0.695956 0.591120
0.933997 0.692714 0.516879
0.520745 0.790405 0.822525
0.526090 0.792032 0.822873
0.546748 0.797747 0.824367
0.579272 0.804916 0.825632
0.673580 0.817681 0.820783
0.742670 0.815719 0.823622
0.812641 0.820310 0.808388
0.913322 0.743660 0.613531
0.934476 0.730995 0.553900
0.751295 0.840950 0.776549
0.758514 0.842538 0.780359
0.777404 0.847814 0.774461
0.811847 0.860001 0.779089
0.838756 0.871674 0.791122
0.860582 0.882027 0.799847
0.901141 0.890950 0.795294
0.945702 0.872127 0.729946
0.974139 0.846976 0.663249
0.883281 0.888168 0.790072
0.886306 0.889272 0.789616
0.893292 0.890319 0.783335
0.922942 0.899476 0.774786
0.964137 0.913897 0.758565
0.985524 0.927790 0.766784
0.993121 0.938521 0.784563
0.994299 0.947048 0.813230
0.995016 0.950574 0.825710
0.005255 0.386216 0.899762
0.004868 0.386364 0.901501
0.004590 0.391278 0.907680
0.072785 0.398787 0.908124
0.169147 0.427626 0.910253
0.323552 0.469352 0.891133
0.630865 0.515054 0.753688
0.900144 0.429949 0.455545
0.973085 0.343086 0.246773
0.005018 0.388857 0.905263
0.004878 0.391389 0.909600
0.004277 0.396909 0.914637
0.056933 0.408960 0.913834
0.161141 0.438660 0.917474
0.308885 0.492423 0.908874
0.624212 0.541985 0.778609
0.900409 0.461724 0.487006
0.974816 0.356423 0.252548
0.005509 0.406395 0.930225
0.004998 0.409628 0.929705
0.009302 0.424149 0.935132
0.072719 0.445318 0.932109
0.175732 0.478799 0.930481
0.315782 0.538094 0.933298
0.587536 0.593363 0.850102
0.903120 0.509065 0.522584
0.981296 0.385114 0.269421
0.017216 0.461431 0.954397
0.036871 0.464460 0.951288
0.146737 0.470172 0.948799
0.193666 0.509010 0.938788
0.314663 0.561047 0.945582
0.431864 0.623935 0.954950
0.522796 0.656909 0.926638
0.827147 0.626292 0.663079
0.959969 0.531333 0.417895
0.254371 0.601318 0.947514
0.268010 0.607967 0.949971
0.323015 0.634195 0.965719
0.412692 0.657903 0.968986
0.464713 0.686248 0.974840
0.532622 0.711521 0.970722
0.609453 0.705043 0.888114
0.759305 0.733715 0.799338
0.908529 0.678543 0.569361
0.499465 0.732407 0.972785
0.504966 0.734181 0.972545
0.518189 0.738810 0.975211
0.546124 0.748033 0.974821
0.583634 0.751762 0.965721
0.671873 0.739665 0.923671
0.724605 0.761950 0.861222
0.787736 0.788485 0.839961
0.905201 0.727072 0.614984
0.526534 0.789223 0.832301
0.527295 0.789440 0.832473
0.546042 0.791955 0.836152
0.593666 0.792118 0.848514
0.700528 0.787886 0.875007
0.737877 0.806277 0.891631
0.798627 0.840177 0.912458
0.836647 0.844651 0.870880
0.922947 0.764448 0.641535
0.738108 0.829567 0.853934
0.755768 0.835107 0.856103
0.773726 0.840287 0.857786
0.790310 0.845856 0.870797
0.812570 0.858128 0.876329
0.828861 0.868554 0.886767
0.844111 0.875885 0.896961
0.890456 0.902531 0.907504
0.974840 0.869246 0.759709
0.867226 0.887409 0.857939
0.869374 0.888619 0.858750
0.869641 0.889059 0.861693
0.877495 0.892432 0.865365
0.904795 0.904474 0.867891
0.947554 0.928268 0.867520
0.985785 0.951169 0.868412
0.991482 0.962241 0.888289
0.994164 0.967652 0.901888
0.004709 0.404366 0.923841
0.005270 0.405955 0.926181
0.005976 0.412347 0.932283
0.024638 0.424737 0.938166
0.091695 0.455676 0.938478
0.182575 0.489344 0.939124
0.363797 0.559220 0.932721
0.656022 0.585804 0.797453
0.950879 0.430552 0.376089
0.005600 0.410756 0.930960
0.005971 0.412962 0.932696
0.005845 0.419348 0.938221
0.032820 0.436761 0.943065
0.106549 0.462134 0.939889
0.193507 0.497058 0.939626
0.376253 0.586301 0.949458
0.640234 0.607982 0.827915
0.941918 0.474388 0.420728
0.009732 0.430518 0.945390
0.010153 0.434658 0.947486
0.024053 0.440008 0.950129
0.080991 0.458060 0.950177
0.141403 0.482902 0.945549
0.301175 0.554432 0.948033
0.428551 0.623983 0.959192
0.594897 0.667257 0.902978
0.881786 0.565607 0.565302
0.055993 0.459643 0.957382
0.080413 0.466522 0.957574
0.113885 0.476152 0.954544
0.175612 0.508614 0.953591
0.294297 0.576005 0.961281
0.415938 0.634066 0.966687
0.510651 0.692445 0.977709
0.561146 0.702269 0.946184
0.861498 0.667579 0.664505
0.290502 0.598886 0.965485
0.314388 0.609781 0.969838
0.361605 0.636803 0.974286
0.408301 0.657172 0.977480
0.455220 0.683511 0.979317
0.519727 0.715757 0.983860
0.550308 0.728271 0.980875
0.689554 0.747926 0.885262
0.823371 0.760105 0.780085
0.497338 0.724698 0.985576
0.500164 0.726957 0.987152
0.515015 0.732384 0.986810
0.537782 0.742432 0.990460
0.593719 0.757526 0.992848
0.609814 0.754126 0.968551
0.701356 0.779612 0.916813
0.775547 0.807702 0.887193
0.841327 0.808507 0.821887
0.562829 0.770455 0.912744
0.571059 0.769950 0.915611
0.596605 0.769219 0.921873
0.647618 0.774336 0.915544
0.708584 0.792704 0.900620
0.757060 0.819375 0.910662
0.803909 0.849260 0.926357
0.835327 0.869367 0.926429
0.880029 0.848452 0.838774
0.777082 0.837288 0.897886
0.781751 0.841536 0.903415
0.790008 0.846652 0.907140
0.805270 0.857929 0.914145
0.828950 0.876604 0.932156
0.841930 0.885626 0.940250
0.854904 0.895593 0.946788
0.878787 0.902646 0.932604
0.935950 0.900409 0.866440
0.857547 0.889321 0.914394
0.858106 0.889797 0.915552
0.858753 0.890402 0.918792
0.868209 0.894352 0.915555
0.883702 0.903431 0.917711
0.919588 0.922550 0.915169
0.969775 0.956613 0.923669
0.991078 0.973334 0.928968
0.992401 0.982392 0.942849
