backend/lut_outputs/test3d.cube
TITLE "DSC04635"
LUT_3D_SIZE 5
0.060410 0.046069 0.075332
0.288053 0.034729 0.038875
0.505599 0.025076 0.030276
0.710521 0.030942 0.056778
0.909602 0.098955 0.097951
0.052654 0.261275 0.058746
0.289918 0.293003 0.057401
0.532802 0.275109 0.040775
0.741723 0.272893 0.078422
0.940750 0.335622 0.134449
0.059934 0.481872 0.121024
0.225925 0.514398 0.073709
0.555542 0.544157 0.074256
0.789575 0.539647 0.054478
0.954898 0.538075 0.152088
0.003358 0.676929 0.064308
0.018976 0.695919 0.080531
0.670098 0.835728 0.220650
0.794510 0.767875 0.115686
0.986618 0.752886 0.109565
0.637353 0.910594 0.320332
0.715452 0.937315 0.365620
0.857275 0.979678 0.451602
0.869650 0.971017 0.463793
0.990824 0.904964 0.474140
0.028595 0.080685 0.287252
0.268628 0.082275 0.280927
0.558090 0.040988 0.263532
0.695741 0.049895 0.180270
0.948355 0.167891 0.183698
0.019310 0.257311 0.271333
0.271894 0.268482 0.272221
0.546748 0.268086 0.256761
0.716682 0.220336 0.206806
0.915293 0.233042 0.229235
0.059811 0.453835 0.210376
0.215571 0.481176 0.260772
0.558327 0.544787 0.285133
0.760378 0.499089 0.222414
0.951320 0.482104 0.230802
0.004501 0.680323 0.066992
0.064219 0.715109 0.114776
0.590585 0.800104 0.284116
0.798558 0.773217 0.268527
0.973412 0.729751 0.220553
0.631733 0.913227 0.328074
0.711340 0.937432 0.367497
0.860369 0.981412 0.458279
0.871082 0.970337 0.470496
0.991392 0.912685 0.489583
0.010403 0.160087 0.531135
0.234697 0.114584 0.443720
0.426509 0.146234 0.413906
0.728298 0.026955 0.457948
0.941834 0.162057 0.542127
0.008720 0.218353 0.441659
0.228124 0.271397 0.520026
0.509218 0.235945 0.471305
0.752961 0.231170 0.459719
0.960140 0.195020 0.432727
0.018151 0.488108 0.511739
0.179435 0.480596 0.500553
0.522274 0.519568 0.526754
0.746125 0.479678 0.465981
0.951915 0.455530 0.387075
0.237474 0.709345 0.452024
0.283357 0.723010 0.478038
0.442022 0.709508 0.492359
0.764759 0.748182 0.484668
0.969169 0.732628 0.435174
0.567580 0.909190 0.346715
0.671755 0.931847 0.379664
0.860370 0.983111 0.481923
0.868073 0.969402 0.514945
0.991249 0.936799 0.572942
0.004058 0.250007 0.682499
0.071079 0.260478 0.715016
0.413240 0.225894 0.579969
0.704611 0.225915 0.606571
0.975847 0.210803 0.690091
0.012980 0.304576 0.741549
0.126815 0.319556 0.785540
0.469728 0.328970 0.710671
0.728214 0.285631 0.650316
0.987286 0.238653 0.713148
0.011589 0.449264 0.679214
0.168896 0.464156 0.704487
0.482320 0.519007 0.769305
0.728954 0.456161 0.690211
0.990924 0.449703 0.639990
0.155983 0.709585 0.783231
0.184259 0.729040 0.787743
0.473042 0.734694 0.752361
0.759221 0.755075 0.760701
0.979073 0.723026 0.679754
0.000000 0.937307 0.741328
0.000000 0.943653 0.747227
0.311083 0.946148 0.758871
0.844028 0.947241 0.736518
0.987701 0.947392 0.712190
0.006595 0.318633 0.796817
0.049570 0.332466 0.820199
0.317857 0.383427 0.846485
0.694804 0.324422 0.668762
0.972777 0.252535 0.723443
0.023440 0.355282 0.843737
0.065219 0.364424 0.855888
0.345566 0.418372 0.879913
0.717634 0.355932 0.689345
0.967519 0.294071 0.751128
0.138620 0.459335 0.928043
0.182965 0.473459 0.926707
0.465331 0.530359 0.934238
0.670120 0.473543 0.822734
0.944069 0.470012 0.841420
0.074495 0.704164 0.892828
0.208631 0.698123 0.919148
0.466192 0.708170 0.971298
0.709433 0.713508 0.964001
0.913741 0.643584 0.884356
0.499098 0.931050 0.910314
0.558227 0.930866 0.935027
0.695409 0.938795 0.965693
0.828517 0.962530 0.962870
0.959375 0.960579 0.953484
