backend/lut_outputs/test3d.cube
TITLE "DSC04635"
LUT_3D_SIZE 33
0.060410 0.046069 0.075332
0.072252 0.039406 0.059044
0.088428 0.038797 0.053824
0.122076 0.039532 0.050733
0.155155 0.038483 0.047686
0.186911 0.037995 0.043054
0.218726 0.037345 0.041446
0.253803 0.036334 0.040509
0.288053 0.034729 0.038875
0.319649 0.033901 0.038611
0.348788 0.033076 0.038096
0.380273 0.033266 0.038135
0.408493 0.032235 0.036031
0.437589 0.032649 0.035007
0.462252 0.029019 0.031207
0.485046 0.029848 0.032018
0.505599 0.025076 0.030276
0.528471 0.019248 0.026994
0.557192 0.019357 0.030172
0.591196 0.014704 0.028403
0.620714 0.011534 0.024455
0.643008 0.017756 0.031321
0.660258 0.017355 0.039093
0.697949 0.022057 0.051668
0.710521 0.030942 0.056778
0.743589 0.036323 0.063500
0.767778 0.060619 0.066810
0.798092 0.052035 0.061326
0.820693 0.048094 0.054547
0.842520 0.042182 0.055271
0.874983 0.072547 0.072755
0.892503 0.078485 0.086053
0.909602 0.098955 0.097951
0.044454 0.050737 0.037938
0.050480 0.047826 0.031488
0.075665 0.048306 0.033397
0.115726 0.051799 0.036370
0.155565 0.052283 0.037766
0.188402 0.051864 0.037394
0.222170 0.051696 0.037868
0.255325 0.050596 0.036577
0.288437 0.049017 0.036138
0.319712 0.048413 0.035845
0.351892 0.045393 0.036363
0.380634 0.044981 0.035926
0.412382 0.044569 0.035472
0.442580 0.040854 0.035100
0.465954 0.040426 0.033265
0.488970 0.041836 0.033692
0.506459 0.030478 0.029767
0.528380 0.028942 0.028033
0.559357 0.028593 0.030784
0.588377 0.022791 0.028074
0.611558 0.017863 0.026332
0.639011 0.022626 0.032880
0.659423 0.023466 0.038659
0.689741 0.026309 0.047983
0.712693 0.038951 0.057758
0.746259 0.046902 0.063043
0.771608 0.069300 0.067389
0.799877 0.066545 0.063830
0.827174 0.054858 0.057104
0.845515 0.051175 0.054136
0.881063 0.084523 0.072851
0.900657 0.093020 0.086344
0.915396 0.111191 0.094889
0.046807 0.078282 0.037792
0.052940 0.078505 0.033793
0.070307 0.080177 0.033080
0.106195 0.081469 0.036727
0.149918 0.083616 0.040855
0.186016 0.084329 0.040976
0.221924 0.082341 0.041303
0.252163 0.079353 0.040302
0.286830 0.077185 0.038652
0.319754 0.073747 0.037697
0.351373 0.070453 0.036900
0.381128 0.069807 0.036191
0.414970 0.067439 0.036816
0.446345 0.066283 0.036832
0.470631 0.065925 0.036061
0.495039 0.061180 0.036788
0.513110 0.055225 0.034328
0.536448 0.051722 0.031694
0.561936 0.048802 0.033165
0.582871 0.038318 0.031705
0.605498 0.039193 0.031722
0.633768 0.037955 0.034856
0.657570 0.036068 0.039354
0.687649 0.044775 0.047894
0.715332 0.053895 0.058081
0.746426 0.064575 0.064227
0.776357 0.090114 0.071281
0.801040 0.089215 0.069230
0.836960 0.082349 0.071541
0.848200 0.067072 0.059445
0.884855 0.098607 0.073501
0.903265 0.101843 0.088698
0.919092 0.125712 0.097540
0.051760 0.110671 0.041033
0.057435 0.114190 0.039278
0.068816 0.115127 0.036963
0.099783 0.117943 0.036990
0.144503 0.119845 0.040822
0.183234 0.118238 0.043956
0.216163 0.118224 0.044931
0.250900 0.117775 0.043550
0.284184 0.115296 0.042548
0.316869 0.113029 0.041816
0.350014 0.108716 0.040889
0.380073 0.106432 0.039841
0.413316 0.104330 0.040309
0.445820 0.100291 0.039496
0.472549 0.102928 0.038821
0.500170 0.097805 0.041013
0.521709 0.093568 0.038083
0.546678 0.095775 0.037635
0.568740 0.084986 0.040252
0.587389 0.080753 0.039296
0.608465 0.079245 0.037858
0.629921 0.071502 0.040918
0.653848 0.069249 0.043642
0.684898 0.073335 0.045820
0.716539 0.084260 0.060200
0.747214 0.095732 0.067937
0.782208 0.123696 0.080086
0.805982 0.119419 0.076381
0.837640 0.099804 0.070547
0.856447 0.100485 0.068845
0.890571 0.121187 0.075706
0.907712 0.127950 0.095103
0.922653 0.148282 0.100097
0.054410 0.144498 0.044961
0.056725 0.145995 0.041235
0.070958 0.146801 0.036307
0.099285 0.150895 0.035279
0.142490 0.152740 0.039295
0.181771 0.152379 0.043632
0.216335 0.149697 0.045082
0.250790 0.149818 0.043211
0.284120 0.149745 0.041395
0.314568 0.148063 0.044137
0.347102 0.145201 0.039002
0.378188 0.142336 0.038624
0.410163 0.139875 0.042700
0.443849 0.137561 0.041598
0.471483 0.137994 0.040882
0.501180 0.135973 0.045087
0.525973 0.134378 0.042046
0.548153 0.134745 0.041820
0.576638 0.132970 0.047925
0.603848 0.130475 0.046644
0.628205 0.130803 0.046324
0.639489 0.120262 0.049680
0.660227 0.120030 0.048650
0.690527 0.125461 0.049699
0.717380 0.126389 0.062752
0.744098 0.133537 0.070566
0.772199 0.150419 0.081225
0.803582 0.153077 0.088011
0.840019 0.151348 0.078474
0.860665 0.140007 0.078731
0.892799 0.151955 0.078535
0.915719 0.171370 0.090680
0.926519 0.179514 0.101607
0.054775 0.176423 0.047134
0.059844 0.178103 0.045490
0.074033 0.181157 0.043933
0.096104 0.184131 0.041245
0.135757 0.186845 0.042132
0.179687 0.187783 0.046915
0.216009 0.184743 0.047810
0.252260 0.181698 0.049073
0.284178 0.180909 0.045237
0.318029 0.179791 0.046508
0.346290 0.178601 0.044808
0.377816 0.176802 0.043066
0.408887 0.175976 0.041681
0.442000 0.174971 0.041964
0.472467 0.175342 0.044939
0.501407 0.173717 0.046484
0.529544 0.171628 0.044778
0.552443 0.171021 0.046203
0.578692 0.171448 0.049414
0.605031 0.171785 0.050543
0.632316 0.170991 0.055327
0.654643 0.168829 0.059464
0.681328 0.169927 0.058223
0.704366 0.168768 0.059340
0.726269 0.169532 0.066502
0.748361 0.171799 0.070243
0.768232 0.176756 0.079673
0.796842 0.182499 0.092335
0.824638 0.190054 0.096612
0.855198 0.197186 0.100936
0.892056 0.184248 0.092382
0.916658 0.191919 0.093071
0.927911 0.215064 0.112445
0.051076 0.216910 0.050847
0.056721 0.218249 0.047979
0.066960 0.216475 0.046229
0.092805 0.216372 0.043746
0.132455 0.220155 0.042299
0.173795 0.224015 0.046428
0.216271 0.224890 0.052368
0.254082 0.222848 0.053684
0.286539 0.220598 0.052136
0.319309 0.218200 0.051997
0.350058 0.217263 0.048201
0.381617 0.215566 0.045193
0.410796 0.214398 0.042298
0.441020 0.215057 0.043081
0.471592 0.214612 0.042858
0.503438 0.214061 0.043370
0.532870 0.212169 0.046092
0.555252 0.211668 0.044648
0.581521 0.209343 0.048631
0.610081 0.210686 0.052164
0.635532 0.212896 0.056041
0.663149 0.212313 0.063216
0.692949 0.214756 0.070272
0.720188 0.217374 0.073101
0.741080 0.211064 0.074811
0.759212 0.206510 0.073996
0.775890 0.207299 0.077892
0.795041 0.207854 0.087737
0.819020 0.216123 0.095006
0.852332 0.230485 0.101852
0.888232 0.236480 0.109954
0.918445 0.240278 0.114983
0.931388 0.262384 0.132683
0.048797 0.248483 0.055275
0.049923 0.248336 0.053256
0.058449 0.237356 0.048076
0.089143 0.239565 0.043886
0.132803 0.249987 0.037854
0.172398 0.256881 0.036672
0.213633 0.260308 0.044657
0.257855 0.259903 0.049488
0.290047 0.257070 0.049276
0.322667 0.254757 0.053213
0.357727 0.253251 0.046265
0.387758 0.252278 0.042872
0.417139 0.249958 0.044978
0.448655 0.247714 0.039311
0.471409 0.246274 0.038677
0.500715 0.246600 0.040584
0.531375 0.245493 0.036626
0.556988 0.246981 0.036786
0.582605 0.245077 0.044239
0.612256 0.245328 0.046996
0.636335 0.250267 0.047534
0.665787 0.248452 0.060541
0.694660 0.249875 0.065352
0.717976 0.250834 0.071834
0.743337 0.244076 0.080471
0.766128 0.240038 0.080066
0.778685 0.235325 0.077137
0.797800 0.232297 0.089573
0.828209 0.243089 0.090192
0.856487 0.260061 0.091985
0.889437 0.270474 0.114336
0.918165 0.290349 0.132150
0.937307 0.303188 0.144610
0.052654 0.261275 0.058746
0.054885 0.260831 0.058099
0.060557 0.258628 0.055153
0.079106 0.261185 0.050971
0.118780 0.271770 0.048829
0.165495 0.283584 0.046159
0.208654 0.292755 0.049738
0.252696 0.294534 0.054180
0.289918 0.293003 0.057401
0.326795 0.289926 0.061450
0.356264 0.286625 0.058738
0.388989 0.283435 0.055948
0.422932 0.285171 0.054337
0.454138 0.283682 0.050709
0.480964 0.279930 0.050006
0.505868 0.277854 0.045856
0.532802 0.275109 0.040775
0.557965 0.274556 0.041413
0.583206 0.274096 0.042597
0.616928 0.275731 0.043910
0.643171 0.279546 0.045707
0.666738 0.280135 0.052926
0.694484 0.279623 0.059952
0.717730 0.278123 0.067118
0.741723 0.272893 0.078422
0.763988 0.262995 0.083364
0.781461 0.260242 0.086342
0.804120 0.262684 0.095847
0.830258 0.268615 0.099507
0.861090 0.282896 0.103957
0.893515 0.300005 0.115818
0.926685 0.322748 0.123366
0.940750 0.335622 0.134449
0.043115 0.273370 0.049715
0.047974 0.275846 0.048255
0.054010 0.279314 0.048730
0.070068 0.284479 0.049126
0.101275 0.293087 0.050249
0.154999 0.308858 0.051036
0.203778 0.322106 0.053839
0.246870 0.329568 0.056005
0.289324 0.331413 0.062068
0.325301 0.329480 0.067085
0.361419 0.325885 0.069770
0.392683 0.323269 0.066617
0.422006 0.318880 0.065123
0.455300 0.319755 0.061514
0.493206 0.323186 0.057593
0.518441 0.319032 0.055138
0.540141 0.314179 0.053544
0.564989 0.311648 0.047967
0.588136 0.308552 0.042202
0.615689 0.308544 0.042913
0.642496 0.309902 0.047560
0.670763 0.312780 0.047271
0.698436 0.315784 0.052628
0.722490 0.315324 0.062705
0.743151 0.307887 0.073438
0.764478 0.299805 0.083810
0.780755 0.291658 0.091724
0.806701 0.293333 0.100413
0.834193 0.302098 0.108057
0.863281 0.314577 0.116803
0.895100 0.326118 0.123862
0.923156 0.343304 0.126611
0.938725 0.355741 0.134477
0.024947 0.278853 0.031949
0.025754 0.280385 0.030290
0.043815 0.296649 0.039511
0.067204 0.310911 0.045141
0.092499 0.312669 0.043801
0.138478 0.324977 0.040399
0.197933 0.342596 0.043014
0.249934 0.361413 0.047360
0.289549 0.369657 0.053048
0.324785 0.367604 0.060445
0.364207 0.361395 0.060379
0.397159 0.360902 0.057158
0.429876 0.359516 0.065711
0.455605 0.350911 0.054048
0.489413 0.354202 0.048895
0.532243 0.361851 0.055038
0.563025 0.361623 0.047824
0.581232 0.352840 0.040726
0.602215 0.346077 0.045970
0.624961 0.341796 0.038901
0.648970 0.342333 0.037377
0.674468 0.342549 0.046325
0.703841 0.346071 0.045190
0.731981 0.350971 0.048689
0.746724 0.338681 0.065022
0.774462 0.338007 0.076503
0.787475 0.330340 0.083241
0.809229 0.323991 0.100411
0.836504 0.331913 0.109736
0.861129 0.346894 0.113454
0.893323 0.352429 0.131748
0.923160 0.365899 0.139968
0.937027 0.373076 0.147450
0.022799 0.302699 0.036218
0.025443 0.304657 0.036144
0.035887 0.310905 0.038403
0.055516 0.321497 0.044512
0.089367 0.335849 0.048661
0.130088 0.347467 0.050618
0.174347 0.353858 0.049903
0.231392 0.371401 0.052531
0.277142 0.387655 0.058336
0.320329 0.397483 0.068567
0.358815 0.397101 0.069667
0.395525 0.393431 0.072053
0.431866 0.393627 0.075265
0.462239 0.390946 0.072824
0.489883 0.384437 0.066103
0.525154 0.389314 0.066031
0.569505 0.395920 0.056081
0.600255 0.396899 0.052474
0.615924 0.387097 0.055516
0.635670 0.376849 0.050483
0.651460 0.369241 0.043240
0.676695 0.371073 0.048941
0.700835 0.368749 0.049649
0.730031 0.372196 0.051013
0.753122 0.368838 0.057303
0.775451 0.360708 0.064397
0.798016 0.362813 0.076170
0.815161 0.357435 0.093696
0.836089 0.353201 0.107484
0.860780 0.363913 0.119336
0.894377 0.377668 0.135095
0.921986 0.388140 0.145954
0.935057 0.394830 0.156453
0.024610 0.333121 0.053621
0.025594 0.334361 0.053507
0.030963 0.337904 0.052612
0.052687 0.350673 0.058319
0.085512 0.370531 0.067636
0.123666 0.380377 0.064909
0.159193 0.382102 0.058907
0.203486 0.384101 0.052874
0.258952 0.398700 0.060920
0.303895 0.414474 0.067184
0.347953 0.425125 0.077455
0.387889 0.427104 0.078930
0.427933 0.424941 0.082010
0.459524 0.423309 0.083217
0.492183 0.420501 0.081069
0.523973 0.420510 0.077310
0.559538 0.423735 0.074231
0.599648 0.430542 0.068456
0.631528 0.432584 0.061491
0.649416 0.422311 0.060917
0.665723 0.412912 0.058674
0.687097 0.407073 0.055850
0.707467 0.402823 0.054225
0.725998 0.396911 0.054797
0.748674 0.393435 0.057724
0.779564 0.394208 0.062350
0.800280 0.391993 0.068912
0.819340 0.389110 0.082092
0.841928 0.385537 0.100606
0.864089 0.389649 0.118321
0.890551 0.399408 0.135674
0.920406 0.405546 0.148829
0.933400 0.413218 0.156109
0.040883 0.369348 0.083627
0.046410 0.372681 0.084267
0.056637 0.378215 0.083969
0.074262 0.388738 0.082708
0.106515 0.410742 0.078668
0.126193 0.415356 0.070561
0.156328 0.411649 0.061537
0.196487 0.407217 0.050627
0.233085 0.405937 0.043305
0.284616 0.423736 0.057308
0.338635 0.445789 0.060250
0.380505 0.455994 0.060926
0.421120 0.455941 0.075899
0.455933 0.451599 0.072122
0.486479 0.449274 0.068989
0.521934 0.451019 0.075219
0.561913 0.457301 0.067471
0.593781 0.460896 0.058530
0.634059 0.468382 0.062931
0.674743 0.475202 0.049111
0.696941 0.469267 0.039107
0.704766 0.452234 0.052342
0.718492 0.437172 0.050294
0.729465 0.426414 0.046520
0.740094 0.413521 0.054827
0.769168 0.412576 0.056512
0.797455 0.417392 0.054442
0.826247 0.423794 0.072183
0.852662 0.427415 0.084260
0.870450 0.425960 0.099122
0.894359 0.425822 0.128849
0.919568 0.426769 0.144382
0.932915 0.432298 0.158599
0.080281 0.420080 0.104831
0.091172 0.426159 0.103603
0.105616 0.435407 0.101853
0.107622 0.436101 0.100829
0.114121 0.437654 0.095069
0.138596 0.446159 0.089324
0.162904 0.448624 0.083680
0.191546 0.444100 0.071142
0.228834 0.434837 0.055410
0.266164 0.435739 0.053582
0.313314 0.451243 0.056429
0.362065 0.467950 0.062342
0.407468 0.479710 0.076480
0.451475 0.482018 0.076125
0.491846 0.485148 0.082191
0.521811 0.484082 0.083616
0.560288 0.486078 0.077469
0.596662 0.491769 0.078891
0.626984 0.494054 0.074827
0.671046 0.503091 0.065929
0.707581 0.509325 0.063472
0.729960 0.502169 0.059281
0.735050 0.477091 0.053319
0.738726 0.458645 0.052256
0.746672 0.443666 0.057306
0.766619 0.434202 0.057127
0.790854 0.437200 0.059439
0.824621 0.446869 0.073420
0.861905 0.460260 0.083520
0.886943 0.470111 0.092489
0.905766 0.461032 0.121980
0.926699 0.456487 0.142221
0.936844 0.452084 0.160466
0.072319 0.443084 0.104508
0.079069 0.446988 0.103071
0.088186 0.452689 0.100276
0.109033 0.465451 0.094220
0.130501 0.479802 0.086411
0.148260 0.482474 0.087493
0.167289 0.484023 0.087343
0.191350 0.481378 0.085704
0.219953 0.476543 0.079173
0.262361 0.474364 0.065100
0.294958 0.469297 0.060707
0.330485 0.472060 0.058740
0.376786 0.483834 0.064477
0.426502 0.498371 0.076476
0.478861 0.511355 0.086086
0.525992 0.519035 0.086627
0.559213 0.520536 0.086721
0.590982 0.519852 0.084731
0.625238 0.522610 0.083041
0.660210 0.527904 0.082376
0.701666 0.537316 0.079077
0.740925 0.544960 0.066180
0.762575 0.534431 0.061098
0.764996 0.511225 0.059721
0.763241 0.486805 0.061512
0.774481 0.469531 0.066331
0.795190 0.466485 0.067963
0.823154 0.470508 0.073270
0.858451 0.479746 0.087658
0.883284 0.488116 0.100127
0.910621 0.496349 0.118547
0.934972 0.490670 0.141678
0.943882 0.488063 0.156940
0.059934 0.481872 0.121024
0.065752 0.485955 0.120398
0.071006 0.490802 0.119004
0.082597 0.497993 0.115776
0.105291 0.503441 0.112785
0.132785 0.506238 0.109589
0.178934 0.511470 0.101381
0.205106 0.514953 0.084549
0.225925 0.514398 0.073709
0.272330 0.523031 0.074710
0.309666 0.510352 0.057953
0.333971 0.499375 0.049265
0.350188 0.490047 0.049207
0.386446 0.495442 0.050409
0.451808 0.521342 0.062669
0.513590 0.540442 0.083835
0.555542 0.544157 0.074256
0.584772 0.544961 0.062416
0.621988 0.549868 0.074247
0.663426 0.556611 0.073036
0.698455 0.566688 0.070596
0.733498 0.571688 0.069306
0.775089 0.579889 0.058136
0.801832 0.574003 0.046340
0.789575 0.539647 0.054478
0.779572 0.501701 0.055556
0.796998 0.494738 0.060177
0.827490 0.501533 0.073284
0.851234 0.497238 0.077848
0.870828 0.499662 0.086485
0.904265 0.513541 0.105753
0.945422 0.540355 0.132741
0.954898 0.538075 0.152088
0.042433 0.490516 0.127929
0.055984 0.492154 0.127737
0.058500 0.493298 0.127565
0.067527 0.498026 0.126784
0.090617 0.505051 0.124348
0.117099 0.514117 0.120934
0.169240 0.526567 0.117680
0.218505 0.537741 0.107512
0.247730 0.542547 0.094954
0.270025 0.545835 0.088660
0.300232 0.546797 0.085349
0.340810 0.538174 0.071522
0.365482 0.525628 0.060543
0.376080 0.514207 0.051249
0.407168 0.516345 0.052263
0.468081 0.537757 0.069507
0.535355 0.556863 0.083644
0.575723 0.562140 0.079843
0.613046 0.572259 0.074568
0.650971 0.576301 0.074092
0.686562 0.580496 0.073730
0.725264 0.591510 0.076076
0.766639 0.600231 0.061163
0.800518 0.605681 0.054723
0.813397 0.591416 0.059756
0.808264 0.560043 0.058508
0.799243 0.524740 0.055511
0.824438 0.522687 0.072201
0.857628 0.524502 0.080938
0.881623 0.530472 0.088797
0.901559 0.528351 0.103577
0.942065 0.557026 0.127870
0.957516 0.563391 0.149525
0.016983 0.516675 0.114885
0.025423 0.518715 0.115119
0.025825 0.519546 0.112737
0.027254 0.520150 0.112776
0.051000 0.523576 0.115687
0.072104 0.526751 0.116681
0.123782 0.540035 0.122725
0.182106 0.552508 0.118141
0.251894 0.567997 0.120621
0.287634 0.571810 0.110366
0.318855 0.576881 0.104301
0.352257 0.589600 0.098231
0.389708 0.584548 0.088805
0.405627 0.564185 0.076432
0.408031 0.546494 0.065305
0.429710 0.544008 0.057622
0.477095 0.556342 0.071361
0.545526 0.576682 0.094418
0.604019 0.593604 0.090466
0.645585 0.604391 0.079930
0.683732 0.611714 0.082424
0.718863 0.615019 0.078563
0.757889 0.623796 0.081163
0.791407 0.629929 0.077797
0.815980 0.626889 0.071341
0.824346 0.604553 0.067154
0.819416 0.574971 0.067578
0.825983 0.553380 0.068258
0.853802 0.546863 0.074421
0.878665 0.547268 0.083833
0.898941 0.545422 0.099386
0.934388 0.562288 0.122963
0.950124 0.570885 0.142900
0.008918 0.541458 0.084412
0.009174 0.541667 0.084529
0.009521 0.541969 0.084819
0.017905 0.544462 0.084558
0.019773 0.545582 0.089984
0.033199 0.549272 0.089701
0.068095 0.556178 0.093704
0.118785 0.570619 0.107765
0.225650 0.594211 0.121258
0.317891 0.613387 0.143070
0.359710 0.620110 0.138486
0.410281 0.641190 0.139407
0.433650 0.643613 0.137326
0.443734 0.622028 0.111680
0.429947 0.577830 0.059238
0.433327 0.571886 0.052505
0.442722 0.564327 0.049723
0.475526 0.568630 0.063436
0.564274 0.595650 0.085794
0.638020 0.619869 0.079752
0.675126 0.632638 0.068952
0.720359 0.645381 0.069672
0.762853 0.653104 0.065171
0.799793 0.664832 0.063324
0.823521 0.663026 0.073466
0.833762 0.643410 0.062323
0.834271 0.622561 0.058703
0.845634 0.603092 0.067248
0.863943 0.587212 0.064112
0.888087 0.584919 0.073099
0.904596 0.578065 0.090067
0.932531 0.580054 0.106549
0.946391 0.588013 0.125370
0.005811 0.572811 0.069533
0.011517 0.574252 0.070741
0.011565 0.575258 0.069841
0.011750 0.575534 0.069993
0.012333 0.575955 0.071271
0.024626 0.578639 0.079688
0.049112 0.584985 0.082092
0.068091 0.589024 0.091806
0.124997 0.597438 0.093596
0.262474 0.631919 0.124786
0.391133 0.664639 0.165867
0.445818 0.674338 0.173489
0.479468 0.689946 0.177558
0.505883 0.696418 0.166224
0.516797 0.688952 0.138938
0.469194 0.622128 0.098892
0.440113 0.581426 0.060210
0.454622 0.581054 0.054460
0.497260 0.590737 0.059773
0.594057 0.622652 0.080164
0.671248 0.651498 0.086936
0.709410 0.664240 0.084345
0.755090 0.674456 0.070127
0.792325 0.681583 0.065027
0.827237 0.689791 0.074938
0.846799 0.683213 0.082627
0.851947 0.666476 0.065886
0.854847 0.638792 0.070106
0.866738 0.621323 0.068233
0.887133 0.613853 0.069805
0.907034 0.603234 0.088214
0.932596 0.604098 0.094028
0.943045 0.603601 0.110512
0.003592 0.599246 0.053917
0.003604 0.599370 0.053881
0.007141 0.601822 0.057009
0.007325 0.602065 0.057192
0.007631 0.604043 0.059408
0.008205 0.605461 0.060486
0.021138 0.610435 0.064052
0.025310 0.614311 0.068305
0.054296 0.623421 0.087355
0.191165 0.643549 0.116668
0.377645 0.691329 0.162052
0.471929 0.714126 0.188825
0.510088 0.720012 0.190526
0.532075 0.731308 0.186891
0.547301 0.737726 0.177333
0.545334 0.723383 0.172933
0.496258 0.653307 0.119021
0.452179 0.598790 0.056316
0.467816 0.602073 0.060346
0.514328 0.615159 0.067805
0.611227 0.648534 0.088333
0.700240 0.682264 0.098574
0.742788 0.696109 0.096117
0.773266 0.696301 0.090617
0.809953 0.703051 0.086587
0.850829 0.713901 0.089165
0.871591 0.714630 0.097215
0.874718 0.692895 0.094391
0.877726 0.661523 0.079203
0.887319 0.646060 0.074855
0.914673 0.640649 0.092268
0.932506 0.630060 0.097637
0.941792 0.629570 0.111708
0.001981 0.625964 0.046503
0.001980 0.626098 0.046594
0.005382 0.627910 0.049955
0.005419 0.628159 0.050149
0.005502 0.628533 0.050459
0.005675 0.630065 0.049732
0.006059 0.631827 0.051112
0.019888 0.637213 0.065990
0.023633 0.638827 0.070002
0.070659 0.647886 0.081625
0.220968 0.673569 0.117505
0.453690 0.735737 0.187851
0.528820 0.754025 0.208590
0.565164 0.759902 0.211398
0.581595 0.769212 0.209874
0.595963 0.774599 0.199075
0.593487 0.760092 0.179690
0.522276 0.674419 0.114898
0.479148 0.624725 0.052092
0.496836 0.632282 0.063620
0.533483 0.642373 0.075531
0.631875 0.671671 0.096709
0.743236 0.716197 0.093395
0.783343 0.732593 0.072120
0.800011 0.722139 0.089622
0.837360 0.721813 0.065450
0.873482 0.734887 0.064462
0.894654 0.740004 0.098957
0.894420 0.706412 0.081374
0.908323 0.691788 0.066332
0.931876 0.684068 0.077632
0.949867 0.670834 0.079530
0.947676 0.659341 0.096788
0.002735 0.651106 0.056204
0.002740 0.651264 0.056306
0.002752 0.651453 0.056423
0.002770 0.651745 0.056585
0.002787 0.652852 0.056732
0.002887 0.653910 0.058201
0.002937 0.657276 0.060769
0.005567 0.660598 0.064547
0.012530 0.666734 0.070411
0.015019 0.669745 0.073400
0.028960 0.678437 0.085467
0.307647 0.725092 0.139276
0.506557 0.776341 0.205575
0.585555 0.790398 0.220216
0.611556 0.793091 0.217175
0.622933 0.798211 0.208010
0.636933 0.802694 0.196214
0.636091 0.795645 0.193045
0.566477 0.718947 0.137126
0.514123 0.657903 0.076824
0.525948 0.659102 0.076100
0.558759 0.670122 0.088080
0.641793 0.694597 0.118632
0.754114 0.731829 0.113439
0.815770 0.761578 0.091630
0.847168 0.763013 0.087350
0.890188 0.768474 0.075534
0.906541 0.766091 0.096330
0.905049 0.740885 0.086526
0.911451 0.718179 0.054978
0.941718 0.718281 0.073677
0.970235 0.716668 0.078735
0.972429 0.709408 0.103170
0.003358 0.676929 0.064308
0.003362 0.677064 0.064365
0.003185 0.678798 0.064129
0.003205 0.680010 0.065193
0.003212 0.680326 0.065376
0.003147 0.683401 0.066620
0.003128 0.686057 0.068806
0.011144 0.690686 0.074328
0.018976 0.695919 0.080531
0.042407 0.703341 0.088729
0.050300 0.708167 0.094244
0.155676 0.722063 0.110982
0.420993 0.774430 0.176555
0.611733 0.820243 0.225006
0.653045 0.825373 0.230819
0.659724 0.829633 0.225883
0.670098 0.835728 0.220650
0.675462 0.838285 0.219015
0.668812 0.824229 0.204093
0.595301 0.742238 0.147552
0.542633 0.681786 0.094770
0.559662 0.689397 0.095357
0.599885 0.702634 0.102354
0.672969 0.722109 0.104896
0.794510 0.767875 0.115686
0.853445 0.793416 0.065014
0.878765 0.792688 0.081737
0.905907 0.791939 0.073966
0.916751 0.776940 0.083778
0.929660 0.769584 0.063340
0.943685 0.750276 0.079547
0.976600 0.752203 0.081288
0.986618 0.752886 0.109565
0.002539 0.709121 0.072579
0.002529 0.709296 0.072621
0.002514 0.709501 0.072673
0.002493 0.709806 0.072751
0.002475 0.710232 0.072865
0.002326 0.712297 0.075424
0.002284 0.714330 0.078478
0.002159 0.715157 0.079035
0.002204 0.718781 0.082953
0.002024 0.722391 0.083544
0.037568 0.733663 0.097489
0.109942 0.746787 0.113878
0.366715 0.787843 0.163507
0.543105 0.828727 0.215584
0.672850 0.853496 0.249584
0.688051 0.855475 0.248494
0.695491 0.859788 0.244712
0.704856 0.864758 0.243329
0.718022 0.870900 0.237241
0.716929 0.863194 0.229425
0.655813 0.796910 0.183944
0.573194 0.709179 0.110484
0.588517 0.715630 0.104594
0.616096 0.723524 0.119356
0.655275 0.740312 0.144344
0.800062 0.785111 0.165368
0.895838 0.813585 0.136454
0.908086 0.815277 0.060148
0.926110 0.807733 0.065790
0.948878 0.808738 0.047703
0.960007 0.800270 0.053297
0.972707 0.775780 0.078143
0.989940 0.785068 0.102947
0.001530 0.736330 0.082679
0.001370 0.739971 0.084256
0.001373 0.740060 0.084290
0.001370 0.740191 0.084344
0.001365 0.740780 0.083988
0.001360 0.740997 0.084113
0.001360 0.741276 0.084302
0.001359 0.741623 0.084578
0.016210 0.747066 0.088353
0.017470 0.747710 0.089112
0.033939 0.753785 0.094205
0.162619 0.768213 0.117306
0.268677 0.784342 0.140808
0.481953 0.822750 0.189568
0.665013 0.868417 0.246194
0.723076 0.879432 0.259599
0.729607 0.884599 0.265823
0.738231 0.889242 0.264091
0.744785 0.891838 0.260178
0.754160 0.897306 0.264838
0.765451 0.904360 0.276042
0.732965 0.867788 0.252961
0.643766 0.770416 0.169235
0.628700 0.742990 0.137649
0.650492 0.753831 0.149466
0.689019 0.764692 0.167591
0.806053 0.789465 0.184028
0.938560 0.810745 0.147855
0.951653 0.819214 0.138629
