backend/lut_outputs/test3d.cube
TITLE "DSC04635"
LUT_3D_SIZE 9
0.060410 0.046069 0.075332
0.155155 0.038483 0.047686
0.288053 0.034729 0.038875
0.408493 0.032235 0.036031
0.505599 0.025076 0.030276
0.620714 0.011534 0.024455
0.710521 0.030942 0.056778
0.820693 0.048094 0.054547
0.909602 0.098955 0.097951
0.054410 0.144498 0.044961
0.142490 0.152740 0.039295
0.284120 0.149745 0.041395
0.410163 0.139875 0.042700
0.525973 0.134378 0.042046
0.628205 0.130803 0.046324
0.717380 0.126389 0.062752
0.840019 0.151348 0.078474
0.926519 0.179514 0.101607
0.052654 0.261275 0.058746
0.118780 0.271770 0.048829
0.289918 0.293003 0.057401
0.422932 0.285171 0.054337
0.532802 0.275109 0.040775
0.643171 0.279546 0.045707
0.741723 0.272893 0.078422
0.830258 0.268615 0.099507
0.940750 0.335622 0.134449
0.024610 0.333121 0.053621
0.085512 0.370531 0.067636
0.258952 0.398700 0.060920
0.427933 0.424941 0.082010
0.559538 0.423735 0.074231
0.665723 0.412912 0.058674
0.748674 0.393435 0.057724
0.841928 0.385537 0.100606
0.933400 0.413218 0.156109
0.059934 0.481872 0.121024
0.105291 0.503441 0.112785
0.225925 0.514398 0.073709
0.350188 0.490047 0.049207
0.555542 0.544157 0.074256
0.698455 0.566688 0.070596
0.789575 0.539647 0.054478
0.851234 0.497238 0.077848
0.954898 0.538075 0.152088
0.005811 0.572811 0.069533
0.012333 0.575955 0.071271
0.124997 0.597438 0.093596
0.479468 0.689946 0.177558
0.440113 0.581426 0.060210
0.671248 0.651498 0.086936
0.827237 0.689791 0.074938
0.866738 0.621323 0.068233
0.943045 0.603601 0.110512
0.003358 0.676929 0.064308
0.003212 0.680326 0.065376
0.018976 0.695919 0.080531
0.420993 0.774430 0.176555
0.670098 0.835728 0.220650
0.542633 0.681786 0.094770
0.794510 0.767875 0.115686
0.916751 0.776940 0.083778
0.986618 0.752886 0.109565
0.012328 0.772996 0.099929
0.012656 0.773639 0.100320
0.042851 0.781801 0.110654
0.397822 0.834770 0.193890
0.781203 0.925574 0.339284
0.809063 0.943342 0.364739
0.756055 0.869435 0.305352
0.855907 0.832597 0.289476
0.997221 0.844600 0.278713
0.637353 0.910594 0.320332
0.684537 0.926491 0.344665
0.715452 0.937315 0.365620
0.803553 0.964057 0.415047
0.857275 0.979678 0.451602
0.875773 0.984284 0.472581
0.869650 0.971017 0.463793
0.911516 0.910617 0.419769
0.990824 0.904964 0.474140
0.052305 0.064650 0.170939
0.176290 0.068060 0.194024
0.300466 0.036496 0.155722
0.417678 0.034397 0.136092
0.470941 0.039909 0.111155
0.601528 0.023118 0.088776
0.709133 0.025565 0.081550
0.788811 0.012337 0.071097
0.890092 0.040639 0.099375
0.045207 0.138720 0.139857
0.140364 0.137765 0.140185
0.288974 0.138757 0.132258
0.422659 0.131989 0.123800
0.529247 0.109614 0.105551
0.628099 0.091683 0.093638
0.718965 0.093757 0.102175
0.834750 0.119134 0.110592
0.935445 0.164042 0.126634
0.027092 0.282646 0.135264
0.119901 0.267766 0.130128
0.292637 0.283579 0.142033
0.420574 0.275078 0.133325
0.536164 0.265114 0.115712
0.653485 0.259540 0.111076
0.743257 0.248760 0.110467
0.829584 0.247426 0.128944
0.945732 0.298505 0.147803
0.018552 0.336099 0.093236
0.088823 0.358508 0.126177
0.270162 0.401028 0.137344
0.438505 0.424939 0.147578
0.564304 0.417384 0.130898
0.655569 0.395841 0.106649
0.750318 0.383273 0.090404
0.851435 0.378203 0.126427
0.940201 0.405630 0.173192
0.011234 0.456818 0.138867
0.041815 0.458197 0.142589
0.214151 0.483490 0.142579
0.358398 0.487621 0.116939
0.555065 0.538473 0.142843
0.685101 0.548223 0.134090
0.765988 0.509916 0.097639
0.857389 0.491590 0.101748
0.952479 0.510971 0.170977
0.004509 0.575327 0.038544
0.018627 0.573892 0.075525
0.135004 0.605185 0.142268
0.468473 0.683561 0.185545
0.453654 0.586040 0.102811
0.673717 0.650425 0.136983
0.832430 0.690958 0.119962
0.869101 0.611451 0.094650
0.945707 0.599528 0.129949
0.003642 0.677480 0.064604
0.003611 0.680756 0.065843
0.028115 0.698445 0.083636
0.427848 0.788753 0.192955
0.666886 0.835146 0.222802
0.537109 0.679370 0.105936
0.817487 0.779227 0.146296
0.913037 0.772405 0.130204
0.984283 0.747292 0.132656
0.011937 0.773410 0.099757
0.012298 0.774217 0.100238
0.042144 0.782621 0.110653
0.363707 0.831820 0.190175
0.782411 0.927594 0.349563
0.809480 0.944021 0.364907
0.748170 0.861481 0.298820
0.862909 0.836679 0.289681
0.996872 0.844126 0.285643
0.636184 0.912300 0.320874
0.668269 0.921878 0.337251
0.714200 0.937126 0.365188
0.816270 0.967524 0.422554
0.857267 0.979750 0.451796
0.876017 0.984387 0.472922
0.872296 0.973587 0.470062
0.912968 0.909732 0.427056
0.990921 0.906872 0.481113
0.028595 0.080685 0.287252
0.165748 0.076768 0.298040
0.268628 0.082275 0.280927
0.387834 0.062250 0.280816
0.558090 0.040988 0.263532
0.576207 0.021973 0.185839
0.695741 0.049895 0.180270
0.865467 0.104328 0.201290
0.948355 0.167891 0.183698
0.033329 0.148261 0.280970
0.115714 0.146156 0.279078
0.270750 0.129885 0.269706
0.423885 0.128336 0.267758
0.545156 0.126417 0.245308
0.606525 0.109891 0.201714
0.706507 0.090129 0.185370
0.909408 0.120121 0.186307
0.952092 0.172613 0.178814
0.019310 0.257311 0.271333
0.095652 0.255782 0.266932
0.271894 0.268482 0.272221
0.420225 0.269973 0.263636
0.546748 0.268086 0.256761
0.636652 0.247204 0.231917
0.716682 0.220336 0.206806
0.800373 0.201278 0.207236
0.915293 0.233042 0.229235
0.015746 0.383633 0.245893
0.067043 0.391251 0.258637
0.245837 0.385267 0.256854
0.415330 0.408746 0.275397
0.548211 0.404596 0.272674
0.653895 0.386771 0.247626
0.758250 0.364178 0.225741
0.863261 0.351690 0.208245
0.918651 0.337363 0.207955
0.059811 0.453835 0.210376
0.090187 0.457103 0.237340
0.215571 0.481176 0.260772
0.384505 0.516056 0.260569
0.558327 0.544787 0.285133
0.669126 0.525492 0.267975
0.760378 0.499089 0.222414
0.866939 0.489405 0.202559
0.951320 0.482104 0.230802
0.020312 0.572812 0.228684
0.047295 0.578676 0.259312
0.189142 0.594656 0.277467
0.345647 0.592713 0.252404
0.468199 0.592991 0.211341
0.666631 0.643817 0.266414
0.806960 0.659327 0.256876
0.878905 0.610955 0.203910
0.954899 0.593373 0.199277
0.004501 0.680323 0.066992
0.007751 0.684396 0.068920
0.064219 0.715109 0.114776
0.331135 0.794263 0.219460
0.590585 0.800104 0.284116
0.553229 0.693939 0.181922
0.798558 0.773217 0.268527
0.918010 0.781360 0.287549
0.973412 0.729751 0.220553
0.010710 0.776204 0.099963
0.023672 0.780773 0.104760
0.050289 0.789433 0.116016
0.316639 0.827712 0.186570
0.779608 0.927115 0.356899
0.804781 0.948310 0.380151
0.744331 0.855134 0.311773
0.870936 0.844695 0.312618
0.996037 0.854122 0.303802
0.631733 0.913227 0.328074
0.665215 0.922973 0.343434
0.711340 0.937432 0.367497
0.816593 0.968521 0.425732
0.860369 0.981412 0.458279
0.878596 0.985337 0.479092
0.871082 0.970337 0.470496
0.916083 0.911556 0.439425
0.991392 0.912685 0.489583
0.010440 0.128669 0.431331
0.125340 0.097657 0.409910
0.286855 0.071162 0.371271
0.352405 0.108094 0.353593
0.460873 0.081335 0.357916
0.612179 0.012298 0.332335
0.767890 0.066994 0.433897
0.819929 0.092599 0.384678
0.896325 0.174763 0.302982
0.016959 0.134207 0.369290
0.078776 0.149321 0.395495
0.257053 0.141455 0.391627
0.372875 0.140489 0.363250
0.496476 0.122864 0.386669
0.667556 0.111990 0.371288
0.754937 0.091757 0.376304
0.806438 0.103904 0.321936
0.907328 0.174199 0.308309
0.034716 0.266254 0.411936
0.092834 0.272179 0.408966
0.259341 0.275428 0.409561
0.390616 0.249933 0.386386
0.535822 0.258915 0.387335
0.662995 0.259690 0.359564
0.740483 0.246673 0.314263
0.821492 0.193100 0.299034
0.941713 0.203301 0.298292
0.014093 0.355337 0.365826
0.050191 0.350875 0.366876
0.228859 0.372181 0.385159
0.396305 0.394401 0.399827
0.542815 0.397704 0.392502
0.652631 0.378872 0.366966
0.749943 0.357618 0.336441
0.836692 0.330246 0.298675
0.934444 0.328896 0.312993
0.012305 0.526972 0.392829
0.041762 0.511981 0.385661
0.210630 0.495774 0.383203
0.358387 0.495143 0.368011
0.541184 0.529669 0.399388
0.659491 0.515566 0.384132
0.763515 0.499582 0.357396
0.880435 0.483663 0.333061
0.959288 0.474509 0.298199
0.138502 0.557997 0.336035
0.163352 0.565286 0.347569
0.212111 0.566543 0.355516
0.324994 0.572296 0.363779
0.456800 0.587458 0.337669
0.663912 0.647943 0.397122
0.790156 0.634062 0.368572
0.886411 0.620564 0.327436
0.957806 0.601640 0.302223
0.125971 0.695574 0.268870
0.157219 0.700822 0.309657
0.238834 0.724970 0.404442
0.328078 0.752860 0.407174
0.509426 0.736626 0.382720
0.576717 0.710728 0.327965
0.788080 0.766065 0.368499
0.912241 0.764357 0.378780
0.972913 0.740720 0.334489
0.019807 0.791608 0.108587
0.020715 0.797856 0.109999
0.021438 0.812747 0.116744
0.212218 0.833116 0.176345
0.719808 0.925599 0.387955
0.792364 0.941106 0.462322
0.760912 0.870574 0.367745
0.880185 0.861852 0.396671
0.994440 0.873510 0.360847
0.625079 0.915150 0.329030
0.632435 0.917164 0.332660
0.689552 0.932226 0.360721
0.825191 0.972832 0.438098
0.862757 0.983275 0.468941
0.883685 0.987064 0.490375
0.874780 0.972285 0.486291
0.923573 0.918003 0.472978
0.991829 0.926346 0.534009
0.010403 0.160087 0.531135
0.032628 0.151381 0.541224
0.234697 0.114584 0.443720
0.343963 0.119814 0.419519
0.426509 0.146234 0.413906
0.589179 0.111215 0.461388
0.728298 0.026955 0.457948
0.883931 0.116638 0.564451
0.941834 0.162057 0.542127
0.018759 0.185711 0.526700
0.018812 0.194893 0.567439
0.212926 0.155049 0.493325
0.348240 0.135281 0.424759
0.460655 0.171251 0.430523
0.586194 0.136887 0.511717
0.730281 0.040918 0.470562
0.880129 0.102747 0.545617
0.940191 0.173222 0.510482
0.008720 0.218353 0.441659
0.055806 0.253159 0.489048
0.228124 0.271397 0.520026
0.380870 0.249126 0.509919
0.509218 0.235945 0.471305
0.656660 0.243381 0.509751
0.752961 0.231170 0.459719
0.848398 0.179203 0.460285
0.960140 0.195020 0.432727
0.032291 0.370845 0.503872
0.054790 0.389736 0.522546
0.231110 0.397164 0.527157
0.380565 0.395839 0.527596
0.515662 0.373562 0.512995
0.648023 0.376750 0.503859
0.745070 0.348648 0.441502
0.854651 0.334830 0.402548
0.961486 0.300505 0.374384
0.018151 0.488108 0.511739
0.023609 0.497718 0.523516
0.179435 0.480596 0.500553
0.348005 0.489251 0.501861
0.522274 0.519568 0.526754
0.652560 0.510084 0.504749
0.746125 0.479678 0.465981
0.881635 0.470762 0.436535
0.951915 0.455530 0.387075
0.083329 0.614948 0.481236
0.095388 0.616867 0.486182
0.203695 0.634713 0.512871
0.345433 0.603824 0.496567
0.469774 0.602583 0.480625
0.657171 0.645244 0.516481
0.779805 0.625162 0.481265
0.877158 0.601579 0.449754
0.971765 0.611891 0.438193
0.237474 0.709345 0.452024
0.251119 0.713761 0.461080
0.283357 0.723010 0.478038
0.385772 0.758163 0.528185
0.442022 0.709508 0.492359
0.570937 0.707373 0.460931
0.764759 0.748182 0.484668
0.909767 0.748343 0.465297
0.969169 0.732628 0.435174
0.097235 0.801041 0.148625
0.116454 0.804088 0.164759
0.184609 0.820636 0.202962
0.302575 0.846921 0.289450
0.622508 0.869443 0.430573
0.705547 0.868198 0.462290
0.729610 0.879033 0.505663
0.879508 0.861278 0.484665
0.991439 0.865613 0.481152
0.567580 0.909190 0.346715
0.587397 0.912601 0.352463
0.671755 0.931847 0.379664
0.823355 0.974409 0.455031
0.860370 0.983111 0.481923
0.888165 0.987886 0.517496
0.868073 0.969402 0.514945
0.931243 0.955497 0.549047
0.991249 0.936799 0.572942
0.016495 0.209047 0.605761
0.049265 0.205293 0.624071
0.188395 0.172129 0.565435
0.301514 0.146130 0.482017
0.415251 0.157202 0.459491
0.575624 0.209708 0.518728
0.728789 0.110146 0.532964
0.856648 0.098987 0.594527
0.970446 0.192959 0.658687
0.010835 0.223047 0.630484
0.009627 0.228557 0.659529
0.175401 0.200896 0.608572
0.299444 0.171799 0.538278
0.425900 0.166282 0.474726
0.590174 0.219406 0.530681
0.729205 0.139584 0.556015
0.860508 0.107162 0.603379
0.976514 0.200439 0.664067
0.009924 0.236945 0.543579
0.041343 0.271480 0.619603
0.219344 0.315404 0.670588
0.351197 0.277165 0.634003
0.456857 0.207736 0.537634
0.617360 0.253136 0.550721
0.725709 0.229983 0.624484
0.870227 0.168060 0.636636
0.987623 0.209342 0.640115
0.013574 0.341116 0.570797
0.037913 0.340469 0.571226
0.202040 0.398103 0.646025
0.368762 0.408363 0.666802
0.501185 0.367966 0.629131
0.622211 0.350420 0.586445
0.757549 0.358474 0.613401
0.871185 0.322406 0.547445
0.981529 0.312552 0.600382
0.012000 0.484454 0.619404
0.024998 0.476867 0.608698
0.179646 0.514247 0.642258
0.369019 0.523939 0.653441
0.503065 0.514899 0.643941
0.628466 0.487676 0.625804
0.760332 0.491434 0.617557
0.829485 0.431346 0.516068
0.986708 0.496007 0.525408
0.100574 0.591072 0.646539
0.107374 0.591206 0.642485
0.149029 0.592968 0.624013
0.317903 0.596837 0.615451
0.478980 0.611827 0.626120
0.652062 0.649567 0.654804
0.758657 0.610007 0.602464
0.868723 0.583525 0.562192
0.976705 0.610090 0.558731
0.204196 0.756432 0.583573
0.209270 0.755001 0.587866
0.306902 0.763722 0.607770
0.406446 0.749437 0.632986
0.489901 0.737601 0.626003
0.580566 0.717198 0.596292
0.770360 0.754996 0.617574
0.896466 0.738471 0.574404
0.976037 0.740228 0.570418
0.303008 0.841994 0.629838
0.310525 0.843553 0.631842
0.354800 0.851200 0.635822
0.429687 0.852584 0.649015
0.550327 0.837703 0.672285
0.609384 0.848711 0.657517
0.728902 0.869084 0.622205
0.888665 0.870371 0.573982
0.986963 0.862495 0.575142
0.042139 0.917755 0.634745
0.045188 0.918653 0.637210
0.165217 0.928294 0.654975
0.502795 0.958436 0.644469
0.795099 0.977896 0.554531
0.871312 0.984876 0.563943
0.874181 0.969600 0.608792
0.908590 0.977062 0.607205
0.986963 0.942808 0.586789
0.004058 0.250007 0.682499
0.009272 0.255914 0.698132
0.071079 0.260478 0.715016
0.257844 0.239516 0.674860
0.413240 0.225894 0.579969
0.546200 0.232734 0.546260
0.704611 0.225915 0.606571
0.851758 0.145222 0.627315
0.975847 0.210803 0.690091
0.003286 0.263180 0.701912
0.002974 0.271209 0.722463
0.082032 0.278067 0.739943
0.277767 0.272374 0.719170
0.418982 0.247442 0.612153
0.555207 0.238191 0.552158
0.704618 0.251222 0.623528
0.851901 0.159775 0.636306
0.980837 0.219754 0.697523
0.012980 0.304576 0.741549
0.005507 0.312235 0.764975
0.126815 0.319556 0.785540
0.332844 0.341744 0.788754
0.469728 0.328970 0.710671
0.612283 0.274488 0.594510
0.728214 0.285631 0.650316
0.853603 0.216648 0.671761
0.987286 0.238653 0.713148
0.004817 0.319835 0.609294
0.015265 0.341400 0.639947
0.180603 0.398341 0.755106
0.357121 0.411761 0.770345
0.456403 0.381553 0.730907
0.597725 0.329512 0.653033
0.767332 0.359647 0.673020
0.870646 0.326295 0.744237
0.990768 0.301250 0.755001
0.011589 0.449264 0.679214
0.031759 0.454874 0.692530
0.168896 0.464156 0.704487
0.349772 0.529757 0.775253
0.482320 0.519007 0.769305
0.601168 0.467469 0.722618
0.728954 0.456161 0.690211
0.881001 0.468706 0.754703
0.990924 0.449703 0.639990
0.024424 0.568671 0.714083
0.030429 0.575361 0.720035
0.108205 0.598391 0.732653
0.338457 0.636058 0.761071
0.509444 0.652260 0.777993
0.621246 0.631815 0.759237
0.756736 0.610069 0.750551
0.853810 0.579105 0.707530
0.985027 0.582010 0.643095
0.155983 0.709585 0.783231
0.166989 0.714907 0.787300
0.184259 0.729040 0.787743
0.292259 0.732485 0.761145
0.473042 0.734694 0.752361
0.595091 0.719666 0.738632
0.759221 0.755075 0.760701
0.879008 0.723440 0.713649
0.979073 0.723026 0.679754
0.000821 0.849009 0.696429
0.000683 0.850275 0.696661
0.000000 0.884710 0.712283
0.156790 0.918423 0.751951
0.543096 0.852587 0.765590
0.598005 0.870513 0.772912
0.721283 0.862893 0.745891
0.883910 0.854771 0.690182
0.986372 0.875349 0.698699
0.000000 0.937307 0.741328
0.000000 0.939176 0.743781
0.000000 0.943653 0.747227
0.000000 0.950969 0.754337
0.311083 0.946148 0.758871
0.666142 0.936143 0.738811
0.844028 0.947241 0.736518
0.915871 0.950371 0.716081
0.987701 0.947392 0.712190
0.002653 0.281919 0.738731
0.003252 0.287781 0.750506
0.031146 0.298099 0.770226
0.194487 0.319090 0.794022
0.379425 0.347815 0.783720
0.550528 0.285954 0.625309
0.685128 0.290519 0.634475
0.838560 0.200824 0.656801
0.974741 0.234816 0.710275
0.002305 0.294059 0.758291
0.004611 0.299594 0.768633
0.043433 0.311285 0.789913
0.205839 0.332121 0.808628
0.402489 0.370251 0.808558
0.564847 0.300506 0.649531
0.701189 0.305241 0.646454
0.840482 0.229790 0.676154
0.976758 0.243966 0.716733
0.003889 0.330066 0.803798
0.006993 0.334223 0.816187
0.056766 0.341666 0.830820
0.250154 0.363845 0.837837
0.421028 0.399458 0.841274
0.598718 0.352412 0.718900
0.720378 0.332335 0.672066
0.838970 0.280980 0.706224
0.980064 0.261923 0.730165
0.007263 0.404299 0.809358
0.007583 0.404591 0.818828
0.083275 0.405614 0.863881
0.293741 0.419049 0.880140
0.452091 0.441120 0.872378
0.546191 0.401691 0.772968
0.724997 0.381892 0.705335
0.861672 0.361690 0.757613
0.975693 0.329416 0.777030
0.134443 0.467535 0.853996
0.138383 0.469371 0.855814
0.211666 0.477075 0.838923
0.361155 0.538040 0.873843
0.492245 0.493779 0.863169
0.532194 0.463600 0.821294
0.718295 0.444582 0.778602
0.835133 0.462949 0.782513
0.981217 0.445187 0.831013
0.035757 0.581892 0.814330
0.049992 0.580014 0.821370
0.157914 0.579637 0.847794
0.350179 0.597059 0.859053
0.497756 0.634707 0.867286
0.577351 0.599456 0.853159
0.697421 0.550257 0.810398
0.830103 0.549237 0.800157
0.987975 0.613381 0.887175
0.026744 0.706850 0.847643
0.021325 0.709398 0.848858
0.036235 0.706801 0.844837
0.219580 0.713585 0.841859
0.439883 0.715503 0.862747
0.615105 0.746232 0.875218
0.706351 0.711679 0.849291
0.853328 0.698943 0.844643
0.946529 0.686763 0.839038
0.240063 0.838239 0.873949
0.279492 0.839613 0.899082
0.321824 0.848657 0.910094
0.362522 0.874698 0.922846
0.488044 0.875781 0.899527
0.640685 0.879710 0.895221
0.740815 0.854663 0.880862
0.862577 0.859520 0.864602
0.973363 0.860687 0.833921
0.000000 0.950832 0.759754
0.000000 0.952656 0.759972
0.056741 0.957811 0.766772
0.225812 0.969839 0.800571
0.462427 0.972802 0.863533
0.732572 0.959658 0.938704
0.827278 0.962520 0.910462
0.897216 0.945246 0.851005
0.980931 0.958798 0.841731
0.006595 0.318633 0.796817
0.006629 0.321894 0.801333
0.049570 0.332466 0.820199
0.131125 0.347719 0.836435
0.317857 0.383427 0.846485
0.486712 0.411674 0.834082
0.694804 0.324422 0.668762
0.797662 0.309081 0.697268
0.972777 0.252535 0.723443
0.004991 0.327021 0.808980
0.019705 0.333256 0.818016
0.055419 0.340888 0.830712
0.134226 0.356338 0.845700
0.326854 0.394164 0.857046
0.494316 0.419207 0.841422
0.699806 0.332393 0.673792
0.799110 0.323002 0.703682
0.969904 0.266984 0.731756
0.023440 0.355282 0.843737
0.024951 0.357175 0.846220
0.065219 0.364424 0.855888
0.160789 0.381132 0.868539
0.345566 0.418372 0.879913
0.506461 0.434089 0.854149
0.717634 0.355932 0.689345
0.785960 0.360287 0.720766
0.967519 0.294071 0.751128
0.040365 0.404792 0.863289
0.067976 0.407377 0.873692
0.113136 0.412541 0.887508
0.250197 0.435975 0.904445
0.371670 0.454998 0.907824
0.503638 0.443553 0.840481
0.687466 0.408127 0.737397
0.791928 0.414007 0.750192
0.969291 0.363290 0.799888
0.138620 0.459335 0.928043
0.142198 0.460120 0.929815
0.182965 0.473459 0.926707
0.302678 0.514748 0.933980
0.465331 0.530359 0.934238
0.538192 0.495982 0.881892
0.670120 0.473543 0.822734
0.778780 0.475522 0.802220
0.944069 0.470012 0.841420
0.192147 0.570476 0.964824
0.194049 0.573361 0.968386
0.218812 0.577263 0.964677
0.349865 0.605227 0.942382
0.505061 0.639427 0.961904
0.608985 0.604940 0.971258
0.706234 0.588939 0.924848
0.817280 0.552918 0.864510
0.895728 0.562664 0.859998
0.074495 0.704164 0.892828
0.124639 0.703793 0.901703
0.208631 0.698123 0.919148
0.353670 0.698945 0.970627
0.466192 0.708170 0.971298
0.624362 0.724810 0.957440
0.709433 0.713508 0.964001
0.819226 0.642295 0.901424
0.913741 0.643584 0.884356
0.304680 0.825523 0.936965
0.315853 0.828354 0.938303
0.355255 0.837750 0.944519
0.347612 0.833535 0.942623
0.476588 0.854097 0.947715
0.583756 0.838173 0.952487
0.737002 0.844911 0.962325
0.808035 0.802056 0.934310
0.937100 0.773018 0.926914
0.499098 0.931050 0.910314
0.520714 0.930978 0.923652
0.558227 0.930866 0.935027
0.640342 0.935671 0.955543
0.695409 0.938795 0.965693
0.761043 0.953155 0.966770
0.828517 0.962530 0.962870
0.889489 0.953544 0.958771
0.959375 0.960579 0.953484
